assets/luts/cinematic-tones-luts-pack-for-video-and-photo-2023-11-27-05-35-37-utc/Cinematic Tones_LUTs/Cinematic Tones 03.cube
#Generated with IWLTBAP LUT Generator
#Website: http://luts.iwltbap.com
TITLE "Cinematic Tones 03"
#LUT size
LUT_3D_SIZE 5
#LUT data points
0.000000 0.003922 0.000000
0.145098 0.007843 0.000000
0.458824 0.062745 0.031373
0.792157 0.176471 0.101961
1.000000 0.317647 0.290196
0.109804 0.172549 0.058824
0.192157 0.152941 0.105882
0.537255 0.266667 0.050980
0.819608 0.325490 0.137255
1.000000 0.407843 0.325490
0.376471 0.549020 0.247059
0.498039 0.560784 0.274510
0.592157 0.513725 0.368627
0.827451 0.545098 0.356863
0.992157 0.600000 0.407843
0.607843 0.807843 0.505882
0.666667 0.796078 0.517647
0.772549 0.792157 0.541176
0.831373 0.760784 0.603922
0.929412 0.792157 0.674510
0.831373 0.933333 0.745098
0.839216 0.929412 0.749020
0.894118 0.929412 0.752941
0.929412 0.929412 0.788235
0.964706 0.937255 0.835294
0.000000 0.007843 0.145098
0.086275 0.000000 0.180392
0.458824 0.054902 0.274510
0.800000 0.196078 0.337255
0.984314 0.372549 0.423529
0.023529 0.176471 0.243137
0.203922 0.215686 0.274510
0.533333 0.254902 0.309804
0.807843 0.333333 0.360784
0.976471 0.443137 0.443137
0.227451 0.572549 0.376471
0.435294 0.576471 0.403922
0.600000 0.541176 0.450980
0.823529 0.572549 0.431373
0.972549 0.619608 0.486275
0.584314 0.800000 0.545098
0.643137 0.800000 0.552941
0.756863 0.792157 0.576471
0.819608 0.768627 0.635294
0.925490 0.796078 0.666667
0.827451 0.929412 0.745098
0.847059 0.933333 0.749020
0.886275 0.929412 0.760784
0.937255 0.929412 0.780392
0.968627 0.925490 0.847059
0.003922 0.129412 0.454902
0.000000 0.070588 0.454902
0.313725 0.000000 0.474510
0.737255 0.329412 0.568627
0.945098 0.494118 0.607843
0.000000 0.309804 0.517647
0.035294 0.270588 0.513725
0.388235 0.203922 0.521569
0.752941 0.462745 0.592157
0.945098 0.568627 0.623529
0.305882 0.560784 0.584314
0.407843 0.576471 0.600000
0.607843 0.623529 0.619608
0.800000 0.639216 0.615686
0.929412 0.694118 0.650980
0.568627 0.811765 0.666667
0.607843 0.811765 0.662745
0.733333 0.811765 0.674510
0.819608 0.788235 0.698039
0.937255 0.819608 0.709804
0.796078 0.933333 0.776471
0.815686 0.937255 0.776471
0.866667 0.933333 0.792157
0.933333 0.937255 0.811765
0.960784 0.937255 0.850980
0.000000 0.270588 0.678431
0.003922 0.227451 0.678431
0.062745 0.149020 0.678431
0.525490 0.011765 0.662745
0.898039 0.525490 0.745098
0.000000 0.403922 0.698039
0.000000 0.376471 0.705882
0.192157 0.274510 0.694118
0.556863 0.211765 0.682353
0.894118 0.611765 0.756863
0.517647 0.658824 0.713725
0.541176 0.662745 0.733333
0.537255 0.611765 0.729412
0.647059 0.521569 0.713725
0.882353 0.760784 0.780392
0.615686 0.784314 0.749020
0.650980 0.788235 0.764706
0.717647 0.800000 0.780392
0.807843 0.819608 0.784314
0.929412 0.839216 0.784314
0.760784 0.937255 0.854902
0.772549 0.941176 0.835294
0.807843 0.941176 0.835294
0.898039 0.949020 0.847059
0.964706 0.941176 0.878431
0.392157 0.588235 0.866667
0.380392 0.572549 0.870588
0.352941 0.505882 0.870588
0.411765 0.364706 0.858824
0.737255 0.356863 0.878431
0.478431 0.647059 0.862745
0.486275 0.639216 0.870588
0.443137 0.572549 0.874510
0.462745 0.439216 0.870588
0.749020 0.423529 0.878431
0.666667 0.776471 0.862745
0.662745 0.772549 0.858824
0.627451 0.729412 0.866667
0.592157 0.623529 0.870588
0.784314 0.584314 0.894118
0.784314 0.862745 0.890196
0.788235 0.870588 0.890196
0.800000 0.874510 0.898039
0.784314 0.835294 0.898039
0.847059 0.772549 0.898039
0.823529 0.937255 0.929412
0.831373 0.933333 0.929412
0.850980 0.937255 0.929412
0.886275 0.945098 0.933333
0.964706 0.960784 0.945098
