assets/luts/cinematic-tones-luts-pack-for-video-and-photo-2023-11-27-05-35-37-utc/Cinematic Tones_LUTs/Cinematic Tones 04.cube
#Generated with IWLTBAP LUT Generator
#Website: http://luts.iwltbap.com
TITLE "Cinematic Tones 04"
#LUT size
LUT_3D_SIZE 5
#LUT data points
0.011765 0.050980 0.019608
0.109804 0.074510 0.039216
0.349020 0.133333 0.050980
0.741176 0.227451 0.117647
0.996078 0.411765 0.333333
0.000000 0.203922 0.050980
0.172549 0.211765 0.066667
0.505882 0.305882 0.082353
0.831373 0.376471 0.184314
1.000000 0.521569 0.427451
0.007843 0.592157 0.137255
0.003922 0.607843 0.160784
0.619608 0.592157 0.317647
0.874510 0.631373 0.470588
0.964706 0.741176 0.674510
0.427451 0.823529 0.509804
0.486275 0.823529 0.537255
0.682353 0.823529 0.580392
0.862745 0.803922 0.682353
0.905882 0.827451 0.792157
0.839216 0.882353 0.815686
0.839216 0.882353 0.815686
0.858824 0.886275 0.815686
0.898039 0.882353 0.839216
0.929412 0.886275 0.870588
0.031373 0.058824 0.082353
0.113725 0.090196 0.105882
0.364706 0.129412 0.168627
0.698039 0.243137 0.243137
0.992157 0.435294 0.419608
0.054902 0.203922 0.145098
0.164706 0.231373 0.160784
0.462745 0.294118 0.219608
0.788235 0.376471 0.294118
0.988235 0.533333 0.482353
0.000000 0.584314 0.305882
0.121569 0.600000 0.298039
0.611765 0.588235 0.400000
0.866667 0.654902 0.521569
0.956863 0.737255 0.678431
0.498039 0.819608 0.568627
0.541176 0.823529 0.576471
0.686275 0.811765 0.615686
0.858824 0.803922 0.701961
0.917647 0.819608 0.800000
0.835294 0.878431 0.815686
0.847059 0.882353 0.815686
0.862745 0.878431 0.823529
0.894118 0.878431 0.831373
0.929412 0.878431 0.854902
0.074510 0.105882 0.286275
0.176471 0.125490 0.305882
0.400000 0.164706 0.376471
0.772549 0.247059 0.486275
0.976471 0.450980 0.556863
0.121569 0.282353 0.360784
0.239216 0.294118 0.396078
0.470588 0.317647 0.431373
0.788235 0.392157 0.509804
0.960784 0.545098 0.592157
0.294118 0.584314 0.517647
0.419608 0.592157 0.541176
0.627451 0.611765 0.568627
0.831373 0.658824 0.623529
0.937255 0.729412 0.705882
0.650980 0.807843 0.701961
0.694118 0.803922 0.705882
0.733333 0.811765 0.701961
0.854902 0.807843 0.745098
0.909804 0.843137 0.815686
0.850980 0.874510 0.827451
0.854902 0.878431 0.831373
0.866667 0.882353 0.827451
0.894118 0.886275 0.839216
0.925490 0.882353 0.866667
0.152941 0.215686 0.658824
0.286275 0.231373 0.666667
0.513725 0.274510 0.682353
0.768627 0.341176 0.705882
0.968627 0.533333 0.741176
0.274510 0.388235 0.701961
0.372549 0.396078 0.701961
0.564706 0.415686 0.709804
0.780392 0.454902 0.721569
0.949020 0.603922 0.760784
0.572549 0.654902 0.737255
0.635294 0.666667 0.749020
0.709804 0.662745 0.749020
0.815686 0.666667 0.756863
0.933333 0.733333 0.792157
0.725490 0.800000 0.784314
0.741176 0.803922 0.792157
0.788235 0.815686 0.788235
0.850980 0.807843 0.800000
0.909804 0.835294 0.819608
0.854902 0.882353 0.854902
0.858824 0.878431 0.850980
0.882353 0.882353 0.850980
0.886275 0.886275 0.854902
0.929412 0.886275 0.878431
0.552941 0.537255 0.870588
0.600000 0.552941 0.874510
0.694118 0.588235 0.866667
0.807843 0.631373 0.862745
0.917647 0.694118 0.862745
0.639216 0.619608 0.870588
0.674510 0.639216 0.862745
0.737255 0.658824 0.866667
0.827451 0.678431 0.870588
0.913725 0.729412 0.854902
0.768627 0.756863 0.870588
0.784314 0.764706 0.854902
0.811765 0.764706 0.858824
0.854902 0.768627 0.858824
0.913725 0.784314 0.858824
0.854902 0.847059 0.866667
0.862745 0.843137 0.870588
0.870588 0.843137 0.874510
0.882353 0.839216 0.870588
0.909804 0.843137 0.874510
0.886275 0.878431 0.882353
0.886275 0.878431 0.882353
0.890196 0.886275 0.878431
0.905882 0.882353 0.882353
0.925490 0.886275 0.882353
