assets/luts/cinematic-tones-luts-pack-for-video-and-photo-2023-11-27-05-35-37-utc/Cinematic Tones_LUTs/Cinematic Tones 05.cube
#Generated with IWLTBAP LUT Generator
#Website: http://luts.iwltbap.com
TITLE "Cinematic Tones 05"
#LUT size
LUT_3D_SIZE 9
#LUT data points
0.058824 0.105882 0.160784
0.113725 0.109804 0.164706
0.172549 0.117647 0.168627
0.235294 0.125490 0.172549
0.317647 0.137255 0.180392
0.396078 0.152941 0.196078
0.486275 0.176471 0.200000
0.600000 0.196078 0.211765
0.725490 0.235294 0.211765
0.078431 0.145098 0.176471
0.121569 0.137255 0.172549
0.180392 0.152941 0.184314
0.247059 0.156863 0.196078
0.325490 0.164706 0.196078
0.407843 0.176471 0.200000
0.494118 0.196078 0.203922
0.600000 0.215686 0.211765
0.737255 0.254902 0.227451
0.117647 0.192157 0.207843
0.141176 0.200000 0.211765
0.192157 0.196078 0.203922
0.274510 0.215686 0.203922
0.352941 0.219608 0.215686
0.439216 0.231373 0.215686
0.533333 0.247059 0.223529
0.635294 0.274510 0.231373
0.760784 0.309804 0.235294
0.164706 0.270588 0.235294
0.184314 0.274510 0.235294
0.231373 0.282353 0.243137
0.305882 0.290196 0.243137
0.396078 0.294118 0.243137
0.478431 0.317647 0.247059
0.568627 0.329412 0.247059
0.666667 0.352941 0.262745
0.780392 0.384314 0.266667
0.219608 0.400000 0.286275
0.247059 0.403922 0.301961
0.286275 0.403922 0.294118
0.352941 0.403922 0.286275
0.435294 0.411765 0.278431
0.533333 0.415686 0.274510
0.627451 0.439216 0.290196
0.733333 0.470588 0.305882
0.850980 0.505882 0.317647
0.298039 0.549020 0.352941
0.317647 0.552941 0.352941
0.364706 0.552941 0.364706
0.423529 0.556863 0.360784
0.498039 0.552941 0.352941
0.576471 0.556863 0.341176
0.682353 0.560784 0.337255
0.780392 0.588235 0.356863
0.890196 0.631373 0.396078
0.403922 0.686275 0.427451
0.423529 0.694118 0.439216
0.458824 0.701961 0.454902
0.505882 0.701961 0.454902
0.564706 0.698039 0.458824
0.635294 0.698039 0.443137
0.713725 0.701961 0.431373
0.819608 0.705882 0.431373
0.921569 0.749020 0.470588
0.549020 0.835294 0.564706
0.564706 0.839216 0.556863
0.588235 0.831373 0.576471
0.631373 0.847059 0.592157
0.674510 0.854902 0.600000
0.717647 0.854902 0.596078
0.780392 0.858824 0.588235
0.854902 0.854902 0.564706
0.956863 0.870588 0.584314
0.717647 0.956863 0.725490
0.721569 0.960784 0.729412
0.745098 0.956863 0.729412
0.760784 0.960784 0.741176
0.792157 0.964706 0.756863
0.823529 0.968627 0.764706
0.862745 0.968627 0.760784
0.917647 0.976471 0.760784
0.984314 0.984314 0.772549
0.078431 0.109804 0.192157
0.121569 0.109804 0.184314
0.188235 0.121569 0.192157
0.250980 0.129412 0.200000
0.313725 0.141176 0.207843
0.400000 0.156863 0.207843
0.486275 0.172549 0.215686
0.592157 0.196078 0.227451
0.721569 0.227451 0.231373
0.094118 0.149020 0.200000
0.125490 0.149020 0.203922
0.180392 0.149020 0.207843
0.250980 0.156863 0.211765
0.325490 0.168627 0.211765
0.411765 0.176471 0.215686
0.486275 0.192157 0.219608
0.584314 0.211765 0.227451
0.721569 0.243137 0.239216
0.129412 0.196078 0.223529
0.149020 0.203922 0.215686
0.200000 0.200000 0.231373
0.270588 0.207843 0.219608
0.356863 0.219608 0.235294
0.431373 0.231373 0.227451
0.517647 0.243137 0.235294
0.623529 0.270588 0.239216
0.756863 0.294118 0.247059
0.160784 0.278431 0.239216
0.192157 0.282353 0.250980
0.235294 0.286275 0.250980
0.301961 0.286275 0.250980
0.388235 0.294118 0.254902
0.466667 0.309804 0.262745
0.556863 0.325490 0.270588
0.650980 0.345098 0.266667
0.768627 0.368627 0.278431
0.219608 0.396078 0.282353
0.243137 0.400000 0.298039
0.290196 0.400000 0.309804
0.352941 0.403922 0.301961
0.443137 0.403922 0.298039
0.525490 0.411765 0.286275
0.623529 0.431373 0.301961
0.729412 0.462745 0.317647
0.847059 0.498039 0.341176
0.294118 0.537255 0.352941
0.321569 0.541176 0.356863
0.360784 0.545098 0.364706
0.419608 0.549020 0.372549
0.486275 0.556863 0.360784
0.576471 0.549020 0.345098
0.678431 0.556863 0.345098
0.776471 0.584314 0.356863
0.882353 0.631373 0.392157
0.403922 0.678431 0.443137
0.415686 0.682353 0.443137
0.454902 0.690196 0.454902
0.505882 0.701961 0.462745
0.564706 0.698039 0.458824
0.627451 0.701961 0.450980
0.713725 0.694118 0.435294
0.811765 0.698039 0.431373
0.913725 0.737255 0.470588
0.552941 0.831373 0.572549
0.572549 0.843137 0.580392
0.592157 0.835294 0.588235
0.631373 0.847059 0.592157
0.674510 0.847059 0.607843
0.721569 0.847059 0.600000
0.784314 0.850980 0.584314
0.850980 0.850980 0.568627
0.941176 0.870588 0.572549
0.698039 0.956863 0.713725
0.717647 0.949020 0.721569
0.741176 0.956863 0.733333
0.760784 0.960784 0.741176
0.784314 0.968627 0.764706
0.827451 0.960784 0.760784
0.862745 0.968627 0.760784
0.917647 0.968627 0.756863
0.984314 0.980392 0.768627
0.098039 0.113725 0.227451
0.149020 0.113725 0.227451
0.200000 0.121569 0.231373
0.266667 0.121569 0.250980
0.352941 0.121569 0.247059
0.427451 0.117647 0.239216
0.486275 0.156863 0.247059
0.584314 0.180392 0.254902
0.721569 0.203922 0.258824
0.098039 0.145098 0.231373
0.156863 0.141176 0.239216
0.207843 0.145098 0.247059
0.274510 0.149020 0.243137
0.345098 0.149020 0.254902
0.415686 0.160784 0.247059
0.490196 0.184314 0.247059
0.596078 0.200000 0.254902
0.725490 0.227451 0.262745
0.129412 0.200000 0.254902
0.156863 0.192157 0.250980
0.211765 0.203922 0.247059
0.278431 0.207843 0.262745
0.349020 0.219608 0.262745
0.431373 0.223529 0.262745
0.521569 0.235294 0.270588
0.627451 0.254902 0.270588
0.752941 0.282353 0.278431
0.188235 0.270588 0.274510
0.203922 0.282353 0.286275
0.247059 0.286275 0.290196
0.309804 0.286275 0.286275
0.388235 0.294118 0.278431
0.462745 0.309804 0.282353
0.552941 0.317647 0.286275
0.658824 0.337255 0.294118
0.764706 0.360784 0.294118
0.250980 0.384314 0.321569
0.243137 0.396078 0.321569
0.294118 0.400000 0.333333
0.356863 0.407843 0.337255
0.435294 0.411765 0.325490
0.525490 0.415686 0.321569
0.619608 0.435294 0.333333
0.721569 0.458824 0.345098
0.835294 0.486275 0.352941
0.309804 0.537255 0.380392
0.321569 0.537255 0.384314
0.364706 0.537255 0.396078
0.435294 0.552941 0.403922
0.494118 0.552941 0.392157
0.572549 0.552941 0.388235
0.674510 0.552941 0.368627
0.772549 0.584314 0.392157
0.886275 0.627451 0.431373
0.411765 0.674510 0.462745
0.415686 0.682353 0.458824
0.470588 0.686275 0.470588
0.521569 0.694118 0.486275
0.580392 0.698039 0.494118
0.639216 0.698039 0.482353
0.713725 0.694118 0.466667
0.815686 0.698039 0.462745
0.913725 0.741176 0.486275
0.556863 0.831373 0.588235
0.560784 0.831373 0.576471
0.584314 0.835294 0.596078
0.635294 0.835294 0.603922
0.682353 0.854902 0.623529
0.725490 0.847059 0.611765
0.776471 0.847059 0.603922
0.858824 0.854902 0.592157
0.949020 0.866667 0.603922
0.709804 0.949020 0.717647
0.717647 0.956863 0.733333
0.741176 0.956863 0.741176
0.764706 0.960784 0.752941
0.784314 0.968627 0.764706
0.831373 0.964706 0.768627
0.858824 0.968627 0.768627
0.917647 0.972549 0.772549
0.972549 0.984314 0.776471
0.145098 0.117647 0.290196
0.184314 0.117647 0.294118
0.247059 0.117647 0.294118
0.305882 0.121569 0.301961
0.380392 0.121569 0.309804
0.470588 0.105882 0.321569
0.549020 0.101961 0.301961
0.635294 0.074510 0.282353
0.733333 0.117647 0.294118
0.156863 0.156863 0.298039
0.188235 0.145098 0.301961
0.247059 0.149020 0.305882
0.305882 0.145098 0.309804
0.376471 0.145098 0.317647
0.466667 0.141176 0.313725
0.545098 0.133333 0.301961
0.631373 0.109804 0.278431
0.717647 0.164706 0.290196
0.152941 0.215686 0.317647
0.176471 0.203922 0.317647
0.243137 0.207843 0.313725
0.317647 0.200000 0.309804
0.388235 0.207843 0.321569
0.466667 0.196078 0.305882
0.537255 0.200000 0.298039
0.619608 0.219608 0.301961
0.749020 0.239216 0.286275
0.184314 0.274510 0.329412
0.203922 0.274510 0.321569
0.250980 0.282353 0.325490
0.317647 0.286275 0.329412
0.392157 0.290196 0.325490
0.462745 0.294118 0.329412
0.545098 0.298039 0.329412
0.643137 0.309804 0.321569
0.768627 0.329412 0.325490
0.243137 0.380392 0.364706
0.254902 0.396078 0.356863
0.313725 0.388235 0.364706
0.364706 0.403922 0.372549
0.443137 0.403922 0.368627
0.529412 0.419608 0.372549
0.619608 0.431373 0.376471
0.709804 0.447059 0.372549
0.827451 0.466667 0.368627
0.333333 0.521569 0.419608
0.356863 0.521569 0.427451
0.376471 0.533333 0.427451
0.439216 0.541176 0.435294
0.505882 0.556863 0.447059
0.580392 0.556863 0.431373
0.674510 0.560784 0.427451
0.772549 0.584314 0.435294
0.878431 0.623529 0.466667
0.415686 0.674510 0.494118
0.423529 0.686275 0.478431
0.462745 0.682353 0.498039
0.521569 0.690196 0.513725
0.584314 0.705882 0.541176
0.643137 0.705882 0.521569
0.713725 0.701961 0.501961
0.811765 0.705882 0.498039
0.925490 0.741176 0.529412
0.549020 0.827451 0.592157
0.564706 0.831373 0.600000
0.596078 0.835294 0.603922
0.635294 0.843137 0.623529
0.682353 0.850980 0.643137
0.733333 0.850980 0.647059
0.788235 0.854902 0.639216
0.862745 0.862745 0.627451
0.949020 0.870588 0.631373
0.705882 0.952941 0.745098
0.709804 0.956863 0.741176
0.741176 0.952941 0.749020
0.764706 0.960784 0.760784
0.796078 0.960784 0.780392
0.835294 0.964706 0.788235
0.878431 0.972549 0.784314
0.921569 0.972549 0.792157
0.988235 0.984314 0.796078
0.207843 0.121569 0.364706
0.235294 0.125490 0.364706
0.286275 0.121569 0.368627
0.364706 0.109804 0.376471
0.431373 0.105882 0.380392
0.478431 0.117647 0.372549
0.615686 0.074510 0.411765
0.709804 0.019608 0.403922
0.803922 0.000000 0.372549
0.215686 0.156863 0.372549
0.231373 0.164706 0.376471
0.282353 0.152941 0.376471
0.372549 0.145098 0.384314
0.435294 0.137255 0.388235
0.494118 0.141176 0.380392
0.615686 0.113725 0.407843
0.694118 0.082353 0.400000
0.788235 0.000000 0.360784
0.196078 0.211765 0.396078
0.231373 0.219608 0.396078
0.290196 0.203922 0.384314
0.368627 0.203922 0.392157
0.443137 0.200000 0.392157
0.509804 0.203922 0.392157
0.623529 0.184314 0.411765
0.698039 0.168627 0.388235
0.800000 0.117647 0.356863
0.196078 0.298039 0.403922
0.227451 0.294118 0.396078
0.270588 0.298039 0.407843
0.356863 0.294118 0.400000
0.439216 0.286275 0.400000
0.525490 0.286275 0.415686
0.596078 0.270588 0.388235
0.670588 0.243137 0.364706
0.760784 0.239216 0.352941
0.243137 0.388235 0.419608
0.262745 0.392157 0.419608
0.301961 0.392157 0.415686
0.368627 0.396078 0.419608
0.443137 0.400000 0.423529
0.517647 0.396078 0.415686
0.603922 0.400000 0.415686
0.698039 0.400000 0.407843
0.831373 0.419608 0.403922
0.301961 0.513725 0.462745
0.325490 0.505882 0.454902
0.368627 0.517647 0.458824
0.435294 0.521569 0.470588
0.513725 0.545098 0.486275
0.588235 0.541176 0.478431
0.682353 0.560784 0.478431
0.768627 0.580392 0.490196
0.882353 0.603922 0.486275
0.435294 0.658824 0.533333
0.443137 0.658824 0.533333
0.482353 0.666667 0.533333
0.521569 0.686275 0.545098
0.580392 0.698039 0.564706
0.658824 0.701961 0.568627
0.717647 0.698039 0.541176
0.815686 0.705882 0.549020
0.929412 0.745098 0.564706
0.572549 0.815686 0.623529
0.580392 0.823529 0.631373
0.592157 0.823529 0.635294
0.627451 0.839216 0.647059
0.694118 0.847059 0.670588
0.745098 0.858824 0.686275
0.796078 0.858824 0.682353
0.870588 0.862745 0.662745
0.960784 0.878431 0.670588
0.705882 0.949020 0.756863
0.709804 0.952941 0.760784
0.725490 0.960784 0.760784
0.756863 0.960784 0.772549
0.800000 0.964706 0.784314
0.831373 0.968627 0.811765
0.874510 0.972549 0.815686
0.925490 0.976471 0.807843
0.976471 0.980392 0.815686
0.278431 0.129412 0.454902
0.309804 0.133333 0.458824
0.356863 0.121569 0.458824
0.427451 0.109804 0.470588
0.501961 0.086275 0.470588
0.576471 0.070588 0.474510
0.607843 0.094118 0.462745
0.741176 0.011765 0.501961
0.890196 0.000000 0.521569
0.278431 0.156863 0.454902
0.305882 0.160784 0.474510
0.360784 0.152941 0.466667
0.423529 0.141176 0.462745
0.494118 0.125490 0.462745
0.576471 0.117647 0.466667
0.603922 0.125490 0.458824
0.745098 0.070588 0.494118
0.874510 0.000000 0.525490
0.274510 0.227451 0.470588
0.305882 0.223529 0.486275
0.349020 0.223529 0.478431
0.415686 0.207843 0.474510
0.513725 0.200000 0.486275
0.580392 0.184314 0.482353
0.631373 0.192157 0.474510
0.772549 0.176471 0.517647
0.874510 0.129412 0.505882
0.227451 0.309804 0.478431
0.258824 0.305882 0.501961
0.313725 0.305882 0.498039
0.403922 0.301961 0.490196
0.498039 0.282353 0.498039
0.576471 0.266667 0.482353
0.631373 0.278431 0.482353
0.752941 0.266667 0.509804
0.847059 0.223529 0.474510
0.270588 0.411765 0.513725
0.290196 0.415686 0.505882
0.325490 0.419608 0.513725
0.396078 0.427451 0.517647
0.486275 0.407843 0.513725
0.580392 0.400000 0.513725
0.674510 0.396078 0.513725
0.760784 0.372549 0.494118
0.850980 0.321569 0.447059
0.325490 0.513725 0.529412
0.333333 0.509804 0.521569
0.368627 0.517647 0.521569
0.423529 0.521569 0.537255
0.490196 0.529412 0.533333
0.568627 0.529412 0.525490
0.654902 0.521569 0.517647
0.745098 0.517647 0.501961
0.870588 0.521569 0.498039
0.364706 0.627451 0.556863
0.388235 0.635294 0.552941
0.427451 0.643137 0.560784
0.486275 0.650980 0.572549
0.556863 0.670588 0.592157
0.643137 0.690196 0.603922
0.721569 0.690196 0.600000
0.807843 0.701961 0.588235
0.913725 0.729412 0.611765
0.521569 0.811765 0.666667
0.545098 0.811765 0.658824
0.560784 0.811765 0.666667
0.615686 0.819608 0.670588
0.670588 0.835294 0.694118
0.737255 0.854902 0.721569
0.800000 0.862745 0.721569
0.866667 0.858824 0.705882
0.964706 0.874510 0.701961
0.694118 0.956863 0.788235
0.713725 0.952941 0.792157
0.733333 0.956863 0.796078
0.749020 0.964706 0.800000
0.792157 0.956863 0.815686
0.831373 0.972549 0.831373
0.882353 0.976471 0.850980
0.933333 0.976471 0.843137
0.980392 0.984314 0.850980
0.384314 0.133333 0.580392
0.403922 0.133333 0.588235
0.439216 0.129412 0.580392
0.505882 0.109804 0.580392
0.576471 0.078431 0.584314
0.666667 0.007843 0.576471
0.721569 0.000000 0.572549
0.756863 0.062745 0.572549
0.905882 0.000000 0.619608
0.368627 0.164706 0.588235
0.407843 0.164706 0.584314
0.439216 0.156863 0.580392
0.498039 0.145098 0.588235
0.580392 0.121569 0.580392
0.662745 0.078431 0.580392
0.721569 0.054902 0.576471
0.745098 0.109804 0.545098
0.901961 0.027451 0.627451
0.360784 0.231373 0.588235
0.376471 0.239216 0.600000
0.431373 0.231373 0.603922
0.501961 0.223529 0.600000
0.580392 0.196078 0.584314
0.666667 0.172549 0.592157
0.737255 0.164706 0.592157
0.772549 0.192157 0.576471
0.921569 0.172549 0.627451
0.321569 0.321569 0.596078
0.352941 0.325490 0.600000
0.403922 0.325490 0.603922
0.478431 0.313725 0.603922
0.560784 0.298039 0.600000
0.647059 0.282353 0.596078
0.721569 0.266667 0.592157
0.768627 0.278431 0.584314
0.905882 0.266667 0.623529
0.317647 0.450980 0.631373
0.333333 0.454902 0.627451
0.376471 0.447059 0.635294
0.447059 0.439216 0.631373
0.552941 0.427451 0.623529
0.650980 0.403922 0.619608
0.733333 0.384314 0.603922
0.800000 0.396078 0.603922
0.937255 0.403922 0.654902
0.372549 0.560784 0.639216
0.380392 0.564706 0.643137
0.411765 0.560784 0.643137
0.466667 0.564706 0.650980
0.525490 0.568627 0.654902
0.635294 0.545098 0.647059
0.737255 0.529412 0.631373
0.811765 0.537255 0.647059
0.929412 0.494118 0.623529
0.388235 0.639216 0.639216
0.407843 0.643137 0.635294
0.435294 0.650980 0.639216
0.478431 0.650980 0.647059
0.545098 0.662745 0.662745
0.619608 0.666667 0.650980
0.701961 0.662745 0.654902
0.788235 0.654902 0.619608
0.921569 0.662745 0.615686
0.439216 0.784314 0.690196
0.462745 0.784314 0.698039
0.498039 0.788235 0.698039
0.545098 0.796078 0.701961
0.619608 0.811765 0.725490
0.717647 0.835294 0.741176
0.800000 0.858824 0.776471
0.878431 0.862745 0.764706
0.968627 0.866667 0.768627
0.647059 0.949020 0.815686
0.647059 0.949020 0.815686
0.670588 0.952941 0.807843
0.705882 0.956863 0.823529
0.768627 0.960784 0.847059
0.819608 0.972549 0.850980
0.882353 0.976471 0.882353
0.941176 0.976471 0.894118
0.988235 0.988235 0.886275
0.486275 0.156863 0.733333
0.501961 0.156863 0.729412
0.541176 0.149020 0.729412
0.588235 0.133333 0.725490
0.666667 0.113725 0.729412
0.752941 0.047059 0.713725
0.843137 0.003922 0.725490
0.901961 0.000000 0.721569
0.937255 0.035294 0.694118
0.478431 0.196078 0.729412
0.490196 0.192157 0.721569
0.529412 0.184314 0.729412
0.596078 0.168627 0.729412
0.666667 0.149020 0.721569
0.749020 0.105882 0.721569
0.835294 0.003922 0.709804
0.894118 0.000000 0.725490
0.917647 0.101961 0.690196
0.462745 0.262745 0.737255
0.494118 0.262745 0.733333
0.517647 0.258824 0.741176
0.572549 0.250980 0.737255
0.654902 0.235294 0.741176
0.745098 0.203922 0.733333
0.839216 0.164706 0.729412
0.905882 0.152941 0.729412
0.929412 0.203922 0.701961
0.423529 0.360784 0.745098
0.454902 0.360784 0.745098
0.490196 0.352941 0.745098
0.560784 0.345098 0.745098
0.635294 0.333333 0.741176
0.725490 0.309804 0.741176
0.827451 0.274510 0.725490
0.898039 0.262745 0.733333
0.917647 0.286275 0.694118
0.380392 0.474510 0.764706
0.396078 0.470588 0.768627
0.462745 0.470588 0.764706
0.533333 0.470588 0.764706
0.619608 0.458824 0.764706
0.709804 0.439216 0.752941
0.819608 0.403922 0.749020
0.901961 0.388235 0.752941
0.945098 0.411765 0.741176
0.423529 0.615686 0.784314
0.443137 0.619608 0.784314
0.470588 0.615686 0.788235
0.513725 0.607843 0.788235
0.580392 0.588235 0.780392
0.690196 0.580392 0.780392
0.800000 0.552941 0.768627
0.901961 0.525490 0.772549
0.960784 0.549020 0.768627
0.443137 0.705882 0.772549
0.466667 0.713725 0.784314
0.494118 0.709804 0.792157
0.545098 0.709804 0.796078
0.603922 0.713725 0.800000
0.674510 0.717647 0.803922
0.760784 0.701961 0.792157
0.882353 0.674510 0.784314
0.984314 0.694118 0.800000
0.482353 0.815686 0.788235
0.509804 0.807843 0.792157
0.521569 0.815686 0.800000
0.568627 0.811765 0.800000
0.619608 0.823529 0.807843
0.694118 0.819608 0.800000
0.768627 0.831373 0.819608
0.854902 0.835294 0.811765
0.964706 0.819608 0.784314
0.552941 0.952941 0.866667
0.576471 0.949020 0.870588
0.592157 0.952941 0.862745
0.631373 0.952941 0.866667
0.698039 0.952941 0.874510
0.764706 0.964706 0.890196
0.862745 0.976471 0.905882
0.945098 0.984314 0.941176
0.992157 0.996078 0.941176
0.592157 0.243137 0.894118
0.607843 0.243137 0.898039
0.643137 0.239216 0.901961
0.690196 0.227451 0.894118
0.756863 0.215686 0.898039
0.843137 0.196078 0.901961
0.929412 0.149020 0.898039
1.000000 0.043137 0.886275
1.000000 0.094118 0.878431
0.580392 0.266667 0.890196
0.596078 0.266667 0.894118
0.627451 0.266667 0.898039
0.678431 0.254902 0.894118
0.749020 0.243137 0.890196
0.835294 0.215686 0.890196
0.921569 0.180392 0.894118
1.000000 0.113725 0.882353
0.996078 0.129412 0.886275
0.576471 0.333333 0.909804
0.592157 0.337255 0.909804
0.623529 0.333333 0.909804
0.674510 0.329412 0.901961
0.745098 0.321569 0.901961
0.827451 0.298039 0.894118
0.921569 0.270588 0.898039
1.000000 0.223529 0.909804
1.000000 0.235294 0.901961
0.545098 0.427451 0.905882
0.572549 0.423529 0.901961
0.600000 0.419608 0.905882
0.650980 0.415686 0.901961
0.725490 0.403922 0.905882
0.807843 0.376471 0.890196
0.909804 0.356863 0.905882
1.000000 0.321569 0.905882
1.000000 0.325490 0.905882
0.513725 0.537255 0.921569
0.533333 0.533333 0.925490
0.564706 0.525490 0.913725
0.627451 0.525490 0.921569
0.698039 0.505882 0.917647
0.792157 0.494118 0.917647
0.890196 0.474510 0.909804
1.000000 0.443137 0.921569
0.992157 0.443137 0.933333
0.501961 0.658824 0.933333
0.509804 0.654902 0.933333
0.537255 0.647059 0.933333
0.572549 0.635294 0.937255
0.662745 0.627451 0.937255
0.752941 0.623529 0.933333
0.866667 0.600000 0.933333
0.984314 0.572549 0.937255
1.000000 0.572549 0.937255
0.552941 0.784314 0.956863
0.568627 0.776471 0.949020
0.576471 0.776471 0.952941
0.607843 0.776471 0.945098
0.650980 0.772549 0.945098
0.713725 0.741176 0.945098
0.831373 0.733333 0.949020
0.956863 0.717647 0.952941
0.996078 0.705882 0.945098
0.600000 0.886275 0.960784
0.611765 0.870588 0.956863
0.635294 0.878431 0.960784
0.658824 0.882353 0.960784
0.694118 0.882353 0.960784
0.756863 0.882353 0.964706
0.823529 0.890196 0.968627
0.921569 0.874510 0.968627
0.996078 0.850980 0.980392
0.662745 0.976471 0.980392
0.670588 0.968627 0.960784
0.682353 0.972549 0.976471
0.705882 0.972549 0.976471
0.745098 0.980392 0.980392
0.784314 0.980392 0.984314
0.843137 0.984314 0.984314
0.921569 0.992157 0.992157
0.996078 1.000000 1.000000
