assets/luts/cinematic-tones-luts-pack-for-video-and-photo-2023-11-27-05-35-37-utc/Cinematic Tones_LUTs/Cinematic Tones 02.cube
#Generated with IWLTBAP LUT Generator
#Website: http://luts.iwltbap.com
TITLE "Cinematic Tones 02"
#LUT size
LUT_3D_SIZE 25
#LUT data points
0.094118 0.090196 0.082353
0.094118 0.090196 0.082353
0.113725 0.098039 0.094118
0.129412 0.098039 0.090196
0.149020 0.105882 0.098039
0.172549 0.109804 0.109804
0.188235 0.109804 0.105882
0.207843 0.113725 0.105882
0.243137 0.121569 0.109804
0.274510 0.129412 0.098039
0.309804 0.145098 0.098039
0.349020 0.156863 0.101961
0.396078 0.164706 0.109804
0.443137 0.180392 0.105882
0.501961 0.196078 0.109804
0.545098 0.200000 0.113725
0.600000 0.227451 0.101961
0.647059 0.243137 0.105882
0.709804 0.266667 0.109804
0.760784 0.278431 0.105882
0.811765 0.301961 0.105882
0.870588 0.325490 0.109804
0.925490 0.341176 0.121569
0.972549 0.364706 0.145098
1.000000 0.380392 0.160784
0.098039 0.090196 0.094118
0.101961 0.094118 0.105882
0.117647 0.105882 0.086275
0.133333 0.113725 0.098039
0.152941 0.105882 0.105882
0.160784 0.113725 0.113725
0.196078 0.113725 0.101961
0.215686 0.121569 0.113725
0.247059 0.125490 0.113725
0.286275 0.141176 0.105882
0.313725 0.149020 0.101961
0.360784 0.156863 0.101961
0.400000 0.168627 0.105882
0.447059 0.184314 0.109804
0.498039 0.200000 0.109804
0.556863 0.215686 0.109804
0.600000 0.227451 0.101961
0.650980 0.250980 0.101961
0.713725 0.270588 0.105882
0.776471 0.286275 0.105882
0.823529 0.305882 0.113725
0.874510 0.325490 0.117647
0.921569 0.349020 0.125490
0.960784 0.372549 0.141176
0.996078 0.388235 0.168627
0.105882 0.105882 0.098039
0.098039 0.105882 0.094118
0.125490 0.109804 0.113725
0.129412 0.105882 0.105882
0.156863 0.117647 0.109804
0.184314 0.113725 0.098039
0.192157 0.121569 0.105882
0.223529 0.125490 0.105882
0.254902 0.137255 0.098039
0.282353 0.149020 0.109804
0.317647 0.152941 0.105882
0.360784 0.168627 0.113725
0.407843 0.176471 0.105882
0.454902 0.188235 0.113725
0.505882 0.200000 0.113725
0.549020 0.211765 0.105882
0.607843 0.239216 0.105882
0.658824 0.250980 0.105882
0.713725 0.270588 0.113725
0.772549 0.290196 0.117647
0.819608 0.309804 0.105882
0.870588 0.333333 0.117647
0.921569 0.345098 0.133333
0.968627 0.368627 0.133333
1.000000 0.388235 0.160784
0.113725 0.113725 0.113725
0.113725 0.113725 0.113725
0.117647 0.117647 0.109804
0.133333 0.117647 0.105882
0.156863 0.117647 0.113725
0.184314 0.133333 0.109804
0.207843 0.141176 0.113725
0.227451 0.149020 0.121569
0.258824 0.149020 0.105882
0.301961 0.152941 0.109804
0.337255 0.164706 0.113725
0.376471 0.176471 0.109804
0.415686 0.184314 0.113725
0.470588 0.192157 0.105882
0.517647 0.215686 0.113725
0.564706 0.231373 0.109804
0.611765 0.247059 0.113725
0.662745 0.262745 0.105882
0.721569 0.286275 0.117647
0.772549 0.298039 0.113725
0.815686 0.317647 0.109804
0.870588 0.333333 0.117647
0.925490 0.352941 0.129412
0.976471 0.376471 0.152941
1.000000 0.392157 0.168627
0.121569 0.121569 0.113725
0.125490 0.125490 0.117647
0.117647 0.125490 0.113725
0.133333 0.125490 0.129412
0.141176 0.125490 0.113725
0.176471 0.141176 0.121569
0.215686 0.149020 0.117647
0.243137 0.156863 0.113725
0.270588 0.160784 0.113725
0.305882 0.176471 0.117647
0.349020 0.180392 0.113725
0.388235 0.188235 0.113725
0.439216 0.203922 0.101961
0.478431 0.211765 0.121569
0.529412 0.227451 0.125490
0.584314 0.247059 0.117647
0.627451 0.258824 0.109804
0.674510 0.278431 0.113725
0.729412 0.286275 0.113725
0.780392 0.305882 0.121569
0.831373 0.321569 0.125490
0.870588 0.341176 0.125490
0.917647 0.356863 0.129412
0.960784 0.380392 0.145098
0.996078 0.396078 0.168627
0.137255 0.137255 0.137255
0.137255 0.137255 0.137255
0.145098 0.145098 0.145098
0.145098 0.141176 0.133333
0.152941 0.137255 0.125490
0.172549 0.141176 0.129412
0.211765 0.160784 0.125490
0.254902 0.180392 0.125490
0.301961 0.192157 0.109804
0.337255 0.192157 0.121569
0.384314 0.207843 0.133333
0.427451 0.211765 0.129412
0.474510 0.223529 0.117647
0.517647 0.239216 0.121569
0.568627 0.262745 0.121569
0.607843 0.274510 0.113725
0.682353 0.282353 0.125490
0.721569 0.298039 0.117647
0.772549 0.309804 0.113725
0.819608 0.333333 0.129412
0.858824 0.349020 0.145098
0.901961 0.364706 0.149020
0.949020 0.384314 0.149020
0.988235 0.400000 0.160784
0.996078 0.431373 0.196078
0.149020 0.156863 0.152941
0.145098 0.152941 0.133333
0.156863 0.156863 0.156863
0.164706 0.152941 0.133333
0.156863 0.160784 0.141176
0.164706 0.160784 0.152941
0.196078 0.160784 0.133333
0.243137 0.176471 0.137255
0.301961 0.200000 0.133333
0.356863 0.219608 0.133333
0.400000 0.223529 0.133333
0.450980 0.239216 0.129412
0.498039 0.250980 0.129412
0.541176 0.266667 0.133333
0.596078 0.286275 0.133333
0.627451 0.294118 0.133333
0.690196 0.309804 0.133333
0.741176 0.325490 0.129412
0.784314 0.337255 0.141176
0.835294 0.349020 0.137255
0.878431 0.368627 0.141176
0.929412 0.384314 0.152941
0.968627 0.403922 0.168627
1.000000 0.415686 0.192157
1.000000 0.439216 0.211765
0.168627 0.164706 0.156863
0.176471 0.180392 0.160784
0.168627 0.168627 0.160784
0.180392 0.176471 0.160784
0.176471 0.180392 0.156863
0.184314 0.172549 0.152941
0.196078 0.176471 0.164706
0.231373 0.180392 0.156863
0.290196 0.203922 0.152941
0.352941 0.227451 0.145098
0.423529 0.250980 0.145098
0.482353 0.274510 0.149020
0.517647 0.282353 0.137255
0.568627 0.298039 0.133333
0.615686 0.317647 0.125490
0.666667 0.329412 0.145098
0.709804 0.341176 0.141176
0.752941 0.356863 0.145098
0.800000 0.364706 0.145098
0.843137 0.376471 0.149020
0.886275 0.392157 0.160784
0.929412 0.400000 0.180392
0.960784 0.427451 0.200000
1.000000 0.443137 0.207843
0.996078 0.462745 0.235294
0.188235 0.196078 0.176471
0.192157 0.184314 0.188235
0.196078 0.196078 0.188235
0.207843 0.192157 0.180392
0.203922 0.200000 0.180392
0.203922 0.203922 0.172549
0.211765 0.192157 0.176471
0.227451 0.192157 0.172549
0.266667 0.200000 0.168627
0.337255 0.227451 0.172549
0.403922 0.254902 0.164706
0.478431 0.290196 0.149020
0.552941 0.329412 0.160784
0.596078 0.345098 0.156863
0.647059 0.349020 0.145098
0.694118 0.360784 0.149020
0.741176 0.364706 0.164706
0.784314 0.376471 0.160784
0.823529 0.392157 0.160784
0.866667 0.403922 0.164706
0.901961 0.415686 0.172549
0.949020 0.427451 0.196078
0.968627 0.443137 0.196078
1.000000 0.462745 0.219608
1.000000 0.466667 0.250980
0.207843 0.219608 0.192157
0.211765 0.215686 0.196078
0.223529 0.219608 0.203922
0.219608 0.215686 0.196078
0.231373 0.219608 0.200000
0.235294 0.223529 0.196078
0.235294 0.215686 0.192157
0.243137 0.211765 0.200000
0.254902 0.211765 0.196078
0.305882 0.227451 0.192157
0.384314 0.254902 0.180392
0.454902 0.294118 0.184314
0.541176 0.329412 0.180392
0.615686 0.372549 0.172549
0.670588 0.388235 0.160784
0.725490 0.392157 0.176471
0.764706 0.400000 0.176471
0.800000 0.407843 0.172549
0.847059 0.423529 0.180392
0.874510 0.435294 0.176471
0.905882 0.443137 0.192157
0.941176 0.454902 0.203922
0.972549 0.466667 0.211765
1.000000 0.482353 0.239216
1.000000 0.494118 0.258824
0.247059 0.258824 0.223529
0.247059 0.250980 0.227451
0.258824 0.254902 0.239216
0.270588 0.258824 0.239216
0.262745 0.262745 0.231373
0.262745 0.262745 0.231373
0.274510 0.254902 0.231373
0.294118 0.250980 0.235294
0.278431 0.250980 0.227451
0.298039 0.247059 0.223529
0.364706 0.270588 0.223529
0.447059 0.305882 0.203922
0.537255 0.341176 0.203922
0.627451 0.388235 0.211765
0.701961 0.423529 0.203922
0.768627 0.454902 0.207843
0.807843 0.462745 0.211765
0.839216 0.470588 0.219608
0.882353 0.478431 0.219608
0.921569 0.482353 0.231373
0.952941 0.482353 0.235294
0.980392 0.494118 0.250980
0.992157 0.509804 0.274510
1.000000 0.529412 0.294118
0.996078 0.537255 0.325490
0.282353 0.282353 0.250980
0.282353 0.278431 0.258824
0.286275 0.290196 0.258824
0.305882 0.294118 0.258824
0.301961 0.298039 0.278431
0.309804 0.298039 0.262745
0.309804 0.298039 0.262745
0.309804 0.294118 0.258824
0.317647 0.294118 0.247059
0.313725 0.274510 0.239216
0.329412 0.274510 0.239216
0.403922 0.301961 0.235294
0.490196 0.345098 0.239216
0.588235 0.384314 0.239216
0.670588 0.423529 0.223529
0.760784 0.462745 0.235294
0.827451 0.494118 0.239216
0.866667 0.509804 0.235294
0.894118 0.521569 0.262745
0.929412 0.525490 0.266667
0.968627 0.529412 0.278431
0.988235 0.541176 0.298039
0.996078 0.541176 0.309804
1.000000 0.552941 0.329412
0.992157 0.580392 0.356863
0.313725 0.325490 0.282353
0.313725 0.325490 0.290196
0.329412 0.329412 0.290196
0.333333 0.333333 0.294118
0.333333 0.329412 0.309804
0.352941 0.341176 0.305882
0.345098 0.329412 0.286275
0.360784 0.333333 0.301961
0.352941 0.325490 0.294118
0.349020 0.313725 0.278431
0.356863 0.305882 0.274510
0.368627 0.298039 0.250980
0.458824 0.337255 0.258824
0.552941 0.368627 0.258824
0.635294 0.427451 0.254902
0.721569 0.462745 0.266667
0.800000 0.501961 0.266667
0.878431 0.533333 0.282353
0.925490 0.552941 0.301961
0.949020 0.556863 0.313725
0.976471 0.568627 0.321569
1.000000 0.572549 0.325490
1.000000 0.576471 0.345098
1.000000 0.588235 0.372549
0.996078 0.607843 0.392157
0.352941 0.356863 0.325490
0.368627 0.356863 0.321569
0.356863 0.368627 0.325490
0.380392 0.368627 0.333333
0.384314 0.384314 0.337255
0.392157 0.380392 0.345098
0.396078 0.380392 0.345098
0.392157 0.376471 0.341176
0.388235 0.360784 0.321569
0.396078 0.356863 0.321569
0.388235 0.349020 0.309804
0.388235 0.333333 0.282353
0.407843 0.333333 0.278431
0.509804 0.372549 0.294118
0.596078 0.415686 0.286275
0.694118 0.462745 0.298039
0.776471 0.501961 0.309804
0.850980 0.533333 0.313725
0.913725 0.568627 0.321569
0.952941 0.592157 0.345098
0.980392 0.603922 0.368627
1.000000 0.611765 0.376471
1.000000 0.623529 0.396078
0.996078 0.619608 0.419608
1.000000 0.647059 0.454902
0.380392 0.403922 0.356863
0.403922 0.411765 0.360784
0.407843 0.407843 0.360784
0.415686 0.415686 0.384314
0.423529 0.423529 0.384314
0.435294 0.423529 0.388235
0.435294 0.423529 0.388235
0.435294 0.419608 0.376471
0.435294 0.411765 0.364706
0.439216 0.407843 0.356863
0.439216 0.392157 0.345098
0.435294 0.380392 0.337255
0.427451 0.364706 0.313725
0.466667 0.364706 0.313725
0.549020 0.400000 0.309804
0.650980 0.454902 0.317647
0.741176 0.501961 0.329412
0.819608 0.537255 0.341176
0.882353 0.572549 0.349020
0.929412 0.596078 0.372549
0.976471 0.627451 0.400000
0.996078 0.639216 0.415686
1.000000 0.654902 0.435294
1.000000 0.654902 0.458824
1.000000 0.662745 0.482353
0.478431 0.486275 0.443137
0.478431 0.490196 0.447059
0.486275 0.494118 0.443137
0.494118 0.494118 0.447059
0.498039 0.498039 0.450980
0.509804 0.498039 0.462745
0.509804 0.501961 0.454902
0.513725 0.498039 0.450980
0.513725 0.490196 0.435294
0.513725 0.474510 0.427451
0.509804 0.462745 0.407843
0.498039 0.450980 0.388235
0.486275 0.431373 0.380392
0.482353 0.411765 0.356863
0.533333 0.423529 0.341176
0.627451 0.462745 0.364706
0.737255 0.509804 0.360784
0.803922 0.556863 0.388235
0.874510 0.600000 0.407843
0.929412 0.627451 0.423529
0.972549 0.654902 0.447059
1.000000 0.686275 0.494118
1.000000 0.705882 0.533333
1.000000 0.717647 0.560784
1.000000 0.733333 0.580392
0.509804 0.525490 0.470588
0.521569 0.537255 0.482353
0.529412 0.537255 0.482353
0.545098 0.537255 0.490196
0.552941 0.545098 0.498039
0.549020 0.552941 0.498039
0.572549 0.560784 0.525490
0.572549 0.549020 0.501961
0.572549 0.541176 0.490196
0.564706 0.533333 0.482353
0.552941 0.513725 0.466667
0.564706 0.501961 0.443137
0.556863 0.486275 0.431373
0.537255 0.466667 0.419608
0.537255 0.450980 0.396078
0.576471 0.466667 0.380392
0.686275 0.517647 0.392157
0.776471 0.549020 0.403922
0.847059 0.592157 0.427451
0.913725 0.635294 0.454902
0.952941 0.670588 0.482353
0.976471 0.698039 0.517647
1.000000 0.721569 0.552941
0.996078 0.745098 0.596078
0.996078 0.764706 0.639216
0.572549 0.580392 0.525490
0.572549 0.588235 0.533333
0.584314 0.584314 0.537255
0.588235 0.596078 0.545098
0.596078 0.603922 0.549020
0.603922 0.603922 0.564706
0.619608 0.611765 0.560784
0.615686 0.600000 0.556863
0.611765 0.596078 0.549020
0.615686 0.588235 0.525490
0.611765 0.576471 0.517647
0.600000 0.564706 0.505882
0.596078 0.549020 0.486275
0.596078 0.529412 0.458824
0.580392 0.505882 0.447059
0.588235 0.486275 0.419608
0.647059 0.509804 0.423529
0.737255 0.552941 0.443137
0.819608 0.592157 0.447059
0.886275 0.639216 0.478431
0.929412 0.674510 0.509804
0.960784 0.705882 0.541176
0.988235 0.733333 0.584314
1.000000 0.756863 0.619608
1.000000 0.776471 0.658824
0.627451 0.643137 0.588235
0.627451 0.643137 0.576471
0.631373 0.643137 0.607843
0.647059 0.650980 0.596078
0.650980 0.650980 0.619608
0.666667 0.658824 0.611765
0.670588 0.654902 0.611765
0.674510 0.658824 0.615686
0.670588 0.654902 0.607843
0.670588 0.647059 0.600000
0.666667 0.643137 0.596078
0.654902 0.623529 0.572549
0.654902 0.607843 0.552941
0.647059 0.596078 0.533333
0.643137 0.576471 0.505882
0.631373 0.549020 0.482353
0.635294 0.533333 0.466667
0.698039 0.556863 0.470588
0.780392 0.596078 0.478431
0.854902 0.643137 0.494118
0.905882 0.674510 0.517647
0.956863 0.705882 0.564706
0.976471 0.741176 0.600000
1.000000 0.764706 0.643137
1.000000 0.788235 0.670588
0.686275 0.686275 0.639216
0.678431 0.686275 0.635294
0.698039 0.690196 0.639216
0.694118 0.701961 0.650980
0.705882 0.698039 0.650980
0.709804 0.709804 0.662745
0.717647 0.717647 0.678431
0.729412 0.721569 0.674510
0.733333 0.709804 0.662745
0.725490 0.701961 0.654902
0.717647 0.694118 0.639216
0.701961 0.686275 0.639216
0.705882 0.678431 0.615686
0.705882 0.654902 0.588235
0.701961 0.627451 0.568627
0.690196 0.615686 0.556863
0.674510 0.592157 0.525490
0.678431 0.572549 0.498039
0.749020 0.600000 0.509804
0.827451 0.643137 0.533333
0.890196 0.678431 0.545098
0.925490 0.705882 0.576471
0.960784 0.741176 0.611765
0.988235 0.772549 0.654902
0.992157 0.792157 0.686275
0.760784 0.768627 0.725490
0.764706 0.772549 0.729412
0.764706 0.772549 0.721569
0.768627 0.768627 0.721569
0.772549 0.772549 0.733333
0.776471 0.776471 0.745098
0.780392 0.780392 0.749020
0.784314 0.784314 0.745098
0.788235 0.776471 0.741176
0.780392 0.768627 0.733333
0.776471 0.764706 0.729412
0.772549 0.756863 0.713725
0.776471 0.737255 0.690196
0.772549 0.737255 0.678431
0.764706 0.717647 0.662745
0.760784 0.698039 0.647059
0.760784 0.678431 0.611765
0.749020 0.647059 0.588235
0.749020 0.635294 0.572549
0.811765 0.666667 0.592157
0.886275 0.709804 0.619608
0.929412 0.733333 0.627451
0.956863 0.760784 0.662745
0.976471 0.796078 0.705882
1.000000 0.819608 0.729412
0.788235 0.796078 0.752941
0.792157 0.803922 0.760784
0.784314 0.807843 0.768627
0.803922 0.803922 0.772549
0.803922 0.811765 0.768627
0.811765 0.811765 0.772549
0.811765 0.811765 0.780392
0.819608 0.819608 0.788235
0.823529 0.811765 0.784314
0.815686 0.815686 0.784314
0.815686 0.803922 0.768627
0.819608 0.792157 0.752941
0.819608 0.788235 0.745098
0.811765 0.780392 0.737255
0.807843 0.768627 0.729412
0.803922 0.752941 0.717647
0.803922 0.741176 0.682353
0.792157 0.725490 0.662745
0.788235 0.705882 0.639216
0.800000 0.686275 0.615686
0.850980 0.721569 0.647059
0.913725 0.764706 0.690196
0.952941 0.776471 0.694118
0.960784 0.800000 0.721569
0.984314 0.835294 0.760784
0.827451 0.823529 0.803922
0.831373 0.835294 0.815686
0.835294 0.835294 0.796078
0.839216 0.839216 0.807843
0.847059 0.835294 0.815686
0.854902 0.843137 0.815686
0.847059 0.847059 0.815686
0.854902 0.843137 0.823529
0.854902 0.850980 0.831373
0.847059 0.847059 0.815686
0.850980 0.831373 0.807843
0.854902 0.839216 0.803922
0.847059 0.831373 0.796078
0.850980 0.823529 0.800000
0.847059 0.811765 0.776471
0.843137 0.803922 0.764706
0.831373 0.800000 0.749020
0.827451 0.780392 0.725490
0.835294 0.764706 0.709804
0.839216 0.749020 0.694118
0.847059 0.737255 0.682353
0.901961 0.780392 0.709804
0.929412 0.800000 0.725490
0.952941 0.823529 0.749020
0.980392 0.839216 0.776471
0.862745 0.858824 0.843137
0.862745 0.866667 0.835294
0.862745 0.866667 0.835294
0.874510 0.858824 0.854902
0.866667 0.870588 0.839216
0.866667 0.870588 0.847059
0.874510 0.870588 0.854902
0.878431 0.874510 0.854902
0.874510 0.870588 0.850980
0.882353 0.870588 0.850980
0.874510 0.870588 0.850980
0.870588 0.866667 0.847059
0.882353 0.866667 0.831373
0.878431 0.858824 0.835294
0.882353 0.854902 0.823529
0.874510 0.847059 0.815686
0.866667 0.839216 0.807843
0.870588 0.831373 0.792157
0.874510 0.819608 0.784314
0.870588 0.803922 0.772549
0.870588 0.800000 0.760784
0.886275 0.796078 0.741176
0.925490 0.823529 0.764706
0.952941 0.843137 0.788235
0.968627 0.858824 0.815686
0.894118 0.894118 0.862745
0.890196 0.886275 0.870588
0.890196 0.894118 0.874510
0.886275 0.894118 0.874510
0.890196 0.890196 0.882353
0.890196 0.894118 0.874510
0.894118 0.890196 0.874510
0.898039 0.894118 0.878431
0.898039 0.894118 0.878431
0.901961 0.898039 0.882353
0.898039 0.894118 0.874510
0.898039 0.894118 0.874510
0.894118 0.890196 0.870588
0.894118 0.890196 0.870588
0.894118 0.882353 0.862745
0.894118 0.882353 0.862745
0.898039 0.878431 0.854902
0.901961 0.874510 0.850980
0.901961 0.866667 0.839216
0.894118 0.854902 0.819608
0.894118 0.854902 0.819608
0.909804 0.854902 0.811765
0.929412 0.858824 0.811765
0.945098 0.874510 0.827451
0.960784 0.890196 0.850980
0.094118 0.101961 0.098039
0.105882 0.105882 0.113725
0.117647 0.101961 0.105882
0.133333 0.098039 0.101961
0.149020 0.109804 0.105882
0.160784 0.117647 0.109804
0.192157 0.121569 0.113725
0.219608 0.125490 0.117647
0.247059 0.133333 0.117647
0.274510 0.137255 0.113725
0.313725 0.145098 0.109804
0.352941 0.156863 0.121569
0.400000 0.172549 0.129412
0.439216 0.180392 0.117647
0.498039 0.196078 0.117647
0.549020 0.211765 0.121569
0.600000 0.231373 0.129412
0.650980 0.247059 0.125490
0.705882 0.258824 0.117647
0.760784 0.282353 0.121569
0.803922 0.305882 0.129412
0.850980 0.317647 0.129412
0.913725 0.337255 0.133333
0.972549 0.364706 0.152941
1.000000 0.384314 0.168627
0.101961 0.098039 0.117647
0.101961 0.109804 0.098039
0.117647 0.113725 0.098039
0.133333 0.109804 0.117647
0.149020 0.109804 0.101961
0.164706 0.125490 0.117647
0.192157 0.121569 0.113725
0.211765 0.129412 0.117647
0.247059 0.129412 0.121569
0.282353 0.145098 0.121569
0.309804 0.152941 0.113725
0.356863 0.160784 0.125490
0.400000 0.172549 0.125490
0.450980 0.188235 0.121569
0.498039 0.203922 0.121569
0.552941 0.215686 0.117647
0.607843 0.235294 0.125490
0.658824 0.247059 0.129412
0.709804 0.262745 0.121569
0.764706 0.282353 0.121569
0.815686 0.313725 0.137255
0.866667 0.325490 0.133333
0.921569 0.345098 0.141176
0.964706 0.360784 0.156863
1.000000 0.392157 0.172549
0.109804 0.105882 0.125490
0.109804 0.117647 0.105882
0.113725 0.121569 0.117647
0.137255 0.121569 0.109804
0.156863 0.121569 0.125490
0.168627 0.133333 0.113725
0.200000 0.129412 0.121569
0.227451 0.133333 0.117647
0.250980 0.137255 0.113725
0.286275 0.152941 0.117647
0.325490 0.156863 0.121569
0.364706 0.172549 0.117647
0.407843 0.184314 0.117647
0.443137 0.196078 0.129412
0.494118 0.211765 0.117647
0.549020 0.219608 0.125490
0.603922 0.235294 0.125490
0.654902 0.250980 0.121569
0.709804 0.270588 0.121569
0.756863 0.290196 0.125490
0.811765 0.309804 0.125490
0.866667 0.325490 0.141176
0.921569 0.341176 0.152941
0.960784 0.368627 0.160784
1.000000 0.392157 0.168627
0.109804 0.113725 0.121569
0.113725 0.121569 0.109804
0.121569 0.129412 0.125490
0.129412 0.129412 0.121569
0.160784 0.133333 0.109804
0.184314 0.133333 0.109804
0.207843 0.137255 0.121569
0.227451 0.149020 0.121569
0.258824 0.145098 0.113725
0.301961 0.156863 0.121569
0.333333 0.168627 0.121569
0.372549 0.180392 0.121569
0.415686 0.192157 0.125490
0.462745 0.200000 0.125490
0.509804 0.211765 0.121569
0.564706 0.235294 0.133333
0.607843 0.250980 0.129412
0.666667 0.266667 0.117647
0.717647 0.278431 0.121569
0.772549 0.298039 0.129412
0.815686 0.313725 0.129412
0.862745 0.333333 0.145098
0.909804 0.356863 0.145098
0.972549 0.368627 0.164706
1.000000 0.396078 0.192157
0.125490 0.125490 0.125490
0.121569 0.137255 0.133333
0.133333 0.133333 0.133333
0.141176 0.137255 0.121569
0.141176 0.137255 0.121569
0.180392 0.145098 0.125490
0.219608 0.152941 0.121569
0.250980 0.164706 0.121569
0.274510 0.168627 0.125490
0.301961 0.176471 0.125490
0.349020 0.184314 0.121569
0.384314 0.192157 0.125490
0.447059 0.207843 0.133333
0.470588 0.207843 0.133333
0.529412 0.231373 0.129412
0.572549 0.247059 0.121569
0.611765 0.262745 0.129412
0.662745 0.278431 0.133333
0.717647 0.294118 0.113725
0.764706 0.309804 0.117647
0.819608 0.317647 0.133333
0.858824 0.333333 0.133333
0.905882 0.352941 0.141176
0.952941 0.376471 0.164706
0.992157 0.388235 0.176471
0.137255 0.145098 0.141176
0.141176 0.149020 0.145098
0.149020 0.149020 0.149020
0.149020 0.149020 0.141176
0.152941 0.149020 0.141176
0.168627 0.149020 0.137255
0.215686 0.164706 0.133333
0.258824 0.180392 0.137255
0.301961 0.188235 0.133333
0.337255 0.196078 0.133333
0.376471 0.207843 0.133333
0.415686 0.219608 0.129412
0.458824 0.223529 0.129412
0.505882 0.243137 0.137255
0.560784 0.258824 0.141176
0.607843 0.270588 0.133333
0.658824 0.282353 0.117647
0.705882 0.301961 0.133333
0.756863 0.317647 0.129412
0.807843 0.329412 0.137255
0.850980 0.352941 0.152941
0.901961 0.372549 0.156863
0.949020 0.388235 0.168627
0.980392 0.407843 0.184314
0.996078 0.431373 0.196078
0.152941 0.160784 0.156863
0.160784 0.156863 0.149020
0.164706 0.156863 0.160784
0.164706 0.164706 0.156863
0.168627 0.164706 0.156863
0.176471 0.160784 0.149020
0.200000 0.172549 0.149020
0.247059 0.180392 0.141176
0.305882 0.203922 0.145098
0.356863 0.231373 0.149020
0.392157 0.235294 0.137255
0.443137 0.247059 0.141176
0.490196 0.254902 0.145098
0.533333 0.262745 0.141176
0.596078 0.282353 0.152941
0.639216 0.294118 0.152941
0.686275 0.309804 0.145098
0.725490 0.321569 0.145098
0.768627 0.345098 0.160784
0.823529 0.352941 0.149020
0.866667 0.368627 0.152941
0.913725 0.384314 0.164706
0.956863 0.407843 0.176471
0.996078 0.423529 0.200000
1.000000 0.443137 0.223529
0.168627 0.180392 0.152941
0.168627 0.176471 0.156863
0.176471 0.176471 0.168627
0.180392 0.180392 0.172549
0.192157 0.176471 0.172549
0.188235 0.184314 0.168627
0.196078 0.184314 0.164706
0.231373 0.188235 0.164706
0.282353 0.211765 0.164706
0.341176 0.235294 0.160784
0.415686 0.258824 0.160784
0.474510 0.274510 0.160784
0.521569 0.286275 0.152941
0.568627 0.301961 0.156863
0.619608 0.309804 0.149020
0.662745 0.321569 0.152941
0.705882 0.333333 0.152941
0.749020 0.349020 0.156863
0.792157 0.360784 0.152941
0.831373 0.372549 0.160784
0.878431 0.388235 0.160784
0.921569 0.411765 0.184314
0.956863 0.423529 0.180392
0.992157 0.443137 0.203922
1.000000 0.458824 0.235294
0.192157 0.200000 0.196078
0.211765 0.196078 0.184314
0.192157 0.196078 0.176471
0.200000 0.207843 0.196078
0.219608 0.196078 0.196078
0.207843 0.203922 0.188235
0.219608 0.200000 0.188235
0.231373 0.192157 0.184314
0.266667 0.207843 0.180392
0.337255 0.235294 0.184314
0.403922 0.262745 0.176471
0.470588 0.298039 0.160784
0.549020 0.333333 0.172549
0.592157 0.341176 0.168627
0.635294 0.345098 0.160784
0.686275 0.360784 0.164706
0.729412 0.368627 0.168627
0.772549 0.384314 0.168627
0.807843 0.388235 0.168627
0.854902 0.403922 0.180392
0.894118 0.411765 0.180392
0.933333 0.423529 0.196078
0.968627 0.443137 0.203922
0.996078 0.462745 0.235294
1.000000 0.474510 0.254902
0.215686 0.219608 0.200000
0.219608 0.223529 0.203922
0.219608 0.219608 0.211765
0.227451 0.223529 0.203922
0.235294 0.231373 0.215686
0.243137 0.231373 0.211765
0.243137 0.223529 0.207843
0.239216 0.219608 0.207843
0.258824 0.219608 0.211765
0.298039 0.231373 0.200000
0.384314 0.262745 0.184314
0.450980 0.298039 0.184314
0.541176 0.329412 0.180392
0.611765 0.372549 0.188235
0.670588 0.384314 0.184314
0.709804 0.384314 0.188235
0.756863 0.403922 0.196078
0.792157 0.415686 0.188235
0.827451 0.415686 0.188235
0.870588 0.427451 0.192157
0.901961 0.439216 0.196078
0.941176 0.454902 0.211765
0.980392 0.462745 0.219608
1.000000 0.478431 0.247059
1.000000 0.494118 0.266667
0.250980 0.254902 0.231373
0.254902 0.258824 0.239216
0.254902 0.258824 0.239216
0.262745 0.266667 0.243137
0.270588 0.266667 0.247059
0.270588 0.266667 0.247059
0.278431 0.266667 0.239216
0.282353 0.266667 0.231373
