assets/luts/cinematic-tones-luts-pack-for-video-and-photo-2023-11-27-05-35-37-utc/Cinematic Tones_LUTs/Cinematic Tones 04.cube
#Generated with IWLTBAP LUT Generator
#Website: http://luts.iwltbap.com
TITLE "Cinematic Tones 04"
#LUT size
LUT_3D_SIZE 25
#LUT data points
0.011765 0.050980 0.019608
0.039216 0.043137 0.019608
0.047059 0.050980 0.027451
0.050980 0.054902 0.031373
0.070588 0.058824 0.023529
0.101961 0.066667 0.031373
0.109804 0.074510 0.039216
0.137255 0.082353 0.047059
0.160784 0.082353 0.047059
0.203922 0.094118 0.047059
0.250980 0.109804 0.054902
0.301961 0.117647 0.054902
0.349020 0.133333 0.050980
0.415686 0.149020 0.066667
0.478431 0.160784 0.078431
0.545098 0.176471 0.078431
0.611765 0.188235 0.086275
0.674510 0.211765 0.109804
0.741176 0.227451 0.117647
0.800000 0.247059 0.141176
0.858824 0.270588 0.176471
0.909804 0.298039 0.207843
0.956863 0.333333 0.247059
0.984314 0.372549 0.286275
0.996078 0.411765 0.333333
0.015686 0.050980 0.031373
0.039216 0.058824 0.031373
0.043137 0.066667 0.027451
0.062745 0.066667 0.035294
0.074510 0.082353 0.031373
0.094118 0.078431 0.043137
0.121569 0.082353 0.047059
0.141176 0.086275 0.043137
0.172549 0.101961 0.047059
0.211765 0.109804 0.050980
0.258824 0.121569 0.047059
0.305882 0.129412 0.047059
0.356863 0.141176 0.058824
0.419608 0.152941 0.062745
0.482353 0.168627 0.070588
0.556863 0.184314 0.074510
0.611765 0.200000 0.086275
0.682353 0.211765 0.105882
0.752941 0.239216 0.129412
0.807843 0.262745 0.149020
0.866667 0.278431 0.172549
0.913725 0.309804 0.207843
0.952941 0.341176 0.250980
0.984314 0.376471 0.290196
0.992157 0.415686 0.337255
0.023529 0.078431 0.027451
0.027451 0.078431 0.039216
0.050980 0.082353 0.031373
0.066667 0.078431 0.050980
0.078431 0.086275 0.035294
0.101961 0.094118 0.047059
0.125490 0.098039 0.035294
0.152941 0.098039 0.047059
0.188235 0.113725 0.047059
0.215686 0.129412 0.039216
0.266667 0.129412 0.043137
0.325490 0.145098 0.054902
0.384314 0.156863 0.062745
0.431373 0.168627 0.066667
0.501961 0.184314 0.070588
0.556863 0.200000 0.078431
0.627451 0.215686 0.098039
0.690196 0.227451 0.109804
0.752941 0.254902 0.125490
0.815686 0.270588 0.156863
0.870588 0.290196 0.188235
0.917647 0.325490 0.219608
0.945098 0.349020 0.258824
0.984314 0.392157 0.286275
1.000000 0.423529 0.352941
0.015686 0.105882 0.035294
0.019608 0.101961 0.035294
0.039216 0.105882 0.035294
0.062745 0.105882 0.039216
0.082353 0.094118 0.050980
0.105882 0.109804 0.047059
0.133333 0.121569 0.047059
0.168627 0.125490 0.054902
0.211765 0.129412 0.047059
0.247059 0.145098 0.047059
0.286275 0.164706 0.054902
0.349020 0.168627 0.066667
0.392157 0.176471 0.058824
0.450980 0.192157 0.058824
0.517647 0.207843 0.078431
0.572549 0.227451 0.086275
0.639216 0.239216 0.090196
0.709804 0.254902 0.109804
0.772549 0.266667 0.141176
0.827451 0.290196 0.164706
0.870588 0.309804 0.192157
0.917647 0.329412 0.223529
0.964706 0.360784 0.258824
0.984314 0.403922 0.301961
0.992157 0.443137 0.352941
0.000000 0.125490 0.043137
0.003922 0.129412 0.047059
0.027451 0.125490 0.039216
0.062745 0.133333 0.039216
0.086275 0.133333 0.054902
0.113725 0.121569 0.066667
0.129412 0.133333 0.062745
0.176471 0.145098 0.054902
0.223529 0.164706 0.043137
0.266667 0.176471 0.050980
0.309804 0.192157 0.058824
0.368627 0.200000 0.066667
0.423529 0.211765 0.062745
0.482353 0.227451 0.078431
0.541176 0.239216 0.074510
0.600000 0.250980 0.086275
0.662745 0.262745 0.105882
0.721569 0.274510 0.133333
0.776471 0.290196 0.149020
0.823529 0.317647 0.164706
0.878431 0.329412 0.192157
0.917647 0.356863 0.231373
0.949020 0.380392 0.266667
0.980392 0.415686 0.309804
1.000000 0.447059 0.341176
0.007843 0.160784 0.054902
0.000000 0.168627 0.039216
0.000000 0.168627 0.050980
0.047059 0.168627 0.047059
0.094118 0.168627 0.043137
0.125490 0.164706 0.066667
0.141176 0.160784 0.082353
0.188235 0.168627 0.090196
0.235294 0.192157 0.074510
0.298039 0.211765 0.066667
0.352941 0.243137 0.058824
0.415686 0.250980 0.062745
0.466667 0.254902 0.074510
0.545098 0.266667 0.086275
0.600000 0.286275 0.094118
0.647059 0.301961 0.105882
0.713725 0.313725 0.121569
0.760784 0.321569 0.141176
0.811765 0.329412 0.168627
0.858824 0.352941 0.196078
0.901961 0.376471 0.227451
0.941176 0.400000 0.254902
0.968627 0.423529 0.301961
0.984314 0.450980 0.349020
0.992157 0.498039 0.407843
0.000000 0.203922 0.050980
0.000000 0.211765 0.035294
0.003922 0.200000 0.050980
0.000000 0.219608 0.050980
0.070588 0.223529 0.050980
0.129412 0.215686 0.062745
0.172549 0.211765 0.066667
0.188235 0.196078 0.101961
0.227451 0.211765 0.098039
0.290196 0.235294 0.098039
0.368627 0.262745 0.086275
0.443137 0.286275 0.082353
0.505882 0.305882 0.082353
0.572549 0.317647 0.098039
0.627451 0.325490 0.113725
0.678431 0.341176 0.117647
0.737255 0.356863 0.141176
0.788235 0.368627 0.164706
0.831373 0.376471 0.184314
0.882353 0.392157 0.219608
0.917647 0.411765 0.254902
0.952941 0.435294 0.286275
0.980392 0.458824 0.329412
0.992157 0.482353 0.380392
1.000000 0.521569 0.427451
0.007843 0.254902 0.047059
0.000000 0.262745 0.050980
0.000000 0.258824 0.047059
0.003922 0.274510 0.058824
0.000000 0.274510 0.039216
0.113725 0.270588 0.062745
0.176471 0.270588 0.074510
0.215686 0.274510 0.105882
0.239216 0.262745 0.129412
0.286275 0.262745 0.137255
0.364706 0.290196 0.133333
0.439216 0.317647 0.133333
0.521569 0.345098 0.129412
0.603922 0.368627 0.125490
0.662745 0.384314 0.133333
0.713725 0.392157 0.156863
0.772549 0.400000 0.180392
0.815686 0.400000 0.196078
0.854902 0.415686 0.219608
0.898039 0.435294 0.254902
0.929412 0.454902 0.286275
0.949020 0.470588 0.309804
0.988235 0.490196 0.360784
0.996078 0.521569 0.407843
0.992157 0.552941 0.458824
0.007843 0.321569 0.050980
0.000000 0.321569 0.047059
0.007843 0.325490 0.054902
0.000000 0.325490 0.058824
0.000000 0.333333 0.039216
0.070588 0.333333 0.054902
0.176471 0.341176 0.082353
0.243137 0.337255 0.094118
0.298039 0.329412 0.129412
0.313725 0.313725 0.164706
0.352941 0.313725 0.176471
0.419608 0.333333 0.172549
0.517647 0.376471 0.180392
0.600000 0.400000 0.184314
0.678431 0.419608 0.180392
0.752941 0.443137 0.184314
0.803922 0.450980 0.215686
0.839216 0.458824 0.243137
0.866667 0.470588 0.258824
0.901961 0.482353 0.278431
0.941176 0.490196 0.313725
0.964706 0.513725 0.341176
0.976471 0.529412 0.384314
0.996078 0.549020 0.443137
1.000000 0.584314 0.474510
0.000000 0.380392 0.054902
0.000000 0.392157 0.047059
0.000000 0.392157 0.047059
0.000000 0.396078 0.058824
0.007843 0.400000 0.062745
0.000000 0.403922 0.062745
0.137255 0.407843 0.094118
0.247059 0.407843 0.109804
0.317647 0.400000 0.129412
0.376471 0.400000 0.164706
0.392157 0.376471 0.188235
0.427451 0.364706 0.231373
0.501961 0.392157 0.235294
0.584314 0.423529 0.243137
0.666667 0.450980 0.239216
0.745098 0.474510 0.243137
0.803922 0.490196 0.250980
0.854902 0.509804 0.262745
0.886275 0.513725 0.286275
0.917647 0.521569 0.317647
0.945098 0.533333 0.345098
0.964706 0.549020 0.384314
0.980392 0.560784 0.419608
0.992157 0.584314 0.470588
1.000000 0.607843 0.505882
0.003922 0.474510 0.082353
0.000000 0.470588 0.078431
0.000000 0.478431 0.078431
0.003922 0.486275 0.078431
0.000000 0.482353 0.074510
0.000000 0.482353 0.090196
0.086275 0.482353 0.105882
0.250980 0.490196 0.117647
0.333333 0.490196 0.152941
0.411765 0.474510 0.180392
0.470588 0.474510 0.215686
0.498039 0.450980 0.254902
0.513725 0.443137 0.294118
0.588235 0.462745 0.301961
0.674510 0.494118 0.301961
0.749020 0.513725 0.317647
0.811765 0.533333 0.321569
0.858824 0.556863 0.345098
0.909804 0.576471 0.364706
0.941176 0.588235 0.392157
0.949020 0.592157 0.419608
0.968627 0.603922 0.470588
0.976471 0.627451 0.509804
0.980392 0.643137 0.537255
0.984314 0.670588 0.572549
0.000000 0.529412 0.105882
0.000000 0.537255 0.101961
0.000000 0.537255 0.101961
0.000000 0.541176 0.105882
0.003922 0.537255 0.105882
0.000000 0.552941 0.113725
0.000000 0.549020 0.137255
0.200000 0.556863 0.152941
0.325490 0.552941 0.160784
0.415686 0.545098 0.203922
0.478431 0.541176 0.247059
0.549020 0.537255 0.274510
0.572549 0.509804 0.305882
0.592157 0.501961 0.341176
0.647059 0.517647 0.356863
0.721569 0.537255 0.372549
0.788235 0.564706 0.388235
0.850980 0.584314 0.400000
0.890196 0.600000 0.415686
0.925490 0.619608 0.439216
0.949020 0.639216 0.478431
0.960784 0.654902 0.513725
0.964706 0.670588 0.545098
0.972549 0.694118 0.584314
0.972549 0.701961 0.639216
0.007843 0.592157 0.137255
0.000000 0.596078 0.141176
0.000000 0.596078 0.149020
0.003922 0.596078 0.145098
0.000000 0.607843 0.149020
0.003922 0.603922 0.156863
0.003922 0.607843 0.160784
0.160784 0.603922 0.180392
0.317647 0.603922 0.192157
0.419608 0.607843 0.219608
0.498039 0.596078 0.266667
0.564706 0.592157 0.286275
0.619608 0.592157 0.317647
0.635294 0.576471 0.352941
0.647059 0.549020 0.392157
0.701961 0.560784 0.419608
0.776471 0.588235 0.439216
0.831373 0.615686 0.454902
0.874510 0.631373 0.470588
0.901961 0.647059 0.482353
0.929412 0.674510 0.517647
0.952941 0.682353 0.552941
0.956863 0.709804 0.588235
0.964706 0.721569 0.631373
0.964706 0.741176 0.674510
0.003922 0.647059 0.196078
0.000000 0.654902 0.188235
0.000000 0.654902 0.180392
0.007843 0.654902 0.184314
0.000000 0.662745 0.196078
0.000000 0.658824 0.207843
0.000000 0.662745 0.211765
0.094118 0.658824 0.211765
0.290196 0.654902 0.235294
0.400000 0.662745 0.258824
0.498039 0.658824 0.290196
0.560784 0.647059 0.313725
0.635294 0.635294 0.352941
0.690196 0.635294 0.380392
0.701961 0.619608 0.411765
0.713725 0.603922 0.447059
0.749020 0.615686 0.478431
0.803922 0.627451 0.498039
0.850980 0.654902 0.517647
0.886275 0.678431 0.545098
0.909804 0.694118 0.572549
0.933333 0.709804 0.603922
0.949020 0.729412 0.639216
0.949020 0.741176 0.670588
0.952941 0.764706 0.686275
0.000000 0.690196 0.235294
0.000000 0.694118 0.235294
0.000000 0.698039 0.235294
0.000000 0.709804 0.243137
0.000000 0.705882 0.262745
0.003922 0.701961 0.254902
0.003922 0.701961 0.254902
0.078431 0.713725 0.274510
0.270588 0.709804 0.286275
0.403922 0.705882 0.305882
0.490196 0.709804 0.329412
0.568627 0.705882 0.345098
0.635294 0.694118 0.376471
0.690196 0.690196 0.407843
0.733333 0.674510 0.443137
0.752941 0.666667 0.474510
0.764706 0.654902 0.501961
0.788235 0.654902 0.545098
0.827451 0.670588 0.568627
0.874510 0.690196 0.580392
0.898039 0.713725 0.611765
0.913725 0.725490 0.635294
0.933333 0.745098 0.658824
0.941176 0.764706 0.690196
0.941176 0.772549 0.705882
0.000000 0.752941 0.317647
0.007843 0.752941 0.321569
0.000000 0.760784 0.321569
0.000000 0.752941 0.333333
0.011765 0.756863 0.341176
0.098039 0.752941 0.337255
0.180392 0.760784 0.329412
0.239216 0.760784 0.349020
0.325490 0.760784 0.360784
0.415686 0.752941 0.372549
0.513725 0.752941 0.388235
0.592157 0.745098 0.419608
0.647059 0.741176 0.443137
0.701961 0.741176 0.470588
0.749020 0.733333 0.486275
0.792157 0.725490 0.521569
0.803922 0.717647 0.556863
0.807843 0.705882 0.576471
0.827451 0.701961 0.611765
0.854902 0.717647 0.643137
0.882353 0.737255 0.662745
0.905882 0.756863 0.674510
0.921569 0.772549 0.698039
0.933333 0.788235 0.725490
0.941176 0.796078 0.760784
0.090196 0.776471 0.380392
0.109804 0.780392 0.380392
0.152941 0.792157 0.380392
0.176471 0.780392 0.396078
0.223529 0.780392 0.388235
0.258824 0.784314 0.396078
0.290196 0.784314 0.403922
0.317647 0.788235 0.407843
0.372549 0.784314 0.411765
0.443137 0.780392 0.423529
0.513725 0.780392 0.439216
0.592157 0.780392 0.450980
0.650980 0.776471 0.482353
0.705882 0.768627 0.521569
0.752941 0.768627 0.529412
0.792157 0.764706 0.560784
0.815686 0.760784 0.576471
0.839216 0.752941 0.607843
0.839216 0.737255 0.639216
0.843137 0.737255 0.662745
0.874510 0.749020 0.698039
0.898039 0.772549 0.721569
0.909804 0.784314 0.741176
0.925490 0.792157 0.752941
0.933333 0.803922 0.768627
0.294118 0.807843 0.443137
0.309804 0.811765 0.439216
0.313725 0.811765 0.454902
0.337255 0.807843 0.454902
0.356863 0.803922 0.462745
0.372549 0.803922 0.462745
0.392157 0.807843 0.462745
0.419608 0.811765 0.466667
0.443137 0.811765 0.474510
0.482353 0.811765 0.478431
0.541176 0.803922 0.494118
0.603922 0.807843 0.517647
0.666667 0.803922 0.545098
0.713725 0.792157 0.560784
0.764706 0.800000 0.584314
0.792157 0.788235 0.600000
0.815686 0.788235 0.615686
0.839216 0.784314 0.639216
0.847059 0.780392 0.662745
0.862745 0.776471 0.686275
0.874510 0.772549 0.713725
0.886275 0.772549 0.741176
0.905882 0.792157 0.760784
0.917647 0.803922 0.780392
0.925490 0.823529 0.772549
0.427451 0.823529 0.509804
0.443137 0.827451 0.525490
0.454902 0.823529 0.517647
0.447059 0.835294 0.521569
0.462745 0.823529 0.529412
0.470588 0.827451 0.517647
0.486275 0.823529 0.537255
0.505882 0.827451 0.537255
0.529412 0.827451 0.537255
0.537255 0.835294 0.545098
0.592157 0.823529 0.556863
0.643137 0.819608 0.564706
0.682353 0.823529 0.580392
0.725490 0.823529 0.607843
0.760784 0.815686 0.623529
0.788235 0.811765 0.639216
0.823529 0.807843 0.658824
0.843137 0.803922 0.666667
0.862745 0.803922 0.682353
0.878431 0.800000 0.705882
0.886275 0.784314 0.717647
0.878431 0.792157 0.749020
0.890196 0.800000 0.768627
0.898039 0.819608 0.792157
0.905882 0.827451 0.792157
0.525490 0.843137 0.580392
0.541176 0.835294 0.580392
0.556863 0.839216 0.588235
0.552941 0.835294 0.588235
0.560784 0.847059 0.576471
0.572549 0.843137 0.588235
0.584314 0.843137 0.592157
0.588235 0.843137 0.592157
0.596078 0.850980 0.600000
0.615686 0.843137 0.603922
0.631373 0.843137 0.607843
0.666667 0.843137 0.627451
0.705882 0.843137 0.631373
0.733333 0.835294 0.647059
0.764706 0.831373 0.658824
0.792157 0.835294 0.678431
0.823529 0.823529 0.690196
0.847059 0.823529 0.698039
0.862745 0.827451 0.713725
0.878431 0.823529 0.721569
0.882353 0.815686 0.752941
0.890196 0.815686 0.760784
0.894118 0.815686 0.772549
0.894118 0.823529 0.784314
0.905882 0.831373 0.803922
0.654902 0.858824 0.666667
0.654902 0.847059 0.670588
0.654902 0.847059 0.662745
0.666667 0.854902 0.658824
0.662745 0.858824 0.666667
0.666667 0.854902 0.666667
0.666667 0.854902 0.666667
0.682353 0.850980 0.674510
0.674510 0.854902 0.662745
0.698039 0.850980 0.666667
0.705882 0.850980 0.678431
0.725490 0.847059 0.682353
0.749020 0.854902 0.686275
0.772549 0.854902 0.701961
0.788235 0.850980 0.709804
0.815686 0.854902 0.721569
0.839216 0.839216 0.729412
0.858824 0.843137 0.737255
0.870588 0.839216 0.749020
0.882353 0.839216 0.760784
0.890196 0.839216 0.772549
0.901961 0.839216 0.780392
0.905882 0.835294 0.796078
0.905882 0.839216 0.811765
0.898039 0.839216 0.811765
0.713725 0.858824 0.698039
0.713725 0.862745 0.709804
0.713725 0.854902 0.705882
0.717647 0.862745 0.701961
0.725490 0.870588 0.709804
0.717647 0.854902 0.698039
0.733333 0.858824 0.713725
0.741176 0.858824 0.709804
0.737255 0.862745 0.717647
0.741176 0.866667 0.713725
0.756863 0.858824 0.713725
0.764706 0.858824 0.717647
0.784314 0.858824 0.733333
0.800000 0.858824 0.745098
0.815686 0.854902 0.749020
0.835294 0.858824 0.756863
0.847059 0.854902 0.760784
0.870588 0.850980 0.764706
0.878431 0.858824 0.784314
0.882353 0.854902 0.792157
0.898039 0.850980 0.796078
0.901961 0.847059 0.796078
0.905882 0.850980 0.807843
0.898039 0.843137 0.807843
0.921569 0.850980 0.835294
0.749020 0.870588 0.745098
0.764706 0.870588 0.741176
0.772549 0.870588 0.745098
0.776471 0.866667 0.752941
0.756863 0.870588 0.749020
0.780392 0.870588 0.756863
0.780392 0.878431 0.760784
0.784314 0.862745 0.752941
0.788235 0.866667 0.760784
0.780392 0.870588 0.756863
0.788235 0.866667 0.756863
0.796078 0.866667 0.764706
0.803922 0.866667 0.764706
0.823529 0.874510 0.772549
0.823529 0.870588 0.776471
0.850980 0.870588 0.784314
0.858824 0.866667 0.784314
0.870588 0.858824 0.792157
0.878431 0.866667 0.800000
0.890196 0.866667 0.811765
0.894118 0.862745 0.819608
0.901961 0.862745 0.815686
0.917647 0.862745 0.827451
0.905882 0.866667 0.827451
0.917647 0.866667 0.835294
0.800000 0.870588 0.776471
0.811765 0.870588 0.780392
0.807843 0.866667 0.784314
0.803922 0.874510 0.780392
0.815686 0.878431 0.776471
0.803922 0.874510 0.780392
0.819608 0.874510 0.784314
0.819608 0.878431 0.788235
0.815686 0.874510 0.784314
0.827451 0.882353 0.792157
0.835294 0.870588 0.796078
0.827451 0.870588 0.803922
0.831373 0.886275 0.796078
0.839216 0.874510 0.800000
0.858824 0.878431 0.800000
0.862745 0.874510 0.800000
0.866667 0.878431 0.803922
0.878431 0.870588 0.819608
0.890196 0.874510 0.827451
0.894118 0.878431 0.835294
0.898039 0.874510 0.827451
0.909804 0.870588 0.831373
0.913725 0.874510 0.839216
0.909804 0.870588 0.835294
0.921569 0.870588 0.847059
0.839216 0.882353 0.815686
0.847059 0.878431 0.819608
0.835294 0.878431 0.811765
0.839216 0.890196 0.823529
0.839216 0.882353 0.815686
0.847059 0.878431 0.819608
0.839216 0.882353 0.815686
0.847059 0.882353 0.807843
0.850980 0.878431 0.815686
0.862745 0.878431 0.823529
0.850980 0.886275 0.819608
0.858824 0.886275 0.815686
0.858824 0.886275 0.815686
0.870588 0.878431 0.823529
0.870588 0.878431 0.823529
0.874510 0.882353 0.831373
0.890196 0.882353 0.835294
0.905882 0.878431 0.839216
0.898039 0.882353 0.839216
0.901961 0.886275 0.850980
0.909804 0.882353 0.850980
0.921569 0.878431 0.854902
0.921569 0.878431 0.862745
0.921569 0.878431 0.862745
0.929412 0.886275 0.870588
0.035294 0.043137 0.023529
0.027451 0.054902 0.023529
0.043137 0.050980 0.031373
0.062745 0.047059 0.035294
0.066667 0.066667 0.035294
0.090196 0.074510 0.039216
0.113725 0.070588 0.047059
0.137255 0.090196 0.043137
0.164706 0.086275 0.050980
0.207843 0.098039 0.050980
0.243137 0.109804 0.062745
0.301961 0.121569 0.062745
0.352941 0.137255 0.058824
0.415686 0.149020 0.074510
0.478431 0.160784 0.086275
0.545098 0.172549 0.086275
0.615686 0.200000 0.113725
0.662745 0.207843 0.117647
0.733333 0.227451 0.141176
0.800000 0.250980 0.160784
0.858824 0.274510 0.180392
0.905882 0.301961 0.207843
0.945098 0.333333 0.247059
0.988235 0.372549 0.298039
1.000000 0.411765 0.352941
0.023529 0.070588 0.031373
0.023529 0.062745 0.027451
0.054902 0.062745 0.043137
0.062745 0.066667 0.043137
0.066667 0.074510 0.031373
0.094118 0.086275 0.035294
0.113725 0.086275 0.047059
0.141176 0.082353 0.054902
0.172549 0.094118 0.050980
0.215686 0.113725 0.062745
0.250980 0.121569 0.062745
0.309804 0.129412 0.066667
0.368627 0.145098 0.070588
0.423529 0.164706 0.078431
0.478431 0.180392 0.078431
0.552941 0.192157 0.094118
0.615686 0.207843 0.109804
0.682353 0.215686 0.121569
0.745098 0.243137 0.145098
0.807843 0.258824 0.160784
0.862745 0.278431 0.184314
0.913725 0.305882 0.219608
0.952941 0.345098 0.258824
0.976471 0.380392 0.298039
1.000000 0.411765 0.352941
0.031373 0.074510 0.043137
0.035294 0.082353 0.043137
0.054902 0.086275 0.043137
0.078431 0.078431 0.039216
0.086275 0.086275 0.047059
0.098039 0.090196 0.043137
0.129412 0.098039 0.054902
0.152941 0.098039 0.054902
0.192157 0.117647 0.058824
0.227451 0.125490 0.058824
0.270588 0.129412 0.066667
0.325490 0.149020 0.066667
0.380392 0.168627 0.066667
0.435294 0.176471 0.082353
0.501961 0.188235 0.082353
0.556863 0.207843 0.090196
0.623529 0.215686 0.101961
0.682353 0.231373 0.117647
0.752941 0.250980 0.137255
0.811765 0.270588 0.160784
0.866667 0.294118 0.196078
0.909804 0.321569 0.223529
0.949020 0.352941 0.258824
0.992157 0.384314 0.305882
1.000000 0.427451 0.349020
0.015686 0.101961 0.054902
0.015686 0.098039 0.031373
0.043137 0.105882 0.062745
0.070588 0.101961 0.058824
0.078431 0.101961 0.054902
0.109804 0.113725 0.058824
0.141176 0.117647 0.054902
0.168627 0.121569 0.058824
0.200000 0.133333 0.054902
0.247059 0.145098 0.047059
0.290196 0.156863 0.058824
0.341176 0.168627 0.070588
0.384314 0.184314 0.070588
0.447059 0.200000 0.078431
0.517647 0.207843 0.090196
0.584314 0.219608 0.098039
0.647059 0.235294 0.117647
0.701961 0.250980 0.129412
0.756863 0.266667 0.141176
0.815686 0.294118 0.172549
0.870588 0.305882 0.200000
0.917647 0.329412 0.223529
0.952941 0.356863 0.262745
0.980392 0.407843 0.317647
0.996078 0.447059 0.356863
0.003922 0.125490 0.054902
0.011765 0.125490 0.047059
0.031373 0.129412 0.047059
0.058824 0.133333 0.054902
0.082353 0.133333 0.062745
0.101961 0.129412 0.058824
0.152941 0.129412 0.066667
0.180392 0.149020 0.058824
0.223529 0.168627 0.054902
0.262745 0.180392 0.066667
0.321569 0.188235 0.078431
0.368627 0.200000 0.066667
0.427451 0.215686 0.082353
0.478431 0.219608 0.086275
0.545098 0.239216 0.098039
0.600000 0.254902 0.098039
0.654902 0.266667 0.113725
0.709804 0.278431 0.141176
0.768627 0.298039 0.160784
0.819608 0.309804 0.168627
0.870588 0.329412 0.188235
0.905882 0.356863 0.227451
0.945098 0.380392 0.274510
0.980392 0.415686 0.321569
1.000000 0.435294 0.352941
0.000000 0.168627 0.054902
0.000000 0.164706 0.054902
0.000000 0.168627 0.062745
0.047059 0.164706 0.062745
0.094118 0.176471 0.054902
0.125490 0.172549 0.078431
0.133333 0.168627 0.094118
0.184314 0.176471 0.094118
0.235294 0.200000 0.086275
0.301961 0.211765 0.086275
0.356863 0.231373 0.078431
0.411765 0.243137 0.078431
0.462745 0.254902 0.090196
0.533333 0.270588 0.101961
0.592157 0.286275 0.105882
0.654902 0.298039 0.121569
0.705882 0.301961 0.133333
0.756863 0.321569 0.152941
0.811765 0.333333 0.180392
0.854902 0.352941 0.207843
0.894118 0.372549 0.235294
0.937255 0.400000 0.274510
0.968627 0.419608 0.313725
0.992157 0.447059 0.356863
1.000000 0.494118 0.407843
0.003922 0.200000 0.050980
0.000000 0.215686 0.062745
0.000000 0.211765 0.058824
0.000000 0.223529 0.062745
0.070588 0.219608 0.074510
0.133333 0.219608 0.070588
0.176471 0.211765 0.090196
0.192157 0.207843 0.109804
0.219608 0.219608 0.109804
0.294118 0.243137 0.109804
0.372549 0.266667 0.098039
0.439216 0.290196 0.098039
0.505882 0.309804 0.101961
0.564706 0.317647 0.105882
0.619608 0.333333 0.133333
0.678431 0.345098 0.133333
0.733333 0.356863 0.156863
0.784314 0.360784 0.176471
0.831373 0.372549 0.200000
0.874510 0.392157 0.231373
0.917647 0.411765 0.258824
0.949020 0.427451 0.290196
0.976471 0.454902 0.325490
0.988235 0.486275 0.380392
1.000000 0.521569 0.439216
0.000000 0.262745 0.050980
0.000000 0.254902 0.054902
0.000000 0.262745 0.062745
0.000000 0.270588 0.058824
0.000000 0.270588 0.058824
0.121569 0.278431 0.074510
0.172549 0.274510 0.086275
0.223529 0.270588 0.113725
0.250980 0.254902 0.133333
0.290196 0.266667 0.141176
0.356863 0.298039 0.137255
0.431373 0.321569 0.137255
0.521569 0.341176 0.137255
0.611765 0.368627 0.137255
0.654902 0.388235 0.149020
0.698039 0.388235 0.164706
0.756863 0.400000 0.184314
0.815686 0.407843 0.207843
0.854902 0.423529 0.231373
0.890196 0.435294 0.250980
0.921569 0.447059 0.278431
0.956863 0.474510 0.309804
0.976471 0.486275 0.360784
0.992157 0.517647 0.403922
0.988235 0.549020 0.462745
0.000000 0.317647 0.058824
0.000000 0.333333 0.054902
0.000000 0.321569 0.039216
0.000000 0.329412 0.066667
0.000000 0.333333 0.066667
0.050980 0.333333 0.082353
0.164706 0.345098 0.101961
0.243137 0.341176 0.113725
0.294118 0.333333 0.137255
0.321569 0.309804 0.172549
0.356863 0.313725 0.188235
0.427451 0.341176 0.188235
0.517647 0.376471 0.188235
0.600000 0.400000 0.184314
0.678431 0.427451 0.184314
0.741176 0.447059 0.184314
0.788235 0.450980 0.211765
0.831373 0.458824 0.239216
0.862745 0.466667 0.254902
0.901961 0.482353 0.278431
0.941176 0.490196 0.313725
0.952941 0.509804 0.352941
0.972549 0.525490 0.384314
0.988235 0.552941 0.435294
1.000000 0.584314 0.490196
0.000000 0.388235 0.062745
0.000000 0.392157 0.066667
0.003922 0.392157 0.070588
0.000000 0.388235 0.062745
0.007843 0.396078 0.070588
0.000000 0.400000 0.074510
0.129412 0.407843 0.101961
0.235294 0.407843 0.105882
0.309804 0.400000 0.133333
0.364706 0.396078 0.172549
0.388235 0.376471 0.200000
0.423529 0.364706 0.235294
0.498039 0.403922 0.223529
0.572549 0.423529 0.231373
0.658824 0.450980 0.239216
0.733333 0.474510 0.247059
0.800000 0.490196 0.258824
0.843137 0.505882 0.266667
0.882353 0.517647 0.294118
0.909804 0.517647 0.313725
0.933333 0.533333 0.345098
0.960784 0.545098 0.380392
0.968627 0.560784 0.415686
0.988235 0.580392 0.466667
1.000000 0.607843 0.505882
0.000000 0.466667 0.098039
0.000000 0.470588 0.078431
0.000000 0.482353 0.090196
0.003922 0.470588 0.101961
0.000000 0.474510 0.094118
0.000000 0.482353 0.098039
0.074510 0.482353 0.109804
0.235294 0.486275 0.145098
