assets/luts/cinematic-tones-luts-pack-for-video-and-photo-2023-11-27-05-35-37-utc/Cinematic Tones_LUTs/Cinematic Tones 02.cube
#Generated with IWLTBAP LUT Generator
#Website: http://luts.iwltbap.com
TITLE "Cinematic Tones 02"
#LUT size
LUT_3D_SIZE 9
#LUT data points
0.094118 0.090196 0.082353
0.129412 0.098039 0.090196
0.188235 0.109804 0.105882
0.274510 0.129412 0.098039
0.396078 0.164706 0.109804
0.545098 0.200000 0.113725
0.709804 0.266667 0.109804
0.870588 0.325490 0.109804
1.000000 0.380392 0.160784
0.113725 0.113725 0.113725
0.133333 0.117647 0.105882
0.207843 0.141176 0.113725
0.301961 0.152941 0.109804
0.415686 0.184314 0.113725
0.564706 0.231373 0.109804
0.721569 0.286275 0.117647
0.870588 0.333333 0.117647
1.000000 0.392157 0.168627
0.149020 0.156863 0.152941
0.164706 0.152941 0.133333
0.196078 0.160784 0.133333
0.356863 0.219608 0.133333
0.498039 0.250980 0.129412
0.627451 0.294118 0.133333
0.784314 0.337255 0.141176
0.929412 0.384314 0.152941
1.000000 0.439216 0.211765
0.207843 0.219608 0.192157
0.219608 0.215686 0.196078
0.235294 0.215686 0.192157
0.305882 0.227451 0.192157
0.541176 0.329412 0.180392
0.725490 0.392157 0.176471
0.847059 0.423529 0.180392
0.941176 0.454902 0.203922
1.000000 0.494118 0.258824
0.313725 0.325490 0.282353
0.333333 0.333333 0.294118
0.345098 0.329412 0.286275
0.349020 0.313725 0.278431
0.458824 0.337255 0.258824
0.721569 0.462745 0.266667
0.925490 0.552941 0.301961
1.000000 0.572549 0.325490
0.996078 0.607843 0.392157
0.478431 0.486275 0.443137
0.494118 0.494118 0.447059
0.509804 0.501961 0.454902
0.513725 0.474510 0.427451
0.486275 0.431373 0.380392
0.627451 0.462745 0.364706
0.874510 0.600000 0.407843
1.000000 0.686275 0.494118
1.000000 0.733333 0.580392
0.627451 0.643137 0.588235
0.647059 0.650980 0.596078
0.670588 0.654902 0.611765
0.670588 0.647059 0.600000
0.654902 0.607843 0.552941
0.631373 0.549020 0.482353
0.780392 0.596078 0.478431
0.956863 0.705882 0.564706
1.000000 0.788235 0.670588
0.788235 0.796078 0.752941
0.803922 0.803922 0.772549
0.811765 0.811765 0.780392
0.815686 0.815686 0.784314
0.819608 0.788235 0.745098
0.803922 0.752941 0.717647
0.788235 0.705882 0.639216
0.913725 0.764706 0.690196
0.984314 0.835294 0.760784
0.894118 0.894118 0.862745
0.886275 0.894118 0.874510
0.894118 0.890196 0.874510
0.901961 0.898039 0.882353
0.894118 0.890196 0.870588
0.894118 0.882353 0.862745
0.901961 0.866667 0.839216
0.909804 0.854902 0.811765
0.960784 0.890196 0.850980
0.109804 0.125490 0.129412
0.129412 0.117647 0.145098
0.188235 0.125490 0.129412
0.266667 0.149020 0.149020
0.384314 0.176471 0.145098
0.533333 0.211765 0.164706
0.698039 0.262745 0.156863
0.847059 0.325490 0.164706
0.992157 0.384314 0.211765
0.129412 0.133333 0.141176
0.145098 0.145098 0.137255
0.192157 0.152941 0.149020
0.286275 0.172549 0.156863
0.403922 0.200000 0.156863
0.552941 0.235294 0.168627
0.690196 0.274510 0.172549
0.831373 0.325490 0.168627
0.984314 0.384314 0.211765
0.152941 0.176471 0.168627
0.168627 0.188235 0.172549
0.207843 0.188235 0.176471
0.345098 0.231373 0.176471
0.474510 0.258824 0.180392
0.619608 0.290196 0.180392
0.752941 0.337255 0.180392
0.898039 0.388235 0.196078
0.996078 0.439216 0.250980
0.211765 0.231373 0.215686
0.231373 0.239216 0.219608
0.250980 0.247059 0.231373
0.301961 0.247059 0.211765
0.533333 0.341176 0.215686
0.690196 0.388235 0.215686
0.807843 0.415686 0.223529
0.917647 0.443137 0.235294
1.000000 0.486275 0.274510
0.321569 0.333333 0.298039
0.325490 0.349020 0.309804
0.360784 0.360784 0.329412
0.372549 0.337255 0.301961
0.450980 0.349020 0.282353
0.721569 0.474510 0.313725
0.909804 0.560784 0.341176
0.988235 0.576471 0.360784
0.992157 0.607843 0.423529
0.454902 0.486275 0.435294
0.470588 0.494118 0.447059
0.509804 0.509804 0.462745
0.521569 0.482353 0.443137
0.505882 0.450980 0.407843
0.627451 0.470588 0.368627
0.870588 0.600000 0.435294
0.988235 0.698039 0.521569
1.000000 0.729412 0.576471
0.619608 0.635294 0.576471
0.639216 0.647059 0.596078
0.666667 0.658824 0.611765
0.666667 0.650980 0.607843
0.666667 0.619608 0.564706
0.639216 0.564706 0.509804
0.780392 0.596078 0.486275
0.945098 0.698039 0.560784
1.000000 0.792157 0.670588
0.788235 0.796078 0.745098
0.796078 0.803922 0.752941
0.811765 0.811765 0.780392
0.823529 0.811765 0.784314
0.811765 0.796078 0.760784
0.811765 0.764706 0.717647
0.788235 0.713725 0.658824
0.901961 0.760784 0.674510
0.980392 0.835294 0.760784
0.886275 0.890196 0.870588
0.886275 0.890196 0.870588
0.890196 0.894118 0.874510
0.898039 0.901961 0.882353
0.901961 0.886275 0.874510
0.894118 0.874510 0.850980
0.898039 0.870588 0.839216
0.905882 0.847059 0.819608
0.960784 0.890196 0.850980
0.101961 0.176471 0.192157
0.121569 0.188235 0.215686
0.176471 0.160784 0.227451
0.305882 0.160784 0.227451
0.400000 0.176471 0.211765
0.501961 0.227451 0.227451
0.658824 0.274510 0.239216
0.823529 0.329412 0.243137
0.976471 0.396078 0.294118
0.137255 0.192157 0.203922
0.152941 0.196078 0.219608
0.188235 0.188235 0.227451
0.313725 0.188235 0.239216
0.388235 0.211765 0.223529
0.513725 0.247059 0.235294
0.666667 0.282353 0.239216
0.811765 0.337255 0.254902
0.968627 0.400000 0.286275
0.164706 0.219608 0.219608
0.168627 0.231373 0.227451
0.223529 0.239216 0.250980
0.321569 0.250980 0.250980
0.431373 0.278431 0.258824
0.580392 0.305882 0.266667
0.721569 0.349020 0.278431
0.874510 0.400000 0.294118
1.000000 0.450980 0.333333
0.203922 0.262745 0.250980
0.227451 0.266667 0.270588
0.274510 0.298039 0.290196
0.317647 0.298039 0.282353
0.525490 0.376471 0.301961
0.650980 0.396078 0.309804
0.780392 0.423529 0.309804
0.901961 0.458824 0.325490
1.000000 0.509804 0.360784
0.301961 0.368627 0.329412
0.309804 0.376471 0.352941
0.368627 0.396078 0.368627
0.419608 0.400000 0.376471
0.466667 0.388235 0.345098
0.717647 0.509804 0.384314
0.870588 0.572549 0.431373
0.964706 0.596078 0.447059
0.996078 0.623529 0.498039
0.435294 0.517647 0.458824
0.470588 0.517647 0.478431
0.505882 0.537255 0.494118
0.564706 0.549020 0.513725
0.549020 0.509804 0.470588
0.627451 0.501961 0.443137
0.866667 0.631373 0.498039
0.980392 0.725490 0.600000
1.000000 0.749020 0.643137
0.600000 0.647059 0.592157
0.611765 0.658824 0.603922
0.647059 0.670588 0.623529
0.698039 0.686275 0.658824
0.686275 0.658824 0.619608
0.654902 0.600000 0.549020
0.772549 0.623529 0.533333
0.937255 0.725490 0.615686
0.996078 0.807843 0.721569
0.784314 0.796078 0.760784
0.780392 0.800000 0.772549
0.800000 0.811765 0.776471
0.827451 0.827451 0.796078
0.819608 0.819608 0.788235
0.815686 0.780392 0.745098
0.796078 0.725490 0.678431
0.905882 0.768627 0.694118
0.968627 0.839216 0.780392
0.878431 0.890196 0.854902
0.886275 0.894118 0.882353
0.890196 0.894118 0.874510
0.901961 0.898039 0.890196
0.909804 0.894118 0.882353
0.890196 0.886275 0.866667
0.894118 0.874510 0.850980
0.909804 0.850980 0.823529
0.956863 0.890196 0.850980
0.058824 0.286275 0.329412
0.101961 0.298039 0.341176
0.152941 0.290196 0.364706
0.250980 0.215686 0.384314
0.474510 0.211765 0.384314
0.572549 0.235294 0.349020
0.650980 0.254902 0.317647
0.760784 0.329412 0.333333
0.941176 0.403922 0.372549
0.109804 0.305882 0.349020
0.141176 0.317647 0.337255
0.184314 0.317647 0.356863
0.254902 0.250980 0.376471
0.462745 0.235294 0.384314
0.564706 0.254902 0.341176
0.643137 0.290196 0.329412
0.752941 0.345098 0.333333
0.945098 0.411765 0.364706
0.168627 0.337255 0.360784
0.180392 0.341176 0.356863
0.239216 0.360784 0.380392
0.290196 0.321569 0.403922
0.482353 0.301961 0.411765
0.568627 0.309804 0.356863
0.654902 0.356863 0.364706
0.827451 0.407843 0.384314
0.968627 0.466667 0.423529
0.231373 0.364706 0.372549
0.254902 0.368627 0.392157
0.286275 0.388235 0.392157
0.349020 0.403922 0.403922
0.470588 0.392157 0.396078
0.580392 0.407843 0.403922
0.721569 0.435294 0.400000
0.858824 0.474510 0.431373
0.980392 0.521569 0.443137
0.309804 0.411765 0.415686
0.329412 0.411765 0.415686
0.352941 0.439216 0.431373
0.419608 0.462745 0.447059
0.498039 0.466667 0.454902
0.713725 0.572549 0.517647
0.823529 0.592157 0.521569
0.921569 0.619608 0.541176
1.000000 0.654902 0.560784
0.415686 0.537255 0.513725
0.435294 0.541176 0.521569
0.478431 0.560784 0.533333
0.556863 0.584314 0.556863
0.619608 0.603922 0.592157
0.635294 0.560784 0.533333
0.862745 0.686275 0.596078
0.941176 0.752941 0.674510
1.000000 0.768627 0.698039
0.560784 0.662745 0.611765
0.588235 0.674510 0.627451
0.631373 0.682353 0.643137
0.698039 0.709804 0.682353
0.741176 0.729412 0.701961
0.713725 0.674510 0.627451
0.768627 0.658824 0.603922
0.925490 0.764706 0.678431
0.992157 0.839216 0.772549
0.760784 0.807843 0.768627
0.768627 0.807843 0.776471
0.788235 0.815686 0.784314
0.819608 0.827451 0.807843
0.847059 0.843137 0.827451
0.831373 0.819608 0.792157
0.815686 0.764706 0.729412
0.894118 0.784314 0.729412
0.968627 0.866667 0.815686
0.870588 0.890196 0.866667
0.886275 0.894118 0.874510
0.898039 0.898039 0.890196
0.901961 0.901961 0.894118
0.901961 0.913725 0.886275
0.901961 0.898039 0.882353
0.901961 0.882353 0.858824
0.905882 0.862745 0.839216
0.968627 0.901961 0.870588
0.000000 0.462745 0.525490
0.062745 0.466667 0.525490
0.184314 0.470588 0.537255
0.254902 0.435294 0.564706
0.380392 0.325490 0.564706
0.619608 0.294118 0.560784
0.768627 0.337255 0.529412
0.831373 0.349020 0.470588
0.901961 0.388235 0.443137
0.098039 0.458824 0.517647
0.133333 0.470588 0.529412
0.223529 0.482353 0.545098
0.282353 0.454902 0.552941
0.376471 0.345098 0.568627
0.623529 0.309804 0.556863
0.745098 0.349020 0.513725
0.815686 0.352941 0.454902
0.890196 0.403922 0.443137
0.196078 0.482353 0.541176
0.223529 0.498039 0.537255
0.278431 0.505882 0.549020
0.360784 0.505882 0.568627
0.400000 0.411765 0.572549
0.643137 0.376471 0.576471
0.760784 0.411765 0.529412
0.811765 0.407843 0.474510
0.905882 0.454902 0.474510
0.262745 0.505882 0.556863
0.282353 0.517647 0.556863
0.333333 0.521569 0.560784
0.403922 0.541176 0.564706
0.443137 0.509804 0.580392
0.619608 0.450980 0.568627
0.721569 0.462745 0.517647
0.780392 0.462745 0.486275
0.917647 0.509804 0.498039
0.356863 0.545098 0.560784
0.380392 0.556863 0.576471
0.415686 0.560784 0.584314
0.474510 0.572549 0.588235
0.537255 0.592157 0.603922
0.650980 0.568627 0.596078
0.729412 0.576471 0.580392
0.862745 0.611765 0.576471
0.968627 0.662745 0.623529
0.462745 0.596078 0.603922
0.478431 0.600000 0.607843
0.494118 0.603922 0.607843
0.541176 0.611765 0.619608
0.603922 0.643137 0.639216
0.666667 0.650980 0.639216
0.843137 0.745098 0.717647
0.917647 0.760784 0.713725
0.976471 0.780392 0.737255
0.533333 0.666667 0.662745
0.549020 0.674510 0.662745
0.588235 0.694118 0.674510
0.635294 0.717647 0.690196
0.721569 0.741176 0.725490
0.768627 0.752941 0.741176
0.772549 0.705882 0.674510
0.917647 0.807843 0.764706
0.972549 0.866667 0.831373
0.705882 0.807843 0.772549
0.725490 0.803922 0.768627
0.760784 0.807843 0.792157
0.792157 0.831373 0.800000
0.839216 0.847059 0.827451
0.862745 0.858824 0.843137
0.843137 0.815686 0.792157
0.886275 0.807843 0.772549
0.968627 0.878431 0.847059
0.850980 0.894118 0.862745
0.858824 0.898039 0.866667
0.874510 0.894118 0.878431
0.882353 0.901961 0.878431
0.905882 0.913725 0.894118
0.913725 0.909804 0.901961
0.905882 0.901961 0.882353
0.909804 0.882353 0.858824
0.956863 0.905882 0.874510
0.231373 0.627451 0.698039
0.266667 0.631373 0.701961
0.337255 0.639216 0.709804
0.392157 0.631373 0.713725
0.419608 0.568627 0.721569
0.517647 0.458824 0.729412
0.749020 0.400000 0.713725
0.878431 0.494118 0.686275
0.960784 0.529412 0.643137
0.231373 0.611765 0.678431
0.286275 0.623529 0.682353
0.341176 0.627451 0.694118
0.403922 0.627451 0.705882
0.431373 0.572549 0.698039
0.509804 0.470588 0.709804
0.733333 0.407843 0.713725
0.862745 0.482353 0.682353
0.949020 0.521569 0.643137
0.333333 0.635294 0.698039
0.356863 0.639216 0.698039
0.400000 0.647059 0.705882
0.478431 0.666667 0.721569
0.498039 0.635294 0.721569
0.537255 0.529412 0.721569
0.737255 0.478431 0.717647
0.878431 0.549020 0.690196
0.949020 0.556863 0.650980
0.368627 0.643137 0.682353
0.403922 0.647059 0.698039
0.447059 0.658824 0.705882
0.501961 0.670588 0.705882
0.552941 0.670588 0.709804
0.560784 0.580392 0.705882
0.741176 0.521569 0.705882
0.858824 0.564706 0.686275
0.917647 0.552941 0.623529
0.474510 0.678431 0.721569
0.494118 0.686275 0.713725
0.525490 0.694118 0.721569
0.568627 0.701961 0.737255
0.615686 0.713725 0.733333
0.639216 0.686275 0.741176
0.764706 0.623529 0.725490
0.854902 0.631373 0.690196
0.913725 0.615686 0.623529
0.564706 0.717647 0.737255
0.568627 0.713725 0.737255
0.592157 0.721569 0.741176
0.623529 0.733333 0.749020
0.662745 0.741176 0.745098
0.709804 0.749020 0.752941
0.776471 0.717647 0.737255
0.850980 0.717647 0.709804
0.952941 0.768627 0.745098
0.603922 0.737255 0.741176
0.619608 0.737255 0.745098
0.627451 0.737255 0.741176
0.658824 0.741176 0.752941
0.694118 0.749020 0.752941
0.745098 0.768627 0.768627
0.784314 0.772549 0.752941
0.913725 0.843137 0.827451
0.952941 0.858824 0.843137
0.698039 0.792157 0.800000
0.686275 0.800000 0.792157
0.701961 0.803922 0.800000
0.737255 0.815686 0.811765
0.792157 0.843137 0.815686
0.843137 0.862745 0.847059
0.866667 0.866667 0.858824
0.874510 0.839216 0.819608
0.956863 0.898039 0.870588
0.823529 0.886275 0.874510
0.831373 0.890196 0.878431
0.847059 0.890196 0.874510
0.858824 0.901961 0.878431
0.898039 0.905882 0.894118
0.917647 0.917647 0.909804
0.917647 0.921569 0.901961
0.921569 0.901961 0.886275
0.952941 0.909804 0.894118
0.533333 0.764706 0.827451
0.541176 0.768627 0.823529
0.568627 0.772549 0.823529
0.611765 0.776471 0.823529
0.635294 0.764706 0.839216
0.619608 0.709804 0.835294
0.658824 0.619608 0.823529
0.823529 0.568627 0.819608
0.945098 0.658824 0.835294
0.517647 0.749020 0.811765
0.537255 0.764706 0.819608
0.572549 0.764706 0.819608
0.607843 0.780392 0.831373
0.631373 0.760784 0.827451
0.627451 0.709804 0.823529
0.658824 0.619608 0.827451
0.811765 0.568627 0.815686
0.937255 0.654902 0.811765
0.556863 0.764706 0.819608
0.576471 0.780392 0.823529
0.607843 0.780392 0.831373
0.639216 0.788235 0.831373
0.674510 0.784314 0.839216
0.662745 0.745098 0.827451
0.682353 0.662745 0.823529
0.831373 0.619608 0.823529
0.952941 0.698039 0.831373
0.572549 0.768627 0.803922
0.592157 0.772549 0.823529
0.611765 0.784314 0.819608
0.654902 0.788235 0.823529
0.690196 0.800000 0.843137
0.698039 0.764706 0.827451
0.698039 0.682353 0.827451
0.831373 0.639216 0.823529
0.941176 0.705882 0.815686
0.635294 0.792157 0.823529
0.654902 0.800000 0.831373
0.658824 0.803922 0.827451
0.694118 0.807843 0.839216
0.725490 0.815686 0.839216
0.760784 0.819608 0.847059
0.745098 0.752941 0.835294
0.850980 0.713725 0.831373
0.937255 0.768627 0.835294
0.686275 0.815686 0.835294
0.698039 0.819608 0.839216
0.713725 0.819608 0.847059
0.733333 0.831373 0.850980
0.752941 0.827451 0.843137
0.788235 0.843137 0.854902
0.803922 0.819608 0.862745
0.870588 0.780392 0.843137
0.933333 0.792157 0.807843
0.709804 0.819608 0.831373
0.705882 0.823529 0.831373
0.733333 0.827451 0.835294
0.749020 0.831373 0.843137
0.776471 0.835294 0.847059
0.803922 0.843137 0.850980
0.823529 0.839216 0.850980
0.858824 0.823529 0.827451
0.929412 0.835294 0.827451
0.772549 0.843137 0.858824
0.768627 0.847059 0.843137
0.768627 0.850980 0.854902
0.788235 0.850980 0.850980
0.803922 0.858824 0.858824
0.823529 0.858824 0.854902
0.866667 0.874510 0.862745
0.874510 0.870588 0.862745
0.945098 0.925490 0.901961
0.827451 0.882353 0.894118
0.811765 0.898039 0.890196
0.827451 0.890196 0.890196
0.835294 0.898039 0.894118
0.862745 0.901961 0.905882
0.890196 0.913725 0.905882
0.929412 0.937255 0.925490
0.933333 0.929412 0.921569
0.956863 0.925490 0.917647
0.737255 0.854902 0.886275
0.745098 0.862745 0.894118
0.756863 0.870588 0.901961
0.776471 0.866667 0.898039
0.792157 0.866667 0.894118
0.792157 0.858824 0.890196
0.788235 0.819608 0.894118
0.800000 0.772549 0.901961
0.894118 0.749020 0.909804
0.733333 0.850980 0.890196
0.737255 0.847059 0.890196
0.752941 0.858824 0.894118
0.772549 0.870588 0.898039
0.788235 0.866667 0.901961
0.803922 0.858824 0.901961
0.788235 0.819608 0.894118
0.800000 0.780392 0.898039
0.886275 0.741176 0.901961
0.741176 0.862745 0.882353
0.760784 0.866667 0.894118
0.772549 0.866667 0.905882
0.780392 0.870588 0.894118
0.803922 0.878431 0.901961
0.815686 0.866667 0.901961
0.807843 0.843137 0.901961
0.819608 0.796078 0.905882
0.890196 0.768627 0.901961
0.749020 0.862745 0.886275
0.764706 0.862745 0.890196
0.772549 0.870588 0.898039
0.792157 0.874510 0.894118
0.807843 0.878431 0.894118
0.823529 0.874510 0.898039
0.819608 0.850980 0.901961
0.815686 0.807843 0.894118
0.894118 0.772549 0.898039
0.772549 0.870588 0.886275
0.784314 0.874510 0.898039
0.792157 0.874510 0.894118
0.803922 0.878431 0.901961
0.827451 0.886275 0.905882
0.839216 0.894118 0.905882
0.850980 0.878431 0.909804
0.835294 0.839216 0.909804
0.921569 0.811765 0.909804
0.803922 0.878431 0.894118
0.807843 0.882353 0.898039
0.811765 0.886275 0.901961
0.815686 0.886275 0.901961
0.831373 0.890196 0.901961
0.854902 0.898039 0.913725
0.882353 0.901961 0.917647
0.866667 0.866667 0.898039
0.917647 0.854902 0.905882
0.811765 0.886275 0.901961
0.819608 0.890196 0.905882
0.819608 0.890196 0.898039
0.835294 0.894118 0.905882
0.850980 0.894118 0.909804
0.866667 0.898039 0.909804
0.890196 0.909804 0.921569
0.890196 0.894118 0.909804
0.929412 0.882353 0.921569
0.843137 0.901961 0.921569
0.831373 0.901961 0.909804
0.847059 0.901961 0.913725
0.854902 0.898039 0.905882
0.862745 0.901961 0.905882
0.886275 0.905882 0.917647
0.894118 0.917647 0.917647
0.913725 0.917647 0.925490
0.941176 0.905882 0.909804
0.874510 0.913725 0.917647
0.878431 0.925490 0.925490
0.878431 0.925490 0.925490
0.874510 0.921569 0.921569
0.882353 0.921569 0.917647
0.894118 0.925490 0.933333
0.909804 0.925490 0.921569
0.937255 0.937255 0.929412
0.949020 0.945098 0.937255
0.854902 0.913725 0.933333
0.854902 0.913725 0.933333
0.866667 0.921569 0.933333
0.874510 0.917647 0.933333
0.882353 0.917647 0.937255
0.890196 0.921569 0.933333
0.898039 0.917647 0.941176
0.894118 0.901961 0.949020
0.905882 0.890196 0.945098
0.854902 0.913725 0.933333
0.854902 0.913725 0.933333
0.862745 0.913725 0.937255
0.874510 0.917647 0.933333
0.886275 0.921569 0.941176
0.890196 0.921569 0.933333
0.898039 0.917647 0.941176
0.894118 0.905882 0.941176
0.905882 0.890196 0.945098
0.854902 0.913725 0.933333
0.862745 0.913725 0.937255
0.866667 0.921569 0.933333
0.878431 0.921569 0.937255
0.890196 0.929412 0.937255
0.894118 0.925490 0.937255
0.901961 0.921569 0.937255
0.898039 0.909804 0.945098
0.898039 0.898039 0.937255
0.854902 0.913725 0.933333
0.854902 0.913725 0.933333
0.866667 0.921569 0.933333
0.878431 0.921569 0.937255
0.890196 0.929412 0.937255
0.894118 0.925490 0.937255
0.905882 0.925490 0.941176
0.901961 0.913725 0.941176
0.905882 0.898039 0.949020
0.862745 0.913725 0.937255
0.862745 0.917647 0.929412
0.866667 0.921569 0.933333
0.878431 0.921569 0.929412
0.886275 0.925490 0.933333
0.898039 0.929412 0.941176
0.909804 0.929412 0.941176
0.909804 0.921569 0.941176
0.913725 0.909804 0.941176
0.878431 0.921569 0.937255
0.878431 0.921569 0.937255
0.882353 0.925490 0.933333
0.882353 0.925490 0.933333
0.890196 0.929412 0.937255
0.901961 0.933333 0.941176
0.921569 0.937255 0.949020
0.929412 0.933333 0.949020
0.925490 0.921569 0.952941
0.886275 0.929412 0.937255
0.886275 0.929412 0.937255
0.886275 0.929412 0.937255
0.890196 0.929412 0.937255
0.894118 0.933333 0.937255
0.905882 0.925490 0.937255
0.921569 0.937255 0.941176
0.933333 0.937255 0.945098
0.937255 0.929412 0.949020
0.890196 0.937255 0.937255
0.890196 0.929412 0.937255
0.890196 0.933333 0.941176
0.894118 0.933333 0.937255
0.905882 0.937255 0.945098
0.913725 0.937255 0.937255
0.925490 0.941176 0.945098
0.941176 0.945098 0.952941
0.945098 0.945098 0.952941
0.898039 0.937255 0.933333
0.898039 0.929412 0.937255
0.901961 0.933333 0.941176
0.905882 0.937255 0.945098
0.913725 0.933333 0.945098
0.917647 0.941176 0.941176
0.929412 0.945098 0.949020
0.945098 0.952941 0.949020
0.949020 0.949020 0.949020
