assets/luts/cinematic-tones-luts-pack-for-video-and-photo-2023-11-27-05-35-37-utc/Cinematic Tones_LUTs/Cinematic Tones 01.cube
#Generated with IWLTBAP LUT Generator
#Website: http://luts.iwltbap.com
TITLE "Cinematic Tones 01"
#LUT size
LUT_3D_SIZE 25
#LUT data points
0.050980 0.058824 0.054902
0.054902 0.054902 0.054902
0.066667 0.062745 0.054902
0.082353 0.058824 0.058824
0.098039 0.066667 0.058824
0.121569 0.078431 0.062745
0.149020 0.082353 0.054902
0.176471 0.086275 0.062745
0.211765 0.094118 0.062745
0.254902 0.105882 0.062745
0.298039 0.117647 0.058824
0.333333 0.133333 0.058824
0.376471 0.149020 0.062745
0.423529 0.164706 0.062745
0.462745 0.184314 0.066667
0.498039 0.196078 0.078431
0.545098 0.215686 0.074510
0.576471 0.231373 0.090196
0.611765 0.250980 0.098039
0.647059 0.262745 0.109804
0.682353 0.282353 0.125490
0.713725 0.298039 0.141176
0.760784 0.321569 0.164706
0.792157 0.349020 0.176471
0.839216 0.372549 0.207843
0.062745 0.058824 0.043137
0.050980 0.070588 0.054902
0.070588 0.062745 0.066667
0.094118 0.074510 0.062745
0.101961 0.070588 0.062745
0.133333 0.078431 0.074510
0.156863 0.082353 0.054902
0.196078 0.090196 0.062745
0.227451 0.098039 0.062745
0.266667 0.117647 0.066667
0.298039 0.129412 0.062745
0.345098 0.137255 0.066667
0.380392 0.152941 0.066667
0.423529 0.172549 0.066667
0.458824 0.188235 0.066667
0.505882 0.207843 0.074510
0.533333 0.219608 0.082353
0.572549 0.239216 0.094118
0.615686 0.254902 0.101961
0.650980 0.274510 0.109804
0.686275 0.290196 0.125490
0.721569 0.305882 0.141176
0.752941 0.325490 0.156863
0.796078 0.356863 0.176471
0.839216 0.372549 0.215686
0.066667 0.066667 0.058824
0.066667 0.066667 0.058824
0.078431 0.074510 0.058824
0.098039 0.078431 0.066667
0.109804 0.082353 0.043137
0.141176 0.082353 0.054902
0.168627 0.094118 0.066667
0.200000 0.101961 0.074510
0.243137 0.117647 0.074510
0.274510 0.121569 0.062745
0.317647 0.141176 0.066667
0.356863 0.152941 0.058824
0.400000 0.164706 0.062745
0.431373 0.180392 0.070588
0.470588 0.192157 0.066667
0.505882 0.211765 0.086275
0.541176 0.227451 0.082353
0.576471 0.243137 0.090196
0.611765 0.262745 0.105882
0.650980 0.274510 0.117647
0.682353 0.294118 0.133333
0.713725 0.309804 0.149020
0.749020 0.333333 0.168627
0.800000 0.356863 0.192157
0.839216 0.376471 0.219608
0.078431 0.082353 0.058824
0.078431 0.082353 0.058824
0.090196 0.074510 0.062745
0.101961 0.090196 0.054902
0.121569 0.094118 0.062745
0.164706 0.101961 0.050980
0.184314 0.113725 0.058824
0.215686 0.125490 0.062745
0.254902 0.133333 0.062745
0.294118 0.145098 0.070588
0.333333 0.156863 0.074510
0.372549 0.168627 0.074510
0.403922 0.180392 0.066667
0.450980 0.196078 0.070588
0.486275 0.211765 0.078431
0.521569 0.223529 0.082353
0.552941 0.243137 0.090196
0.584314 0.250980 0.098039
0.619608 0.270588 0.113725
0.647059 0.282353 0.113725
0.686275 0.298039 0.133333
0.709804 0.313725 0.141176
0.749020 0.329412 0.149020
0.792157 0.356863 0.176471
0.819608 0.384314 0.203922
0.094118 0.094118 0.062745
0.094118 0.098039 0.074510
0.098039 0.098039 0.066667
0.113725 0.105882 0.058824
0.141176 0.109804 0.058824
0.168627 0.121569 0.066667
0.200000 0.133333 0.062745
0.231373 0.145098 0.062745
0.274510 0.156863 0.062745
0.321569 0.164706 0.062745
0.356863 0.172549 0.054902
0.388235 0.188235 0.066667
0.439216 0.203922 0.062745
0.466667 0.215686 0.066667
0.501961 0.231373 0.078431
0.529412 0.239216 0.086275
0.564706 0.254902 0.094118
0.592157 0.266667 0.101961
0.623529 0.274510 0.109804
0.654902 0.290196 0.121569
0.686275 0.305882 0.137255
0.709804 0.325490 0.149020
0.749020 0.337255 0.160784
0.780392 0.356863 0.176471
0.815686 0.372549 0.200000
0.121569 0.125490 0.070588
0.121569 0.125490 0.062745
0.137255 0.129412 0.070588
0.149020 0.137255 0.070588
0.164706 0.137255 0.062745
0.188235 0.149020 0.050980
0.227451 0.168627 0.054902
0.266667 0.184314 0.062745
0.309804 0.192157 0.058824
0.356863 0.207843 0.062745
0.403922 0.227451 0.066667
0.439216 0.239216 0.070588
0.470588 0.239216 0.066667
0.509804 0.258824 0.086275
0.552941 0.274510 0.094118
0.576471 0.274510 0.094118
0.607843 0.290196 0.121569
0.631373 0.301961 0.129412
0.662745 0.313725 0.141176
0.698039 0.325490 0.145098
0.725490 0.341176 0.156863
0.752941 0.360784 0.168627
0.796078 0.376471 0.196078
0.823529 0.400000 0.215686
0.866667 0.427451 0.247059
0.149020 0.156863 0.074510
0.164706 0.156863 0.074510
0.160784 0.172549 0.066667
0.164706 0.160784 0.050980
0.184314 0.168627 0.070588
0.203922 0.176471 0.062745
0.231373 0.192157 0.054902
0.274510 0.203922 0.047059
0.313725 0.215686 0.054902
0.364706 0.231373 0.054902
0.411765 0.247059 0.058824
0.466667 0.262745 0.074510
0.509804 0.270588 0.086275
0.533333 0.282353 0.094118
0.576471 0.298039 0.117647
0.603922 0.298039 0.117647
0.631373 0.313725 0.129412
0.662745 0.325490 0.133333
0.690196 0.337255 0.141176
0.709804 0.349020 0.156863
0.741176 0.364706 0.176471
0.772549 0.380392 0.188235
0.800000 0.400000 0.207843
0.839216 0.415686 0.235294
0.870588 0.447059 0.254902
0.180392 0.192157 0.086275
0.192157 0.196078 0.074510
0.180392 0.203922 0.054902
0.211765 0.200000 0.070588
0.219608 0.207843 0.070588
0.227451 0.203922 0.062745
0.258824 0.211765 0.047059
0.286275 0.231373 0.054902
0.333333 0.247059 0.050980
0.376471 0.258824 0.047059
0.419608 0.274510 0.058824
0.470588 0.294118 0.070588
0.525490 0.309804 0.090196
0.560784 0.321569 0.109804
0.603922 0.333333 0.109804
0.623529 0.345098 0.125490
0.647059 0.345098 0.133333
0.674510 0.356863 0.149020
0.701961 0.364706 0.164706
0.729412 0.376471 0.172549
0.756863 0.388235 0.184314
0.780392 0.403922 0.203922
0.823529 0.411765 0.223529
0.847059 0.435294 0.247059
0.882353 0.462745 0.258824
0.215686 0.239216 0.090196
0.227451 0.231373 0.066667
0.243137 0.235294 0.074510
0.231373 0.239216 0.054902
0.258824 0.250980 0.062745
0.262745 0.247059 0.062745
0.278431 0.254902 0.058824
0.301961 0.258824 0.047059
0.345098 0.270588 0.043137
0.388235 0.294118 0.043137
0.427451 0.305882 0.043137
0.474510 0.313725 0.054902
0.525490 0.329412 0.082353
0.576471 0.349020 0.101961
0.615686 0.364706 0.125490
0.647059 0.376471 0.145098
0.666667 0.384314 0.156863
0.694118 0.384314 0.160784
0.713725 0.392157 0.172549
0.737255 0.396078 0.184314
0.768627 0.411765 0.203922
0.796078 0.419608 0.231373
0.827451 0.435294 0.239216
0.862745 0.443137 0.262745
0.882353 0.474510 0.266667
0.270588 0.266667 0.086275
0.262745 0.282353 0.070588
0.266667 0.274510 0.078431
0.286275 0.278431 0.078431
0.290196 0.286275 0.074510
0.301961 0.290196 0.074510
0.317647 0.294118 0.058824
0.333333 0.294118 0.050980
0.360784 0.301961 0.047059
0.403922 0.313725 0.047059
0.447059 0.329412 0.047059
0.478431 0.345098 0.062745
0.529412 0.360784 0.090196
0.560784 0.368627 0.098039
0.603922 0.380392 0.117647
0.643137 0.392157 0.141176
0.678431 0.403922 0.168627
0.709804 0.411765 0.176471
0.733333 0.419608 0.188235
0.760784 0.427451 0.203922
0.780392 0.427451 0.223529
0.800000 0.443137 0.235294
0.827451 0.454902 0.243137
0.858824 0.466667 0.262745
0.882353 0.486275 0.282353
0.337255 0.345098 0.098039
0.325490 0.345098 0.094118
0.329412 0.349020 0.098039
0.345098 0.352941 0.105882
0.352941 0.352941 0.101961
0.356863 0.352941 0.090196
0.380392 0.352941 0.070588
0.396078 0.356863 0.074510
0.407843 0.364706 0.054902
0.431373 0.364706 0.050980
0.470588 0.372549 0.043137
0.513725 0.396078 0.058824
0.552941 0.403922 0.086275
0.592157 0.411765 0.105882
0.623529 0.419608 0.125490
0.666667 0.435294 0.160784
0.713725 0.450980 0.184314
0.741176 0.462745 0.211765
0.780392 0.470588 0.239216
0.803922 0.482353 0.254902
0.827451 0.490196 0.266667
0.850980 0.501961 0.282353
0.878431 0.509804 0.298039
0.909804 0.529412 0.329412
0.933333 0.549020 0.356863
0.368627 0.380392 0.109804
0.356863 0.384314 0.117647
0.372549 0.380392 0.121569
0.392157 0.392157 0.109804
0.380392 0.396078 0.105882
0.400000 0.384314 0.105882
0.407843 0.392157 0.101961
0.419608 0.396078 0.090196
0.439216 0.396078 0.082353
0.450980 0.392157 0.066667
0.462745 0.396078 0.050980
0.509804 0.411765 0.050980
0.549020 0.427451 0.070588
0.588235 0.431373 0.086275
0.627451 0.447059 0.113725
0.662745 0.454902 0.141176
0.694118 0.470588 0.168627
0.733333 0.482353 0.200000
0.772549 0.494118 0.235294
0.807843 0.509804 0.266667
0.843137 0.521569 0.294118
0.874510 0.533333 0.321569
0.901961 0.545098 0.337255
0.913725 0.556863 0.349020
0.949020 0.580392 0.380392
0.403922 0.419608 0.121569
0.396078 0.419608 0.129412
0.411765 0.419608 0.125490
0.415686 0.439216 0.149020
0.419608 0.423529 0.125490
0.427451 0.431373 0.125490
0.443137 0.431373 0.113725
0.450980 0.431373 0.109804
0.462745 0.431373 0.098039
0.474510 0.431373 0.082353
0.482353 0.423529 0.066667
0.505882 0.423529 0.058824
0.541176 0.439216 0.066667
0.580392 0.450980 0.078431
0.619608 0.462745 0.117647
0.654902 0.474510 0.137255
0.694118 0.486275 0.172549
0.729412 0.494118 0.207843
0.768627 0.505882 0.231373
0.800000 0.525490 0.254902
0.847059 0.541176 0.290196
0.878431 0.556863 0.329412
0.898039 0.572549 0.360784
0.941176 0.592157 0.372549
0.949020 0.603922 0.407843
0.427451 0.454902 0.149020
0.435294 0.462745 0.156863
0.439216 0.454902 0.152941
0.454902 0.458824 0.152941
0.450980 0.470588 0.156863
0.450980 0.462745 0.145098
0.462745 0.470588 0.141176
0.482353 0.466667 0.125490
0.486275 0.458824 0.113725
0.505882 0.462745 0.113725
0.513725 0.462745 0.101961
0.517647 0.454902 0.078431
0.533333 0.454902 0.066667
0.584314 0.474510 0.094118
0.615686 0.470588 0.113725
0.647059 0.486275 0.133333
0.686275 0.498039 0.164706
0.729412 0.513725 0.188235
0.756863 0.525490 0.219608
0.788235 0.537255 0.254902
0.827451 0.552941 0.282353
0.862745 0.568627 0.301961
0.894118 0.588235 0.345098
0.925490 0.607843 0.392157
0.964706 0.627451 0.435294
0.458824 0.486275 0.172549
0.474510 0.494118 0.172549
0.474510 0.494118 0.172549
0.482353 0.501961 0.180392
0.482353 0.501961 0.172549
0.490196 0.498039 0.168627
0.498039 0.498039 0.160784
0.509804 0.494118 0.152941
0.513725 0.494118 0.137255
0.521569 0.498039 0.129412
0.537255 0.498039 0.117647
0.545098 0.498039 0.113725
0.552941 0.482353 0.098039
0.576471 0.482353 0.090196
0.607843 0.494118 0.094118
0.650980 0.513725 0.121569
0.690196 0.521569 0.152941
0.721569 0.525490 0.176471
0.752941 0.537255 0.211765
0.780392 0.549020 0.235294
0.823529 0.564706 0.266667
0.847059 0.580392 0.294118
0.882353 0.596078 0.329412
0.921569 0.611765 0.380392
0.949020 0.631373 0.415686
0.529412 0.568627 0.231373
0.533333 0.572549 0.235294
0.541176 0.572549 0.235294
0.549020 0.572549 0.235294
0.545098 0.560784 0.227451
0.545098 0.560784 0.219608
0.560784 0.560784 0.215686
0.564706 0.556863 0.215686
0.572549 0.560784 0.196078
0.584314 0.549020 0.176471
0.588235 0.549020 0.168627
0.596078 0.549020 0.156863
0.603922 0.545098 0.149020
0.611765 0.537255 0.133333
0.627451 0.533333 0.117647
0.670588 0.549020 0.125490
0.709804 0.552941 0.176471
0.741176 0.568627 0.196078
0.776471 0.576471 0.227451
0.811765 0.592157 0.258824
0.839216 0.607843 0.294118
0.874510 0.623529 0.333333
0.909804 0.639216 0.376471
0.941176 0.662745 0.411765
0.972549 0.674510 0.470588
0.552941 0.576471 0.239216
0.552941 0.584314 0.250980
0.560784 0.584314 0.247059
0.564706 0.580392 0.250980
0.572549 0.588235 0.254902
0.560784 0.596078 0.239216
0.572549 0.584314 0.227451
0.588235 0.592157 0.227451
0.596078 0.580392 0.223529
0.600000 0.580392 0.211765
0.603922 0.580392 0.196078
0.615686 0.580392 0.184314
0.627451 0.576471 0.168627
0.639216 0.564706 0.160784
0.654902 0.556863 0.152941
0.666667 0.564706 0.129412
0.698039 0.576471 0.160784
0.737255 0.588235 0.200000
0.772549 0.600000 0.227451
0.803922 0.611765 0.247059
0.839216 0.627451 0.282353
0.874510 0.643137 0.329412
0.905882 0.654902 0.364706
0.941176 0.678431 0.403922
0.968627 0.694118 0.450980
0.580392 0.611765 0.274510
0.584314 0.615686 0.278431
0.603922 0.619608 0.286275
0.600000 0.615686 0.274510
0.603922 0.627451 0.274510
0.600000 0.623529 0.270588
0.607843 0.619608 0.270588
0.611765 0.611765 0.258824
0.619608 0.615686 0.254902
0.627451 0.615686 0.243137
0.627451 0.611765 0.231373
0.639216 0.607843 0.219608
0.654902 0.603922 0.196078
0.666667 0.600000 0.192157
0.670588 0.600000 0.176471
0.678431 0.592157 0.156863
0.698039 0.592157 0.149020
0.733333 0.600000 0.176471
0.768627 0.615686 0.203922
0.803922 0.635294 0.235294
0.843137 0.643137 0.282353
0.874510 0.654902 0.329412
0.905882 0.678431 0.356863
0.933333 0.686275 0.415686
0.960784 0.705882 0.447059
0.615686 0.647059 0.309804
0.611765 0.650980 0.309804
0.615686 0.654902 0.313725
0.631373 0.647059 0.305882
0.631373 0.654902 0.301961
0.635294 0.654902 0.294118
0.631373 0.650980 0.290196
0.643137 0.647059 0.282353
0.650980 0.647059 0.282353
0.658824 0.647059 0.274510
0.662745 0.647059 0.258824
0.674510 0.643137 0.247059
0.686275 0.639216 0.239216
0.686275 0.635294 0.223529
0.701961 0.631373 0.207843
0.709804 0.623529 0.184314
0.721569 0.623529 0.168627
0.741176 0.627451 0.168627
0.764706 0.635294 0.192157
0.800000 0.647059 0.235294
0.827451 0.654902 0.266667
0.878431 0.670588 0.301961
0.894118 0.682353 0.329412
0.937255 0.705882 0.400000
0.952941 0.717647 0.435294
0.647059 0.682353 0.333333
0.643137 0.682353 0.333333
0.650980 0.682353 0.345098
0.647059 0.686275 0.337255
0.662745 0.686275 0.341176
0.666667 0.686275 0.333333
0.670588 0.682353 0.325490
0.674510 0.690196 0.321569
0.682353 0.686275 0.317647
0.686275 0.686275 0.309804
0.694118 0.678431 0.298039
0.694118 0.674510 0.282353
0.705882 0.670588 0.266667
0.713725 0.670588 0.254902
0.721569 0.670588 0.231373
0.733333 0.662745 0.223529
0.733333 0.654902 0.203922
0.749020 0.650980 0.188235
0.776471 0.654902 0.196078
0.803922 0.666667 0.211765
0.839216 0.670588 0.262745
0.870588 0.682353 0.290196
0.898039 0.701961 0.329412
0.929412 0.717647 0.380392
0.956863 0.733333 0.415686
0.717647 0.749020 0.415686
0.721569 0.752941 0.415686
0.729412 0.752941 0.415686
0.725490 0.749020 0.403922
0.725490 0.749020 0.403922
0.729412 0.752941 0.407843
0.729412 0.749020 0.396078
0.729412 0.741176 0.384314
0.729412 0.749020 0.388235
0.741176 0.737255 0.372549
0.741176 0.741176 0.364706
0.749020 0.737255 0.356863
0.752941 0.729412 0.345098
0.764706 0.737255 0.329412
0.772549 0.729412 0.305882
0.788235 0.725490 0.290196
0.792157 0.725490 0.278431
0.800000 0.717647 0.258824
0.815686 0.713725 0.247059
0.835294 0.717647 0.247059
0.866667 0.725490 0.278431
0.898039 0.733333 0.333333
0.925490 0.741176 0.380392
0.952941 0.756863 0.415686
0.972549 0.768627 0.470588
0.729412 0.768627 0.431373
0.729412 0.768627 0.427451
0.737255 0.776471 0.435294
0.737255 0.776471 0.439216
0.752941 0.776471 0.439216
0.749020 0.772549 0.435294
0.764706 0.776471 0.435294
0.752941 0.776471 0.423529
0.760784 0.772549 0.415686
0.772549 0.776471 0.411765
0.776471 0.772549 0.407843
0.780392 0.768627 0.396078
0.784314 0.768627 0.388235
0.792157 0.772549 0.380392
0.807843 0.772549 0.368627
0.823529 0.768627 0.349020
0.835294 0.764706 0.341176
0.843137 0.756863 0.317647
0.850980 0.752941 0.290196
0.870588 0.756863 0.286275
0.890196 0.760784 0.305882
0.913725 0.768627 0.352941
0.945098 0.780392 0.396078
0.956863 0.776471 0.443137
0.976471 0.796078 0.490196
0.768627 0.807843 0.470588
0.772549 0.811765 0.474510
0.760784 0.807843 0.478431
0.780392 0.811765 0.478431
0.772549 0.803922 0.466667
0.788235 0.807843 0.478431
0.784314 0.815686 0.478431
0.792157 0.815686 0.470588
0.792157 0.811765 0.458824
0.796078 0.807843 0.450980
0.803922 0.807843 0.443137
0.811765 0.807843 0.443137
0.819608 0.807843 0.427451
0.827451 0.803922 0.419608
0.831373 0.800000 0.411765
0.850980 0.807843 0.396078
0.858824 0.803922 0.384314
0.874510 0.800000 0.388235
0.882353 0.796078 0.368627
0.894118 0.792157 0.349020
0.913725 0.800000 0.341176
0.929412 0.803922 0.360784
0.949020 0.800000 0.411765
0.972549 0.811765 0.458824
0.980392 0.819608 0.505882
0.800000 0.835294 0.525490
0.800000 0.827451 0.521569
0.811765 0.839216 0.533333
0.800000 0.847059 0.525490
0.807843 0.843137 0.525490
0.811765 0.839216 0.525490
0.811765 0.839216 0.525490
0.819608 0.839216 0.517647
0.827451 0.839216 0.521569
0.823529 0.843137 0.513725
0.827451 0.843137 0.501961
0.835294 0.847059 0.498039
0.850980 0.847059 0.494118
0.847059 0.843137 0.482353
0.866667 0.843137 0.474510
0.874510 0.843137 0.458824
0.890196 0.843137 0.458824
0.898039 0.839216 0.443137
0.913725 0.839216 0.435294
0.925490 0.835294 0.419608
0.933333 0.831373 0.400000
0.945098 0.835294 0.407843
0.964706 0.835294 0.454902
0.976471 0.835294 0.505882
0.984314 0.843137 0.537255
0.843137 0.866667 0.584314
0.839216 0.870588 0.576471
0.839216 0.870588 0.584314
0.835294 0.874510 0.596078
0.843137 0.870588 0.596078
0.843137 0.870588 0.596078
0.847059 0.870588 0.588235
0.847059 0.870588 0.588235
0.847059 0.870588 0.588235
0.858824 0.874510 0.584314
0.866667 0.874510 0.580392
0.870588 0.874510 0.576471
0.870588 0.874510 0.568627
0.882353 0.878431 0.564706
0.894118 0.874510 0.552941
0.901961 0.874510 0.556863
0.913725 0.882353 0.556863
0.925490 0.878431 0.541176
0.941176 0.870588 0.533333
0.956863 0.870588 0.533333
0.956863 0.874510 0.525490
0.972549 0.874510 0.545098
0.980392 0.874510 0.572549
0.988235 0.874510 0.615686
1.000000 0.882353 0.647059
0.058824 0.058824 0.066667
0.062745 0.062745 0.070588
0.070588 0.062745 0.074510
0.078431 0.062745 0.066667
0.098039 0.062745 0.066667
0.121569 0.074510 0.074510
0.160784 0.086275 0.070588
0.188235 0.094118 0.078431
0.215686 0.101961 0.070588
0.258824 0.117647 0.070588
0.301961 0.133333 0.070588
0.345098 0.145098 0.070588
0.384314 0.156863 0.078431
0.423529 0.168627 0.082353
0.458824 0.184314 0.086275
0.501961 0.196078 0.105882
0.545098 0.219608 0.101961
0.568627 0.231373 0.101961
0.611765 0.247059 0.113725
0.647059 0.266667 0.129412
0.674510 0.282353 0.141176
0.705882 0.298039 0.152941
0.745098 0.321569 0.168627
0.788235 0.352941 0.184314
0.835294 0.376471 0.207843
0.050980 0.066667 0.070588
0.066667 0.066667 0.066667
0.082353 0.066667 0.054902
0.086275 0.070588 0.058824
0.105882 0.074510 0.066667
0.133333 0.078431 0.066667
0.160784 0.090196 0.082353
0.200000 0.101961 0.082353
0.227451 0.109804 0.078431
0.270588 0.121569 0.078431
0.301961 0.133333 0.070588
0.352941 0.145098 0.082353
0.388235 0.160784 0.082353
0.427451 0.176471 0.078431
0.466667 0.192157 0.090196
0.509804 0.207843 0.090196
0.541176 0.223529 0.105882
0.576471 0.235294 0.117647
0.607843 0.254902 0.121569
0.639216 0.270588 0.129412
0.678431 0.290196 0.137255
0.713725 0.309804 0.149020
0.752941 0.329412 0.176471
0.792157 0.349020 0.192157
0.839216 0.372549 0.215686
0.062745 0.078431 0.074510
0.070588 0.070588 0.062745
0.086275 0.082353 0.074510
0.101961 0.078431 0.078431
0.121569 0.082353 0.078431
0.152941 0.094118 0.074510
0.176471 0.094118 0.074510
0.203922 0.105882 0.078431
0.247059 0.117647 0.082353
0.286275 0.129412 0.082353
0.321569 0.141176 0.078431
0.356863 0.156863 0.074510
0.400000 0.172549 0.086275
0.435294 0.192157 0.094118
0.478431 0.200000 0.090196
0.509804 0.215686 0.090196
0.545098 0.231373 0.086275
0.576471 0.247059 0.105882
0.607843 0.262745 0.121569
0.647059 0.278431 0.129412
0.678431 0.294118 0.141176
0.709804 0.309804 0.152941
0.752941 0.333333 0.168627
0.788235 0.349020 0.192157
0.831373 0.380392 0.207843
0.078431 0.086275 0.066667
0.086275 0.090196 0.070588
0.090196 0.094118 0.062745
0.105882 0.094118 0.058824
0.141176 0.098039 0.074510
0.156863 0.105882 0.070588
0.184314 0.121569 0.070588
0.219608 0.129412 0.074510
0.262745 0.133333 0.074510
0.298039 0.145098 0.078431
0.337255 0.160784 0.078431
0.376471 0.172549 0.078431
0.407843 0.184314 0.078431
0.454902 0.200000 0.082353
0.490196 0.211765 0.094118
0.521569 0.227451 0.101961
0.552941 0.247059 0.105882
0.580392 0.250980 0.109804
0.611765 0.266667 0.125490
0.643137 0.282353 0.129412
0.678431 0.298039 0.133333
0.713725 0.317647 0.152941
0.741176 0.325490 0.168627
0.784314 0.356863 0.188235
0.827451 0.384314 0.211765
0.086275 0.098039 0.070588
0.101961 0.105882 0.074510
0.109804 0.109804 0.062745
0.121569 0.113725 0.066667
0.145098 0.121569 0.066667
0.172549 0.125490 0.070588
0.207843 0.141176 0.078431
0.247059 0.145098 0.078431
0.286275 0.160784 0.078431
0.329412 0.168627 0.082353
0.360784 0.180392 0.078431
0.392157 0.192157 0.086275
0.443137 0.203922 0.090196
0.470588 0.215686 0.090196
0.505882 0.231373 0.098039
0.537255 0.239216 0.105882
0.564706 0.250980 0.105882
0.592157 0.270588 0.113725
0.615686 0.282353 0.121569
0.639216 0.290196 0.133333
0.678431 0.301961 0.145098
0.705882 0.317647 0.152941
0.737255 0.333333 0.164706
0.772549 0.352941 0.180392
0.800000 0.372549 0.203922
0.125490 0.133333 0.078431
0.129412 0.137255 0.082353
0.137255 0.141176 0.078431
0.149020 0.145098 0.074510
0.168627 0.149020 0.070588
0.200000 0.156863 0.070588
0.235294 0.172549 0.070588
0.270588 0.188235 0.074510
0.325490 0.192157 0.082353
0.364706 0.211765 0.090196
0.400000 0.219608 0.086275
0.435294 0.231373 0.086275
0.474510 0.239216 0.094118
0.505882 0.258824 0.098039
0.537255 0.274510 0.105882
0.572549 0.286275 0.117647
0.600000 0.290196 0.129412
0.627451 0.301961 0.137255
0.662745 0.313725 0.149020
0.690196 0.325490 0.152941
0.717647 0.337255 0.168627
0.752941 0.356863 0.184314
0.784314 0.372549 0.196078
0.819608 0.392157 0.223529
0.866667 0.415686 0.243137
0.160784 0.156863 0.086275
0.156863 0.164706 0.070588
0.168627 0.176471 0.090196
0.184314 0.164706 0.078431
0.180392 0.180392 0.078431
0.211765 0.192157 0.074510
0.235294 0.196078 0.058824
0.278431 0.215686 0.074510
0.321569 0.219608 0.074510
0.368627 0.239216 0.078431
0.415686 0.247059 0.078431
0.470588 0.262745 0.090196
0.513725 0.274510 0.101961
0.537255 0.286275 0.113725
0.576471 0.298039 0.125490
0.592157 0.305882 0.129412
0.623529 0.321569 0.141176
0.650980 0.329412 0.145098
0.678431 0.341176 0.156863
0.701961 0.345098 0.168627
0.733333 0.360784 0.180392
0.768627 0.372549 0.200000
0.796078 0.392157 0.215686
0.835294 0.411765 0.231373
0.878431 0.439216 0.258824
0.176471 0.196078 0.070588
0.200000 0.203922 0.082353
0.200000 0.196078 0.074510
0.215686 0.203922 0.082353
0.219608 0.219608 0.086275
0.231373 0.223529 0.074510
0.254902 0.219608 0.066667
0.294118 0.235294 0.066667
0.337255 0.250980 0.066667
0.384314 0.266667 0.070588
0.423529 0.278431 0.074510
0.478431 0.294118 0.090196
0.529412 0.309804 0.109804
0.568627 0.325490 0.133333
0.592157 0.333333 0.137255
0.611765 0.337255 0.137255
0.639216 0.341176 0.149020
0.674510 0.352941 0.164706
0.698039 0.360784 0.176471
0.725490 0.364706 0.180392
0.752941 0.376471 0.188235
0.788235 0.396078 0.203922
0.807843 0.415686 0.219608
0.831373 0.431373 0.243137
0.878431 0.450980 0.282353
0.211765 0.243137 0.090196
0.247059 0.239216 0.086275
0.227451 0.247059 0.086275
0.243137 0.243137 0.094118
0.262745 0.250980 0.090196
0.278431 0.250980 0.070588
0.290196 0.258824 0.074510
0.309804 0.262745 0.066667
0.352941 0.278431 0.058824
0.392157 0.298039 0.062745
0.431373 0.305882 0.066667
0.478431 0.321569 0.090196
0.529412 0.337255 0.109804
0.568627 0.345098 0.129412
0.603922 0.356863 0.145098
0.643137 0.372549 0.156863
0.662745 0.376471 0.168627
0.682353 0.380392 0.176471
0.705882 0.388235 0.180392
0.729412 0.396078 0.184314
0.756863 0.403922 0.200000
0.788235 0.411765 0.223529
0.807843 0.427451 0.227451
0.850980 0.450980 0.262745
0.882353 0.462745 0.290196
0.270588 0.282353 0.098039
0.274510 0.282353 0.098039
0.274510 0.282353 0.098039
0.278431 0.290196 0.082353
0.294118 0.294118 0.090196
0.301961 0.298039 0.086275
0.317647 0.298039 0.078431
0.333333 0.298039 0.066667
0.356863 0.301961 0.054902
0.392157 0.317647 0.058824
0.443137 0.337255 0.066667
0.482353 0.352941 0.082353
0.521569 0.360784 0.101961
0.556863 0.368627 0.109804
0.600000 0.384314 0.133333
0.639216 0.396078 0.156863
0.674510 0.403922 0.180392
0.694118 0.411765 0.184314
0.721569 0.419608 0.200000
0.741176 0.423529 0.207843
0.768627 0.427451 0.215686
0.792157 0.443137 0.223529
0.819608 0.450980 0.239216
0.850980 0.470588 0.270588
0.878431 0.486275 0.290196
0.333333 0.349020 0.117647
0.333333 0.349020 0.117647
0.337255 0.352941 0.113725
0.349020 0.356863 0.109804
0.349020 0.356863 0.101961
0.360784 0.356863 0.101961
0.376471 0.356863 0.098039
0.396078 0.360784 0.090196
