assets/luts/cinematic-tones-luts-pack-for-video-and-photo-2023-11-27-05-35-37-utc/Cinematic Tones_LUTs/Cinematic Tones 01.cube
#Generated with IWLTBAP LUT Generator
#Website: http://luts.iwltbap.com
TITLE "Cinematic Tones 01"
#LUT size
LUT_3D_SIZE 5
#LUT data points
0.050980 0.058824 0.054902
0.149020 0.082353 0.054902
0.376471 0.149020 0.062745
0.611765 0.250980 0.098039
0.839216 0.372549 0.207843
0.149020 0.156863 0.074510
0.231373 0.192157 0.054902
0.509804 0.270588 0.086275
0.690196 0.337255 0.141176
0.870588 0.447059 0.254902
0.403922 0.419608 0.121569
0.443137 0.431373 0.113725
0.541176 0.439216 0.066667
0.768627 0.505882 0.231373
0.949020 0.603922 0.407843
0.615686 0.647059 0.309804
0.631373 0.650980 0.290196
0.686275 0.639216 0.239216
0.764706 0.635294 0.192157
0.952941 0.717647 0.435294
0.843137 0.866667 0.584314
0.847059 0.870588 0.588235
0.870588 0.874510 0.568627
0.941176 0.870588 0.533333
1.000000 0.882353 0.647059
0.007843 0.109804 0.207843
0.235294 0.113725 0.239216
0.411765 0.176471 0.207843
0.584314 0.278431 0.231373
0.807843 0.380392 0.290196
0.062745 0.262745 0.243137
0.298039 0.266667 0.254902
0.498039 0.317647 0.266667
0.647059 0.352941 0.262745
0.839216 0.443137 0.333333
0.423529 0.466667 0.301961
0.466667 0.470588 0.298039
0.568627 0.470588 0.250980
0.760784 0.537255 0.368627
0.929412 0.603922 0.447059
0.611765 0.654902 0.396078
0.635294 0.662745 0.396078
0.674510 0.647059 0.333333
0.760784 0.635294 0.294118
0.949020 0.729412 0.490196
0.827451 0.862745 0.600000
0.839216 0.866667 0.603922
0.858824 0.874510 0.584314
0.929412 0.870588 0.537255
0.992157 0.878431 0.650980
0.000000 0.301961 0.525490
0.270588 0.305882 0.537255
0.533333 0.325490 0.545098
0.737255 0.396078 0.529412
0.752941 0.356863 0.388235
0.239216 0.396078 0.537255
0.352941 0.407843 0.545098
0.560784 0.415686 0.549020
0.694118 0.427451 0.486275
0.764706 0.419608 0.415686
0.282353 0.592157 0.568627
0.431373 0.596078 0.556863
0.619608 0.592157 0.568627
0.725490 0.592157 0.552941
0.886275 0.603922 0.545098
0.639216 0.733333 0.592157
0.690196 0.733333 0.615686
0.717647 0.717647 0.568627
0.788235 0.694118 0.513725
0.949020 0.772549 0.650980
0.819608 0.878431 0.709804
0.835294 0.878431 0.721569
0.854902 0.878431 0.690196
0.925490 0.886275 0.647059
0.972549 0.878431 0.690196
0.345098 0.517647 0.764706
0.415686 0.513725 0.764706
0.560784 0.529412 0.752941
0.721569 0.521569 0.741176
0.921569 0.627451 0.788235
0.407843 0.552941 0.756863
0.462745 0.568627 0.752941
0.584314 0.572549 0.756863
0.741176 0.560784 0.745098
0.917647 0.662745 0.780392
0.486275 0.647059 0.756863
0.545098 0.666667 0.776471
0.643137 0.666667 0.760784
0.768627 0.658824 0.756863
0.917647 0.686275 0.756863
0.509804 0.803922 0.784314
0.564706 0.803922 0.776471
0.674510 0.803922 0.776471
0.811765 0.792157 0.776471
0.921569 0.792157 0.772549
0.784314 0.913725 0.807843
0.815686 0.905882 0.827451
0.854902 0.898039 0.831373
0.901961 0.894118 0.811765
0.956863 0.894118 0.792157
0.709804 0.772549 0.905882
0.729412 0.780392 0.913725
0.772549 0.792157 0.909804
0.823529 0.800000 0.909804
0.901961 0.800000 0.913725
0.717647 0.780392 0.909804
0.733333 0.792157 0.905882
0.784314 0.807843 0.909804
0.835294 0.811765 0.913725
0.905882 0.811765 0.913725
0.737255 0.815686 0.909804
0.760784 0.823529 0.913725
0.803922 0.835294 0.909804
0.850980 0.839216 0.913725
0.909804 0.835294 0.909804
0.776471 0.866667 0.921569
0.792157 0.866667 0.921569
0.815686 0.870588 0.913725
0.866667 0.874510 0.921569
0.921569 0.882353 0.913725
0.823529 0.925490 0.921569
0.835294 0.921569 0.913725
0.858824 0.921569 0.917647
0.898039 0.921569 0.921569
0.917647 0.917647 0.917647
