assets/luts/cinematic-tones-luts-pack-for-video-and-photo-2023-11-27-05-35-37-utc/Cinematic Tones_LUTs/Cinematic Tones 01.cube
#Generated with IWLTBAP LUT Generator
#Website: http://luts.iwltbap.com
TITLE "Cinematic Tones 01"
#LUT size
LUT_3D_SIZE 9
#LUT data points
0.050980 0.058824 0.054902
0.082353 0.058824 0.058824
0.149020 0.082353 0.054902
0.254902 0.105882 0.062745
0.376471 0.149020 0.062745
0.498039 0.196078 0.078431
0.611765 0.250980 0.098039
0.713725 0.298039 0.141176
0.839216 0.372549 0.207843
0.078431 0.082353 0.058824
0.101961 0.090196 0.054902
0.184314 0.113725 0.058824
0.294118 0.145098 0.070588
0.403922 0.180392 0.066667
0.521569 0.223529 0.082353
0.619608 0.270588 0.113725
0.709804 0.313725 0.141176
0.819608 0.384314 0.203922
0.149020 0.156863 0.074510
0.164706 0.160784 0.050980
0.231373 0.192157 0.054902
0.364706 0.231373 0.054902
0.509804 0.270588 0.086275
0.603922 0.298039 0.117647
0.690196 0.337255 0.141176
0.772549 0.380392 0.188235
0.870588 0.447059 0.254902
0.270588 0.266667 0.086275
0.286275 0.278431 0.078431
0.317647 0.294118 0.058824
0.403922 0.313725 0.047059
0.529412 0.360784 0.090196
0.643137 0.392157 0.141176
0.733333 0.419608 0.188235
0.800000 0.443137 0.235294
0.882353 0.486275 0.282353
0.403922 0.419608 0.121569
0.415686 0.439216 0.149020
0.443137 0.431373 0.113725
0.474510 0.431373 0.082353
0.541176 0.439216 0.066667
0.654902 0.474510 0.137255
0.768627 0.505882 0.231373
0.878431 0.556863 0.329412
0.949020 0.603922 0.407843
0.529412 0.568627 0.231373
0.549020 0.572549 0.235294
0.560784 0.560784 0.215686
0.584314 0.549020 0.176471
0.603922 0.545098 0.149020
0.670588 0.549020 0.125490
0.776471 0.576471 0.227451
0.874510 0.623529 0.333333
0.972549 0.674510 0.470588
0.615686 0.647059 0.309804
0.631373 0.647059 0.305882
0.631373 0.650980 0.290196
0.658824 0.647059 0.274510
0.686275 0.639216 0.239216
0.709804 0.623529 0.184314
0.764706 0.635294 0.192157
0.878431 0.670588 0.301961
0.952941 0.717647 0.435294
0.729412 0.768627 0.431373
0.737255 0.776471 0.439216
0.764706 0.776471 0.435294
0.772549 0.776471 0.411765
0.784314 0.768627 0.388235
0.823529 0.768627 0.349020
0.850980 0.752941 0.290196
0.913725 0.768627 0.352941
0.976471 0.796078 0.490196
0.843137 0.866667 0.584314
0.835294 0.874510 0.596078
0.847059 0.870588 0.588235
0.858824 0.874510 0.584314
0.870588 0.874510 0.568627
0.901961 0.874510 0.556863
0.941176 0.870588 0.533333
0.972549 0.874510 0.545098
1.000000 0.882353 0.647059
0.058824 0.070588 0.090196
0.098039 0.070588 0.101961
0.172549 0.086275 0.098039
0.266667 0.129412 0.113725
0.392157 0.164706 0.117647
0.505882 0.207843 0.145098
0.600000 0.258824 0.149020
0.698039 0.305882 0.180392
0.811765 0.372549 0.227451
0.070588 0.101961 0.109804
0.129412 0.113725 0.117647
0.192157 0.133333 0.113725
0.305882 0.160784 0.125490
0.411765 0.192157 0.125490
0.513725 0.239216 0.141176
0.596078 0.266667 0.156863
0.690196 0.305882 0.168627
0.803922 0.360784 0.227451
0.168627 0.184314 0.117647
0.196078 0.203922 0.121569
0.254902 0.207843 0.113725
0.384314 0.250980 0.141176
0.505882 0.286275 0.156863
0.580392 0.313725 0.168627
0.666667 0.337255 0.192157
0.752941 0.376471 0.219608
0.850980 0.427451 0.274510
0.270588 0.290196 0.133333
0.290196 0.298039 0.141176
0.333333 0.305882 0.125490
0.400000 0.325490 0.105882
0.525490 0.356863 0.149020
0.635294 0.392157 0.207843
0.709804 0.411765 0.219608
0.772549 0.435294 0.243137
0.854902 0.470588 0.286275
0.400000 0.423529 0.180392
0.415686 0.435294 0.184314
0.447059 0.435294 0.172549
0.486275 0.439216 0.149020
0.549020 0.443137 0.133333
0.654902 0.470588 0.188235
0.752941 0.513725 0.266667
0.858824 0.556863 0.352941
0.941176 0.596078 0.400000
0.525490 0.556863 0.262745
0.533333 0.560784 0.258824
0.552941 0.556863 0.243137
0.568627 0.549020 0.219608
0.596078 0.545098 0.184314
0.670588 0.541176 0.176471
0.764706 0.576471 0.247059
0.866667 0.619608 0.356863
0.960784 0.678431 0.482353
0.600000 0.635294 0.325490
0.611765 0.647059 0.329412
0.623529 0.643137 0.313725
0.643137 0.639216 0.286275
0.674510 0.635294 0.262745
0.698039 0.623529 0.219608
0.756863 0.627451 0.215686
0.847059 0.650980 0.301961
0.949020 0.713725 0.431373
0.725490 0.772549 0.443137
0.745098 0.776471 0.443137
0.752941 0.768627 0.439216
0.760784 0.772549 0.423529
0.780392 0.768627 0.396078
0.811765 0.768627 0.356863
0.843137 0.752941 0.313725
0.909804 0.756863 0.352941
0.976471 0.796078 0.494118
0.831373 0.862745 0.576471
0.831373 0.858824 0.584314
0.839216 0.862745 0.572549
0.854902 0.870588 0.572549
0.874510 0.866667 0.564706
0.901961 0.870588 0.545098
0.937255 0.874510 0.529412
0.968627 0.874510 0.537255
1.000000 0.874510 0.643137
0.007843 0.109804 0.207843
0.094118 0.109804 0.223529
0.235294 0.113725 0.239216
0.372549 0.137255 0.247059
0.411765 0.176471 0.207843
0.490196 0.235294 0.227451
0.584314 0.278431 0.231373
0.686275 0.321569 0.254902
0.807843 0.380392 0.290196
0.066667 0.156863 0.211765
0.133333 0.156863 0.219608
0.239216 0.164706 0.239216
0.349020 0.184314 0.223529
0.411765 0.223529 0.223529
0.505882 0.258824 0.231373
0.596078 0.290196 0.239216
0.682353 0.325490 0.250980
0.807843 0.384314 0.282353
0.062745 0.262745 0.243137
0.145098 0.266667 0.247059
0.298039 0.266667 0.254902
0.396078 0.290196 0.262745
0.498039 0.317647 0.266667
0.576471 0.337255 0.266667
0.647059 0.352941 0.262745
0.745098 0.392157 0.290196
0.839216 0.443137 0.333333
0.313725 0.352941 0.254902
0.325490 0.356863 0.266667
0.360784 0.360784 0.250980
0.435294 0.360784 0.235294
0.541176 0.396078 0.282353
0.635294 0.415686 0.309804
0.701961 0.431373 0.309804
0.764706 0.450980 0.321569
0.854902 0.486275 0.345098
0.423529 0.466667 0.301961
0.447059 0.466667 0.309804
0.466667 0.470588 0.298039
0.498039 0.470588 0.258824
0.568627 0.470588 0.250980
0.662745 0.498039 0.301961
0.760784 0.537255 0.368627
0.858824 0.576471 0.419608
0.929412 0.603922 0.447059
0.545098 0.588235 0.368627
0.549020 0.584314 0.360784
0.564706 0.580392 0.349020
0.588235 0.572549 0.325490
0.619608 0.560784 0.290196
0.670588 0.560784 0.274510
0.768627 0.592157 0.329412
0.874510 0.639216 0.427451
0.956863 0.686275 0.521569
0.611765 0.654902 0.396078
0.619608 0.662745 0.396078
0.635294 0.662745 0.396078
0.650980 0.658824 0.372549
0.674510 0.647059 0.333333
0.698039 0.627451 0.290196
0.760784 0.635294 0.294118
0.858824 0.670588 0.380392
0.949020 0.729412 0.490196
0.729412 0.768627 0.490196
0.733333 0.780392 0.490196
0.749020 0.776471 0.474510
0.764706 0.776471 0.474510
0.784314 0.776471 0.450980
0.800000 0.764706 0.400000
0.835294 0.749020 0.349020
0.905882 0.764706 0.388235
0.964706 0.792157 0.537255
0.827451 0.862745 0.600000
0.823529 0.866667 0.600000
0.839216 0.866667 0.603922
0.850980 0.874510 0.600000
0.858824 0.874510 0.584314
0.898039 0.874510 0.576471
0.929412 0.870588 0.537255
0.968627 0.874510 0.537255
0.992157 0.878431 0.650980
0.000000 0.188235 0.380392
0.054902 0.184314 0.384314
0.250980 0.196078 0.388235
0.388235 0.207843 0.392157
0.552941 0.250980 0.431373
0.600000 0.262745 0.368627
0.580392 0.286275 0.305882
0.650980 0.325490 0.301961
0.776471 0.372549 0.337255
0.062745 0.235294 0.372549
0.137255 0.239216 0.384314
0.262745 0.247059 0.392157
0.396078 0.247059 0.400000
0.549020 0.274510 0.419608
0.568627 0.278431 0.345098
0.560784 0.301961 0.309804
0.650980 0.341176 0.313725
0.772549 0.388235 0.337255
0.133333 0.321569 0.411765
0.207843 0.333333 0.415686
0.317647 0.345098 0.419608
0.443137 0.345098 0.419608
0.525490 0.352941 0.403922
0.537255 0.360784 0.349020
0.627451 0.380392 0.360784
0.709804 0.403922 0.356863
0.819608 0.447059 0.376471
0.121569 0.439216 0.415686
0.215686 0.439216 0.415686
0.329412 0.447059 0.415686
0.474510 0.435294 0.427451
0.545098 0.454902 0.431373
0.607843 0.450980 0.419608
0.662745 0.454902 0.392157
0.737255 0.466667 0.403922
0.831373 0.490196 0.411765
0.411765 0.541176 0.419608
0.458824 0.537255 0.439216
0.505882 0.537255 0.454902
0.529412 0.529412 0.427451
0.596078 0.521569 0.403922
0.678431 0.552941 0.454902
0.772549 0.584314 0.494118
0.831373 0.588235 0.498039
0.905882 0.615686 0.509804
0.576471 0.631373 0.501961
0.580392 0.623529 0.490196
0.596078 0.623529 0.490196
0.607843 0.607843 0.458824
0.635294 0.603922 0.423529
0.694118 0.603922 0.407843
0.780392 0.631373 0.454902
0.874510 0.670588 0.525490
0.952941 0.713725 0.592157
0.643137 0.690196 0.501961
0.635294 0.698039 0.521569
0.658824 0.690196 0.498039
0.666667 0.682353 0.482353
0.694118 0.674510 0.447059
0.713725 0.662745 0.396078
0.776471 0.662745 0.396078
0.870588 0.686275 0.466667
0.952941 0.749020 0.564706
0.733333 0.792157 0.560784
0.749020 0.792157 0.564706
0.752941 0.792157 0.556863
0.768627 0.792157 0.549020
0.784314 0.788235 0.521569
0.815686 0.780392 0.486275
0.843137 0.760784 0.435294
0.913725 0.776471 0.454902
0.960784 0.811765 0.568627
0.831373 0.870588 0.662745
0.835294 0.878431 0.658824
0.839216 0.874510 0.658824
0.843137 0.882353 0.647059
0.866667 0.874510 0.627451
0.890196 0.870588 0.611765
0.929412 0.882353 0.584314
0.964706 0.882353 0.572549
0.996078 0.878431 0.666667
0.000000 0.301961 0.525490
0.113725 0.294118 0.529412
0.270588 0.305882 0.537255
0.400000 0.317647 0.541176
0.533333 0.325490 0.545098
0.650980 0.360784 0.552941
0.737255 0.396078 0.529412
0.745098 0.364706 0.443137
0.752941 0.356863 0.388235
0.121569 0.325490 0.513725
0.192157 0.321569 0.533333
0.286275 0.341176 0.533333
0.407843 0.337255 0.533333
0.529412 0.341176 0.529412
0.643137 0.372549 0.545098
0.713725 0.388235 0.505882
0.717647 0.356863 0.415686
0.705882 0.368627 0.372549
0.239216 0.396078 0.537255
0.282353 0.411765 0.549020
0.352941 0.407843 0.545098
0.443137 0.415686 0.545098
0.560784 0.415686 0.549020
0.678431 0.447059 0.564706
0.694118 0.427451 0.486275
0.690196 0.396078 0.415686
0.764706 0.419608 0.415686
0.262745 0.482353 0.549020
0.313725 0.478431 0.564706
0.403922 0.490196 0.545098
0.486275 0.494118 0.552941
0.580392 0.494118 0.545098
0.623529 0.478431 0.509804
0.619608 0.454902 0.458824
0.690196 0.458824 0.443137
0.784314 0.466667 0.450980
0.282353 0.592157 0.568627
0.352941 0.592157 0.564706
0.431373 0.596078 0.556863
0.529412 0.588235 0.560784
0.619608 0.592157 0.568627
0.674510 0.596078 0.568627
0.725490 0.592157 0.552941
0.811765 0.584314 0.537255
0.886275 0.603922 0.545098
0.513725 0.686275 0.556863
0.552941 0.682353 0.568627
0.600000 0.674510 0.588235
0.643137 0.658824 0.592157
0.670588 0.650980 0.572549
0.713725 0.650980 0.552941
0.800000 0.674510 0.592157
0.870588 0.709804 0.631373
0.941176 0.725490 0.647059
0.639216 0.733333 0.592157
0.670588 0.737255 0.603922
0.690196 0.733333 0.615686
0.698039 0.725490 0.603922
0.717647 0.717647 0.568627
0.733333 0.701961 0.521569
0.788235 0.694118 0.513725
0.878431 0.725490 0.564706
0.949020 0.772549 0.650980
0.749020 0.807843 0.647059
0.764706 0.800000 0.678431
0.756863 0.815686 0.662745
0.776471 0.811765 0.643137
0.792157 0.800000 0.615686
0.815686 0.796078 0.580392
0.843137 0.784314 0.529412
0.905882 0.788235 0.537255
0.952941 0.827451 0.635294
0.819608 0.878431 0.709804
0.843137 0.874510 0.721569
0.835294 0.878431 0.721569
0.847059 0.882353 0.713725
0.854902 0.878431 0.690196
0.886275 0.878431 0.678431
0.925490 0.886275 0.647059
0.956863 0.886275 0.627451
0.972549 0.878431 0.690196
0.200000 0.400000 0.654902
0.239216 0.400000 0.650980
0.325490 0.407843 0.654902
0.419608 0.415686 0.643137
0.529412 0.419608 0.647059
0.631373 0.415686 0.639216
0.741176 0.458824 0.654902
0.850980 0.509804 0.674510
0.890196 0.501961 0.611765
0.211765 0.411765 0.635294
0.254902 0.407843 0.623529
0.325490 0.415686 0.627451
0.419608 0.423529 0.635294
0.517647 0.423529 0.627451
0.623529 0.427451 0.635294
0.729412 0.458824 0.643137
0.839216 0.498039 0.662745
0.866667 0.490196 0.600000
0.313725 0.474510 0.654902
0.341176 0.478431 0.635294
0.388235 0.474510 0.658824
0.462745 0.482353 0.647059
0.552941 0.482353 0.647059
0.643137 0.482353 0.639216
0.749020 0.513725 0.654902
0.839216 0.549020 0.654902
0.866667 0.505882 0.588235
0.352941 0.513725 0.639216
0.388235 0.525490 0.643137
0.431373 0.533333 0.639216
0.498039 0.533333 0.647059
0.564706 0.529412 0.643137
0.647059 0.529412 0.631373
0.745098 0.552941 0.639216
0.784314 0.533333 0.600000
0.792157 0.470588 0.517647
0.400000 0.600000 0.674510
0.427451 0.611765 0.674510
0.486275 0.615686 0.674510
0.552941 0.615686 0.666667
0.623529 0.615686 0.666667
0.690196 0.619608 0.666667
0.733333 0.603922 0.631373
0.737255 0.545098 0.560784
0.819608 0.552941 0.541176
0.443137 0.713725 0.694118
0.458824 0.713725 0.682353
0.509804 0.717647 0.686275
0.572549 0.709804 0.682353
0.662745 0.705882 0.682353
0.733333 0.701961 0.690196
0.784314 0.705882 0.678431
0.835294 0.690196 0.654902
0.913725 0.698039 0.670588
0.529412 0.772549 0.627451
0.552941 0.776471 0.647059
0.603922 0.772549 0.654902
0.682353 0.768627 0.686275
0.729412 0.756863 0.694118
0.749020 0.741176 0.658824
0.792157 0.729412 0.631373
0.878431 0.756863 0.674510
0.929412 0.796078 0.756863
0.721569 0.843137 0.717647
0.741176 0.847059 0.725490
0.756863 0.831373 0.705882
0.784314 0.831373 0.737255
0.796078 0.827451 0.733333
0.803922 0.819608 0.682353
0.835294 0.807843 0.643137
0.898039 0.807843 0.643137
0.945098 0.839216 0.721569
0.815686 0.890196 0.780392
0.831373 0.890196 0.768627
0.827451 0.894118 0.768627
0.847059 0.886275 0.780392
0.858824 0.882353 0.772549
0.874510 0.890196 0.752941
0.901961 0.890196 0.721569
0.949020 0.886275 0.682353
0.972549 0.886275 0.741176
0.345098 0.517647 0.764706
0.368627 0.517647 0.764706
0.415686 0.513725 0.764706
0.486275 0.525490 0.756863
0.560784 0.529412 0.752941
0.635294 0.529412 0.745098
0.721569 0.521569 0.741176
0.823529 0.560784 0.760784
0.921569 0.627451 0.788235
0.352941 0.509804 0.741176
0.376471 0.509804 0.749020
0.415686 0.517647 0.741176
0.486275 0.529412 0.749020
0.545098 0.533333 0.741176
0.635294 0.529412 0.729412
0.717647 0.521569 0.721569
0.811765 0.552941 0.741176
0.921569 0.623529 0.772549
0.407843 0.552941 0.756863
0.431373 0.564706 0.752941
0.462745 0.568627 0.752941
0.517647 0.572549 0.764706
0.584314 0.572549 0.756863
0.654902 0.564706 0.745098
0.741176 0.560784 0.745098
0.827451 0.600000 0.756863
0.917647 0.662745 0.780392
0.447059 0.584314 0.733333
0.462745 0.592157 0.760784
0.494118 0.603922 0.756863
0.545098 0.600000 0.745098
0.596078 0.603922 0.752941
0.662745 0.596078 0.737255
0.733333 0.588235 0.721569
0.819608 0.619608 0.749020
0.913725 0.666667 0.772549
0.486275 0.647059 0.756863
0.501961 0.662745 0.780392
0.545098 0.666667 0.776471
0.588235 0.666667 0.764706
0.643137 0.666667 0.760784
0.701961 0.662745 0.756863
0.768627 0.658824 0.756863
0.847059 0.694118 0.776471
0.917647 0.686275 0.756863
0.525490 0.733333 0.796078
0.541176 0.733333 0.792157
0.568627 0.741176 0.784314
0.615686 0.741176 0.792157
0.686275 0.741176 0.784314
0.737255 0.737255 0.776471
0.803922 0.741176 0.784314
0.847059 0.725490 0.756863
0.874510 0.658824 0.670588
0.509804 0.803922 0.784314
0.525490 0.803922 0.772549
0.564706 0.803922 0.776471
0.611765 0.803922 0.780392
0.674510 0.803922 0.776471
0.756863 0.800000 0.776471
0.811765 0.792157 0.776471
0.858824 0.792157 0.764706
0.921569 0.792157 0.772549
0.611765 0.866667 0.741176
0.635294 0.866667 0.756863
0.658824 0.866667 0.756863
0.713725 0.862745 0.764706
0.780392 0.862745 0.803922
0.831373 0.854902 0.815686
0.847059 0.843137 0.772549
0.898039 0.839216 0.756863
0.937255 0.866667 0.819608
0.784314 0.913725 0.807843
0.807843 0.909804 0.811765
0.815686 0.905882 0.827451
0.831373 0.905882 0.831373
0.854902 0.898039 0.831373
0.866667 0.894118 0.823529
0.901961 0.894118 0.811765
0.929412 0.905882 0.780392
0.956863 0.894118 0.792157
0.513725 0.635294 0.847059
0.525490 0.643137 0.854902
0.552941 0.643137 0.854902
0.596078 0.647059 0.850980
0.639216 0.650980 0.850980
0.690196 0.650980 0.847059
0.756863 0.647059 0.839216
0.823529 0.643137 0.835294
0.890196 0.682353 0.847059
0.509804 0.627451 0.839216
0.525490 0.631373 0.839216
0.549020 0.639216 0.850980
0.584314 0.647059 0.847059
0.639216 0.654902 0.843137
0.686275 0.650980 0.835294
0.749020 0.639216 0.831373
0.819608 0.631373 0.819608
0.894118 0.678431 0.843137
0.533333 0.658824 0.850980
0.556863 0.666667 0.854902
0.580392 0.674510 0.854902
0.607843 0.674510 0.847059
0.658824 0.678431 0.843137
0.701961 0.670588 0.831373
0.756863 0.666667 0.831373
0.827451 0.666667 0.839216
0.898039 0.701961 0.850980
0.552941 0.678431 0.831373
0.572549 0.686275 0.850980
0.592157 0.690196 0.847059
0.623529 0.694118 0.850980
0.666667 0.698039 0.843137
0.709804 0.694118 0.831373
0.764706 0.686275 0.831373
0.815686 0.674510 0.823529
0.894118 0.713725 0.854902
0.584314 0.725490 0.850980
0.600000 0.733333 0.843137
0.631373 0.729412 0.850980
0.658824 0.733333 0.850980
0.694118 0.741176 0.843137
0.737255 0.733333 0.854902
0.784314 0.733333 0.843137
0.847059 0.725490 0.847059
0.921569 0.768627 0.850980
0.627451 0.776471 0.866667
0.635294 0.776471 0.862745
0.658824 0.780392 0.862745
0.682353 0.780392 0.858824
0.725490 0.784314 0.858824
0.768627 0.788235 0.862745
0.807843 0.780392 0.843137
0.858824 0.784314 0.858824
0.909804 0.811765 0.886275
0.627451 0.815686 0.854902
0.639216 0.827451 0.882353
0.654902 0.823529 0.858824
0.694118 0.827451 0.866667
0.733333 0.827451 0.866667
0.780392 0.831373 0.854902
0.831373 0.831373 0.862745
0.874510 0.839216 0.858824
0.921569 0.839216 0.866667
0.666667 0.882353 0.862745
0.682353 0.886275 0.870588
0.694118 0.886275 0.870588
0.725490 0.886275 0.870588
0.760784 0.878431 0.870588
0.800000 0.882353 0.862745
0.850980 0.874510 0.866667
0.890196 0.874510 0.870588
0.925490 0.886275 0.890196
0.749020 0.917647 0.843137
0.752941 0.929412 0.850980
0.784314 0.917647 0.854902
0.796078 0.917647 0.858824
0.815686 0.917647 0.866667
0.858824 0.909804 0.870588
0.894118 0.913725 0.890196
0.913725 0.913725 0.882353
0.933333 0.905882 0.866667
0.709804 0.772549 0.905882
0.713725 0.776471 0.909804
0.729412 0.780392 0.913725
0.745098 0.788235 0.905882
0.772549 0.792157 0.909804
0.800000 0.800000 0.909804
0.823529 0.800000 0.909804
0.858824 0.796078 0.901961
0.901961 0.800000 0.913725
0.694118 0.764706 0.905882
0.705882 0.768627 0.901961
0.717647 0.776471 0.905882
0.741176 0.784314 0.909804
0.768627 0.796078 0.909804
0.792157 0.792157 0.901961
0.827451 0.792157 0.905882
0.862745 0.800000 0.913725
0.898039 0.803922 0.905882
0.717647 0.780392 0.909804
0.725490 0.788235 0.917647
0.733333 0.792157 0.905882
0.756863 0.800000 0.909804
0.784314 0.807843 0.909804
0.807843 0.807843 0.909804
0.835294 0.811765 0.913725
0.866667 0.811765 0.909804
0.905882 0.811765 0.913725
0.717647 0.792157 0.909804
0.733333 0.800000 0.917647
0.737255 0.796078 0.909804
0.760784 0.803922 0.913725
0.784314 0.811765 0.913725
0.807843 0.815686 0.905882
0.839216 0.819608 0.909804
0.862745 0.815686 0.909804
0.905882 0.819608 0.909804
0.737255 0.815686 0.909804
0.749020 0.819608 0.913725
0.760784 0.823529 0.913725
0.780392 0.827451 0.913725
0.803922 0.835294 0.909804
0.827451 0.839216 0.913725
0.850980 0.839216 0.913725
0.874510 0.839216 0.913725
0.909804 0.835294 0.909804
0.764706 0.847059 0.921569
0.764706 0.847059 0.921569
0.780392 0.847059 0.917647
0.788235 0.850980 0.913725
0.807843 0.854902 0.909804
0.831373 0.854902 0.909804
0.862745 0.858824 0.913725
0.886275 0.862745 0.917647
0.913725 0.866667 0.913725
0.776471 0.866667 0.921569
0.780392 0.866667 0.917647
0.792157 0.866667 0.921569
0.800000 0.870588 0.917647
0.815686 0.870588 0.913725
0.839216 0.870588 0.913725
0.866667 0.874510 0.921569
0.890196 0.878431 0.921569
0.921569 0.882353 0.913725
0.792157 0.901961 0.917647
0.800000 0.898039 0.913725
0.807843 0.901961 0.917647
0.819608 0.894118 0.917647
0.839216 0.898039 0.917647
0.854902 0.898039 0.913725
0.878431 0.898039 0.909804
0.905882 0.905882 0.913725
0.925490 0.909804 0.913725
0.823529 0.925490 0.921569
0.839216 0.925490 0.917647
0.835294 0.921569 0.913725
0.847059 0.917647 0.917647
0.858824 0.921569 0.917647
0.874510 0.921569 0.913725
0.898039 0.921569 0.921569
0.917647 0.921569 0.929412
0.917647 0.917647 0.917647
