assets/luts/cinematic-tones-luts-pack-for-video-and-photo-2023-11-27-05-35-37-utc/Cinematic Tones_LUTs/Cinematic Tones 05.cube
#Generated with IWLTBAP LUT Generator
#Website: http://luts.iwltbap.com
TITLE "Cinematic Tones 05"
#LUT size
LUT_3D_SIZE 25
#LUT data points
0.058824 0.105882 0.160784
0.070588 0.109804 0.156863
0.094118 0.105882 0.164706
0.113725 0.109804 0.164706
0.137255 0.113725 0.168627
0.156863 0.113725 0.168627
0.172549 0.117647 0.168627
0.192157 0.121569 0.168627
0.211765 0.125490 0.172549
0.235294 0.125490 0.172549
0.266667 0.137255 0.180392
0.294118 0.137255 0.180392
0.317647 0.137255 0.180392
0.349020 0.145098 0.192157
0.372549 0.152941 0.196078
0.396078 0.152941 0.196078
0.419608 0.164706 0.196078
0.450980 0.164706 0.200000
0.486275 0.176471 0.200000
0.517647 0.184314 0.203922
0.560784 0.188235 0.211765
0.600000 0.196078 0.211765
0.639216 0.207843 0.211765
0.686275 0.223529 0.223529
0.725490 0.235294 0.211765
0.062745 0.117647 0.168627
0.078431 0.117647 0.164706
0.101961 0.113725 0.172549
0.109804 0.117647 0.168627
0.137255 0.121569 0.176471
0.156863 0.125490 0.176471
0.176471 0.121569 0.172549
0.196078 0.125490 0.172549
0.219608 0.133333 0.180392
0.243137 0.133333 0.180392
0.266667 0.137255 0.180392
0.298039 0.141176 0.184314
0.325490 0.145098 0.184314
0.349020 0.149020 0.184314
0.372549 0.152941 0.188235
0.400000 0.160784 0.192157
0.427451 0.164706 0.200000
0.454902 0.168627 0.196078
0.482353 0.180392 0.203922
0.517647 0.184314 0.203922
0.556863 0.196078 0.207843
0.596078 0.203922 0.203922
0.643137 0.211765 0.215686
0.682353 0.219608 0.203922
0.733333 0.243137 0.227451
0.074510 0.129412 0.180392
0.082353 0.133333 0.168627
0.098039 0.129412 0.180392
0.101961 0.137255 0.172549
0.133333 0.133333 0.172549
0.156863 0.133333 0.180392
0.176471 0.129412 0.176471
0.200000 0.137255 0.180392
0.223529 0.137255 0.184314
0.247059 0.141176 0.176471
0.270588 0.149020 0.180392
0.294118 0.149020 0.180392
0.321569 0.152941 0.188235
0.352941 0.156863 0.192157
0.368627 0.160784 0.192157
0.403922 0.168627 0.200000
0.427451 0.172549 0.196078
0.454902 0.176471 0.200000
0.494118 0.184314 0.203922
0.525490 0.192157 0.203922
0.560784 0.200000 0.203922
0.600000 0.215686 0.219608
0.643137 0.219608 0.211765
0.678431 0.239216 0.223529
0.729412 0.247059 0.227451
0.078431 0.145098 0.176471
0.094118 0.133333 0.172549
0.101961 0.141176 0.180392
0.121569 0.137255 0.172549
0.141176 0.141176 0.180392
0.156863 0.145098 0.172549
0.180392 0.152941 0.184314
0.203922 0.152941 0.188235
0.227451 0.149020 0.184314
0.247059 0.156863 0.196078
0.278431 0.152941 0.196078
0.305882 0.160784 0.192157
0.325490 0.164706 0.196078
0.352941 0.168627 0.200000
0.376471 0.168627 0.192157
0.407843 0.176471 0.200000
0.431373 0.188235 0.200000
0.462745 0.184314 0.200000
0.494118 0.196078 0.203922
0.533333 0.203922 0.203922
0.568627 0.207843 0.211765
0.600000 0.215686 0.211765
0.650980 0.227451 0.219608
0.686275 0.243137 0.219608
0.737255 0.254902 0.227451
0.094118 0.152941 0.180392
0.101961 0.152941 0.184314
0.101961 0.160784 0.188235
0.121569 0.156863 0.192157
0.141176 0.160784 0.176471
0.168627 0.164706 0.188235
0.180392 0.160784 0.184314
0.203922 0.168627 0.188235
0.235294 0.168627 0.200000
0.258824 0.168627 0.192157
0.282353 0.168627 0.188235
0.309804 0.172549 0.196078
0.337255 0.184314 0.196078
0.356863 0.180392 0.192157
0.384314 0.188235 0.200000
0.411765 0.192157 0.203922
0.447059 0.192157 0.207843
0.474510 0.200000 0.207843
0.498039 0.207843 0.211765
0.529412 0.215686 0.219608
0.572549 0.219608 0.215686
0.603922 0.231373 0.215686
0.643137 0.239216 0.219608
0.686275 0.250980 0.215686
0.721569 0.262745 0.227451
0.101961 0.168627 0.196078
0.113725 0.172549 0.200000
0.121569 0.172549 0.196078
0.133333 0.176471 0.192157
0.145098 0.176471 0.188235
0.172549 0.176471 0.192157
0.196078 0.180392 0.184314
0.219608 0.184314 0.188235
0.243137 0.184314 0.203922
0.266667 0.184314 0.203922
0.298039 0.196078 0.207843
0.317647 0.200000 0.207843
0.349020 0.196078 0.200000
0.368627 0.203922 0.207843
0.396078 0.207843 0.200000
0.427451 0.215686 0.207843
0.454902 0.211765 0.215686
0.490196 0.215686 0.215686
0.521569 0.227451 0.215686
0.552941 0.235294 0.219608
0.592157 0.243137 0.227451
0.623529 0.254902 0.223529
0.666667 0.262745 0.227451
0.709804 0.274510 0.231373
0.756863 0.294118 0.239216
0.117647 0.192157 0.207843
0.137255 0.192157 0.203922
0.133333 0.196078 0.196078
0.141176 0.200000 0.211765
0.156863 0.196078 0.203922
0.172549 0.207843 0.203922
0.192157 0.196078 0.203922
0.227451 0.207843 0.196078
0.247059 0.207843 0.200000
0.274510 0.215686 0.203922
0.294118 0.211765 0.207843
0.329412 0.219608 0.215686
0.352941 0.219608 0.215686
0.384314 0.219608 0.223529
0.403922 0.223529 0.223529
0.439216 0.231373 0.215686
0.474510 0.235294 0.223529
0.501961 0.235294 0.223529
0.533333 0.247059 0.223529
0.560784 0.250980 0.231373
0.603922 0.262745 0.235294
0.635294 0.274510 0.231373
0.678431 0.282353 0.243137
0.709804 0.294118 0.243137
0.760784 0.309804 0.235294
0.129412 0.215686 0.207843
0.137255 0.215686 0.207843
0.137255 0.227451 0.203922
0.164706 0.219608 0.219608
0.160784 0.223529 0.211765
0.192157 0.215686 0.215686
0.203922 0.223529 0.200000
0.231373 0.227451 0.207843
0.262745 0.235294 0.211765
0.286275 0.235294 0.211765
0.309804 0.235294 0.211765
0.337255 0.239216 0.219608
0.364706 0.247059 0.215686
0.392157 0.247059 0.223529
0.423529 0.254902 0.227451
0.454902 0.258824 0.231373
0.478431 0.266667 0.227451
0.505882 0.270588 0.231373
0.541176 0.274510 0.231373
0.576471 0.274510 0.235294
0.611765 0.290196 0.235294
0.647059 0.298039 0.243137
0.694118 0.301961 0.239216
0.741176 0.321569 0.258824
0.764706 0.341176 0.239216
0.149020 0.247059 0.231373
0.156863 0.247059 0.223529
0.156863 0.243137 0.231373
0.164706 0.247059 0.227451
0.176471 0.250980 0.235294
0.200000 0.247059 0.231373
0.219608 0.254902 0.235294
0.243137 0.254902 0.227451
0.266667 0.254902 0.227451
0.290196 0.254902 0.219608
0.325490 0.258824 0.219608
0.349020 0.262745 0.211765
0.380392 0.270588 0.223529
0.403922 0.278431 0.235294
0.435294 0.278431 0.239216
0.466667 0.286275 0.235294
0.494118 0.290196 0.239216
0.525490 0.294118 0.239216
0.556863 0.298039 0.243137
0.584314 0.301961 0.243137
0.619608 0.309804 0.250980
0.658824 0.317647 0.239216
0.694118 0.333333 0.250980
0.741176 0.341176 0.254902
0.776471 0.364706 0.250980
0.164706 0.270588 0.235294
0.156863 0.282353 0.231373
0.172549 0.282353 0.235294
0.184314 0.274510 0.235294
0.192157 0.282353 0.250980
0.215686 0.282353 0.250980
0.231373 0.282353 0.243137
0.258824 0.290196 0.247059
0.282353 0.290196 0.239216
0.305882 0.290196 0.243137
0.329412 0.294118 0.235294
0.360784 0.290196 0.235294
0.396078 0.294118 0.243137
0.423529 0.298039 0.239216
0.447059 0.305882 0.243137
0.478431 0.317647 0.247059
0.505882 0.321569 0.250980
0.533333 0.329412 0.247059
0.568627 0.329412 0.247059
0.600000 0.341176 0.247059
0.627451 0.345098 0.250980
0.666667 0.352941 0.262745
0.701961 0.360784 0.254902
0.745098 0.372549 0.262745
0.780392 0.384314 0.266667
0.188235 0.321569 0.254902
0.192157 0.321569 0.254902
0.200000 0.321569 0.258824
0.211765 0.321569 0.262745
0.219608 0.325490 0.258824
0.235294 0.325490 0.262745
0.250980 0.321569 0.258824
0.278431 0.333333 0.274510
0.298039 0.325490 0.254902
0.321569 0.325490 0.254902
0.352941 0.333333 0.254902
0.376471 0.333333 0.254902
0.415686 0.333333 0.250980
0.443137 0.341176 0.250980
0.466667 0.341176 0.243137
0.505882 0.349020 0.250980
0.529412 0.356863 0.258824
0.560784 0.356863 0.262745
0.592157 0.368627 0.262745
0.627451 0.376471 0.266667
0.658824 0.388235 0.266667
0.690196 0.396078 0.270588
0.729412 0.403922 0.270588
0.768627 0.415686 0.278431
0.823529 0.431373 0.290196
0.203922 0.352941 0.270588
0.207843 0.360784 0.286275
0.207843 0.356863 0.258824
0.211765 0.364706 0.258824
0.235294 0.360784 0.278431
0.235294 0.368627 0.270588
0.274510 0.368627 0.282353
0.290196 0.364706 0.278431
0.313725 0.368627 0.278431
0.333333 0.364706 0.270588
0.372549 0.372549 0.278431
0.392157 0.368627 0.266667
0.427451 0.372549 0.266667
0.454902 0.372549 0.258824
0.482353 0.376471 0.258824
0.513725 0.384314 0.262745
0.549020 0.388235 0.270588
0.576471 0.396078 0.266667
0.611765 0.403922 0.270588
0.647059 0.411765 0.278431
0.682353 0.423529 0.286275
0.713725 0.431373 0.282353
0.749020 0.443137 0.290196
0.796078 0.450980 0.301961
0.827451 0.470588 0.298039
0.219608 0.400000 0.286275
0.219608 0.396078 0.282353
0.231373 0.388235 0.282353
0.247059 0.403922 0.301961
0.254902 0.396078 0.286275
0.270588 0.411765 0.309804
0.286275 0.403922 0.294118
0.305882 0.407843 0.294118
0.329412 0.407843 0.298039
0.352941 0.403922 0.286275
0.380392 0.407843 0.286275
0.403922 0.407843 0.282353
0.435294 0.411765 0.278431
0.462745 0.411765 0.278431
0.505882 0.411765 0.270588
0.533333 0.415686 0.274510
0.564706 0.423529 0.282353
0.588235 0.435294 0.282353
0.627451 0.439216 0.290196
0.658824 0.450980 0.294118
0.690196 0.458824 0.294118
0.733333 0.470588 0.305882
0.764706 0.478431 0.309804
0.796078 0.490196 0.309804
0.850980 0.505882 0.317647
0.243137 0.439216 0.301961
0.235294 0.447059 0.305882
0.254902 0.439216 0.305882
0.266667 0.439216 0.301961
0.266667 0.447059 0.305882
0.290196 0.447059 0.309804
0.309804 0.450980 0.309804
0.329412 0.454902 0.309804
0.345098 0.447059 0.301961
0.376471 0.454902 0.309804
0.392157 0.447059 0.305882
0.419608 0.450980 0.298039
0.435294 0.454902 0.298039
0.482353 0.454902 0.290196
0.509804 0.450980 0.282353
0.545098 0.454902 0.290196
0.572549 0.458824 0.294118
0.607843 0.462745 0.290196
0.639216 0.470588 0.301961
0.674510 0.486275 0.305882
0.701961 0.490196 0.309804
0.737255 0.498039 0.313725
0.768627 0.521569 0.321569
0.815686 0.529412 0.329412
0.858824 0.545098 0.337255
0.262745 0.486275 0.325490
0.266667 0.490196 0.329412
0.278431 0.486275 0.321569
0.286275 0.494118 0.329412
0.294118 0.494118 0.325490
0.313725 0.490196 0.329412
0.325490 0.494118 0.325490
0.349020 0.501961 0.329412
0.368627 0.498039 0.329412
0.388235 0.501961 0.329412
0.415686 0.505882 0.333333
0.435294 0.501961 0.337255
0.462745 0.498039 0.321569
0.490196 0.501961 0.325490
0.517647 0.501961 0.317647
0.552941 0.498039 0.313725
0.588235 0.501961 0.309804
0.623529 0.505882 0.309804
0.650980 0.509804 0.305882
0.682353 0.513725 0.313725
0.717647 0.521569 0.313725
0.749020 0.533333 0.321569
0.784314 0.552941 0.333333
0.819608 0.564706 0.337255
0.854902 0.576471 0.356863
0.298039 0.549020 0.352941
0.301961 0.545098 0.352941
0.305882 0.549020 0.349020
0.317647 0.552941 0.352941
0.325490 0.552941 0.356863
0.345098 0.549020 0.356863
0.364706 0.552941 0.364706
0.384314 0.556863 0.364706
0.396078 0.560784 0.364706
0.423529 0.556863 0.360784
0.439216 0.556863 0.360784
0.462745 0.556863 0.352941
0.498039 0.552941 0.352941
0.521569 0.556863 0.349020
0.545098 0.556863 0.349020
0.576471 0.556863 0.341176
0.619608 0.552941 0.333333
0.650980 0.552941 0.333333
0.682353 0.560784 0.337255
0.713725 0.572549 0.345098
0.745098 0.580392 0.345098
0.780392 0.588235 0.356863
0.815686 0.596078 0.356863
0.850980 0.611765 0.364706
0.890196 0.631373 0.396078
0.321569 0.596078 0.360784
0.325490 0.592157 0.368627
0.337255 0.588235 0.384314
0.352941 0.588235 0.384314
0.352941 0.600000 0.392157
0.380392 0.588235 0.376471
0.392157 0.600000 0.380392
0.407843 0.603922 0.396078
0.419608 0.603922 0.392157
0.450980 0.607843 0.400000
0.466667 0.603922 0.392157
0.494118 0.607843 0.396078
0.517647 0.600000 0.380392
0.545098 0.603922 0.380392
0.564706 0.600000 0.376471
0.596078 0.600000 0.364706
0.623529 0.600000 0.356863
0.647059 0.603922 0.360784
0.682353 0.603922 0.356863
0.725490 0.607843 0.364706
0.756863 0.619608 0.368627
0.796078 0.623529 0.368627
0.831373 0.639216 0.376471
0.862745 0.654902 0.388235
0.905882 0.666667 0.419608
0.356863 0.639216 0.388235
0.364706 0.643137 0.407843
0.384314 0.639216 0.411765
0.376471 0.643137 0.403922
0.392157 0.650980 0.407843
0.403922 0.643137 0.407843
0.419608 0.650980 0.423529
0.435294 0.650980 0.423529
0.454902 0.650980 0.419608
0.478431 0.650980 0.419608
0.498039 0.654902 0.419608
0.517647 0.658824 0.419608
0.537255 0.654902 0.411765
0.556863 0.650980 0.407843
0.584314 0.654902 0.419608
0.611765 0.650980 0.411765
0.635294 0.654902 0.403922
0.666667 0.650980 0.400000
0.694118 0.650980 0.392157
0.729412 0.654902 0.388235
0.768627 0.662745 0.392157
0.803922 0.670588 0.392157
0.835294 0.678431 0.403922
0.874510 0.690196 0.407843
0.909804 0.709804 0.450980
0.403922 0.686275 0.427451
0.403922 0.686275 0.427451
0.415686 0.690196 0.443137
0.423529 0.694118 0.439216
0.443137 0.686275 0.439216
0.443137 0.698039 0.447059
0.458824 0.701961 0.454902
0.466667 0.698039 0.447059
0.490196 0.701961 0.458824
0.505882 0.701961 0.454902
0.533333 0.705882 0.466667
0.549020 0.701961 0.454902
0.564706 0.698039 0.458824
0.584314 0.701961 0.458824
0.615686 0.701961 0.450980
0.635294 0.698039 0.443137
0.662745 0.705882 0.439216
0.690196 0.698039 0.439216
0.713725 0.701961 0.431373
0.745098 0.705882 0.423529
0.776471 0.705882 0.423529
0.819608 0.705882 0.431373
0.847059 0.721569 0.435294
0.878431 0.729412 0.443137
0.921569 0.749020 0.470588
0.454902 0.733333 0.466667
0.454902 0.733333 0.474510
0.454902 0.737255 0.478431
0.462745 0.733333 0.478431
0.462745 0.741176 0.474510
0.486275 0.741176 0.482353
0.501961 0.745098 0.482353
0.513725 0.752941 0.490196
0.529412 0.749020 0.494118
0.549020 0.752941 0.501961
0.560784 0.752941 0.498039
0.584314 0.749020 0.498039
0.600000 0.752941 0.498039
0.623529 0.749020 0.494118
0.635294 0.749020 0.486275
0.650980 0.749020 0.482353
0.682353 0.749020 0.482353
0.705882 0.749020 0.478431
0.737255 0.749020 0.478431
0.760784 0.749020 0.478431
0.784314 0.745098 0.462745
0.815686 0.749020 0.466667
0.850980 0.756863 0.466667
0.894118 0.768627 0.474510
0.925490 0.776471 0.490196
0.513725 0.800000 0.521569
0.513725 0.800000 0.521569
0.517647 0.796078 0.521569
0.517647 0.796078 0.521569
0.525490 0.800000 0.525490
0.537255 0.800000 0.529412
0.545098 0.800000 0.533333
0.560784 0.807843 0.533333
0.572549 0.803922 0.552941
0.592157 0.807843 0.552941
0.611765 0.811765 0.552941
0.615686 0.807843 0.549020
0.639216 0.803922 0.552941
0.650980 0.803922 0.541176
0.666667 0.803922 0.537255
0.690196 0.803922 0.541176
0.713725 0.815686 0.537255
0.741176 0.807843 0.533333
0.760784 0.807843 0.525490
0.784314 0.807843 0.525490
0.815686 0.803922 0.525490
0.839216 0.807843 0.521569
0.870588 0.807843 0.513725
0.905882 0.819608 0.525490
0.949020 0.823529 0.529412
0.549020 0.835294 0.564706
0.556863 0.835294 0.560784
0.556863 0.835294 0.560784
0.564706 0.839216 0.556863
0.572549 0.835294 0.572549
0.584314 0.847059 0.576471
0.588235 0.831373 0.576471
0.603922 0.843137 0.580392
0.615686 0.847059 0.588235
0.631373 0.847059 0.592157
0.650980 0.854902 0.596078
0.650980 0.850980 0.592157
0.674510 0.854902 0.600000
0.690196 0.850980 0.592157
0.709804 0.854902 0.592157
0.717647 0.854902 0.596078
0.737255 0.850980 0.592157
0.764706 0.854902 0.588235
0.780392 0.858824 0.588235
0.811765 0.854902 0.584314
0.831373 0.854902 0.572549
0.854902 0.854902 0.564706
0.890196 0.858824 0.572549
0.921569 0.854902 0.572549
0.956863 0.870588 0.584314
0.600000 0.870588 0.623529
0.603922 0.874510 0.611765
0.603922 0.874510 0.611765
0.611765 0.886275 0.611765
0.623529 0.878431 0.611765
0.635294 0.878431 0.623529
0.643137 0.886275 0.623529
0.650980 0.882353 0.623529
0.666667 0.886275 0.631373
0.674510 0.890196 0.635294
0.686275 0.890196 0.647059
0.698039 0.894118 0.654902
0.713725 0.894118 0.650980
0.725490 0.886275 0.650980
0.733333 0.894118 0.635294
0.752941 0.890196 0.631373
0.772549 0.894118 0.631373
0.792157 0.898039 0.635294
0.811765 0.894118 0.639216
0.827451 0.890196 0.635294
0.854902 0.898039 0.631373
0.878431 0.898039 0.635294
0.894118 0.890196 0.635294
0.933333 0.901961 0.619608
0.945098 0.905882 0.623529
0.658824 0.909804 0.670588
0.666667 0.921569 0.654902
0.670588 0.925490 0.666667
0.674510 0.917647 0.662745
0.670588 0.925490 0.674510
0.678431 0.921569 0.674510
0.686275 0.921569 0.670588
0.701961 0.921569 0.674510
0.705882 0.917647 0.682353
0.717647 0.929412 0.694118
0.725490 0.925490 0.694118
0.741176 0.929412 0.701961
0.756863 0.929412 0.698039
0.764706 0.925490 0.698039
0.780392 0.929412 0.698039
0.792157 0.933333 0.694118
0.800000 0.933333 0.694118
0.819608 0.937255 0.701961
0.831373 0.933333 0.694118
0.850980 0.937255 0.694118
0.878431 0.933333 0.694118
0.894118 0.933333 0.686275
0.917647 0.941176 0.698039
0.933333 0.941176 0.694118
0.960784 0.941176 0.682353
0.717647 0.956863 0.725490
0.717647 0.952941 0.709804
0.705882 0.956863 0.717647
0.721569 0.960784 0.729412
0.721569 0.952941 0.725490
0.737255 0.952941 0.729412
0.745098 0.956863 0.729412
0.745098 0.952941 0.733333
0.756863 0.956863 0.737255
0.760784 0.960784 0.741176
0.776471 0.960784 0.749020
0.792157 0.960784 0.752941
0.792157 0.964706 0.756863
0.811765 0.960784 0.760784
0.811765 0.964706 0.756863
0.823529 0.968627 0.764706
0.835294 0.960784 0.764706
0.850980 0.968627 0.764706
0.862745 0.968627 0.760784
0.886275 0.964706 0.756863
0.898039 0.972549 0.756863
0.917647 0.976471 0.760784
0.937255 0.980392 0.760784
0.949020 0.980392 0.756863
0.984314 0.984314 0.772549
0.070588 0.105882 0.172549
0.082353 0.101961 0.176471
0.101961 0.105882 0.176471
0.121569 0.105882 0.172549
0.137255 0.109804 0.172549
0.156863 0.113725 0.176471
0.172549 0.125490 0.180392
0.192157 0.129412 0.180392
0.215686 0.121569 0.172549
0.247059 0.129412 0.176471
0.270588 0.141176 0.184314
0.298039 0.137255 0.192157
0.321569 0.141176 0.192157
0.349020 0.145098 0.196078
0.376471 0.149020 0.196078
0.400000 0.152941 0.196078
0.427451 0.160784 0.203922
0.450980 0.164706 0.207843
0.490196 0.172549 0.207843
0.521569 0.180392 0.211765
0.560784 0.188235 0.211765
0.592157 0.196078 0.211765
0.635294 0.207843 0.219608
0.678431 0.223529 0.227451
0.733333 0.223529 0.223529
0.054902 0.117647 0.168627
0.082353 0.117647 0.184314
0.098039 0.121569 0.168627
0.121569 0.121569 0.168627
0.133333 0.125490 0.180392
0.149020 0.125490 0.172549
0.172549 0.133333 0.176471
0.192157 0.129412 0.172549
0.211765 0.133333 0.180392
0.243137 0.141176 0.192157
0.262745 0.137255 0.188235
0.294118 0.145098 0.196078
0.317647 0.145098 0.196078
0.352941 0.156863 0.200000
0.372549 0.152941 0.196078
0.400000 0.160784 0.192157
0.427451 0.164706 0.200000
0.458824 0.172549 0.207843
0.490196 0.180392 0.203922
0.521569 0.180392 0.203922
0.560784 0.188235 0.211765
0.607843 0.203922 0.215686
0.643137 0.211765 0.223529
0.670588 0.231373 0.215686
0.733333 0.243137 0.227451
0.062745 0.137255 0.164706
0.094118 0.133333 0.180392
0.101961 0.125490 0.180392
0.117647 0.129412 0.196078
0.137255 0.137255 0.184314
0.149020 0.133333 0.188235
0.172549 0.141176 0.184314
0.196078 0.145098 0.184314
0.223529 0.145098 0.188235
0.247059 0.145098 0.188235
0.270588 0.145098 0.188235
0.298039 0.149020 0.192157
0.325490 0.156863 0.192157
0.352941 0.156863 0.192157
0.372549 0.164706 0.203922
0.400000 0.164706 0.203922
0.427451 0.172549 0.203922
0.454902 0.176471 0.207843
0.494118 0.184314 0.207843
0.521569 0.188235 0.215686
0.560784 0.200000 0.219608
0.603922 0.207843 0.223529
0.639216 0.227451 0.211765
0.670588 0.231373 0.215686
0.741176 0.239216 0.227451
0.086275 0.141176 0.184314
0.090196 0.137255 0.184314
0.105882 0.145098 0.192157
0.117647 0.149020 0.192157
0.133333 0.141176 0.192157
0.160784 0.149020 0.192157
0.180392 0.149020 0.192157
0.200000 0.149020 0.188235
0.219608 0.152941 0.192157
0.243137 0.152941 0.192157
0.274510 0.156863 0.188235
0.298039 0.160784 0.188235
0.321569 0.164706 0.196078
0.349020 0.172549 0.200000
0.380392 0.172549 0.203922
0.403922 0.180392 0.203922
0.431373 0.188235 0.207843
0.466667 0.188235 0.211765
0.494118 0.196078 0.211765
0.533333 0.200000 0.211765
0.572549 0.200000 0.215686
0.607843 0.215686 0.223529
0.639216 0.227451 0.215686
0.682353 0.247059 0.219608
0.737255 0.254902 0.227451
0.101961 0.156863 0.192157
0.113725 0.152941 0.192157
0.117647 0.156863 0.192157
0.121569 0.156863 0.184314
0.145098 0.156863 0.192157
0.164706 0.160784 0.192157
0.184314 0.164706 0.192157
0.207843 0.168627 0.200000
0.231373 0.172549 0.192157
0.254902 0.180392 0.196078
0.274510 0.176471 0.192157
0.301961 0.176471 0.196078
0.329412 0.184314 0.211765
0.360784 0.184314 0.211765
0.388235 0.188235 0.207843
0.415686 0.192157 0.215686
0.447059 0.192157 0.207843
0.470588 0.203922 0.207843
0.501961 0.211765 0.215686
0.525490 0.211765 0.207843
0.564706 0.219608 0.215686
0.596078 0.227451 0.219608
0.643137 0.235294 0.223529
0.686275 0.247059 0.231373
0.721569 0.262745 0.235294
0.105882 0.172549 0.200000
0.113725 0.172549 0.200000
0.121569 0.172549 0.196078
0.133333 0.176471 0.200000
0.149020 0.176471 0.200000
0.176471 0.180392 0.200000
0.200000 0.180392 0.203922
0.219608 0.184314 0.203922
0.243137 0.184314 0.196078
0.266667 0.184314 0.203922
0.290196 0.192157 0.203922
0.313725 0.196078 0.203922
0.341176 0.200000 0.207843
0.368627 0.203922 0.211765
0.392157 0.211765 0.211765
0.419608 0.219608 0.215686
0.454902 0.211765 0.215686
0.486275 0.219608 0.223529
0.517647 0.227451 0.215686
0.545098 0.235294 0.219608
0.584314 0.239216 0.223529
0.623529 0.250980 0.227451
0.662745 0.258824 0.223529
0.709804 0.274510 0.231373
0.756863 0.282353 0.239216
0.113725 0.196078 0.207843
0.133333 0.192157 0.203922
0.145098 0.188235 0.203922
0.137255 0.196078 0.215686
0.160784 0.188235 0.211765
0.180392 0.203922 0.203922
0.200000 0.203922 0.211765
0.223529 0.200000 0.207843
0.247059 0.207843 0.211765
0.270588 0.207843 0.211765
0.298039 0.211765 0.219608
0.325490 0.215686 0.211765
0.356863 0.223529 0.219608
0.384314 0.223529 0.215686
0.403922 0.227451 0.215686
0.439216 0.227451 0.219608
0.470588 0.235294 0.231373
0.498039 0.243137 0.227451
0.525490 0.247059 0.223529
0.560784 0.250980 0.231373
0.600000 0.258824 0.231373
0.635294 0.270588 0.239216
0.674510 0.278431 0.239216
0.717647 0.294118 0.243137
0.760784 0.301961 0.231373
0.133333 0.215686 0.219608
0.129412 0.215686 0.207843
0.149020 0.223529 0.215686
0.156863 0.219608 0.219608
0.168627 0.223529 0.223529
0.196078 0.219608 0.219608
0.207843 0.223529 0.219608
0.231373 0.227451 0.219608
0.262745 0.231373 0.223529
0.286275 0.231373 0.227451
0.309804 0.235294 0.219608
0.337255 0.239216 0.223529
0.372549 0.239216 0.231373
0.396078 0.247059 0.235294
0.427451 0.250980 0.231373
0.454902 0.254902 0.239216
0.478431 0.262745 0.235294
0.501961 0.266667 0.235294
0.537255 0.270588 0.235294
0.568627 0.278431 0.235294
0.600000 0.290196 0.239216
0.639216 0.294118 0.239216
0.690196 0.294118 0.247059
0.717647 0.313725 0.254902
0.768627 0.329412 0.243137
0.145098 0.243137 0.231373
0.152941 0.250980 0.235294
0.160784 0.247059 0.235294
0.180392 0.243137 0.231373
0.188235 0.250980 0.239216
0.200000 0.250980 0.223529
0.215686 0.250980 0.231373
0.247059 0.258824 0.231373
0.266667 0.254902 0.227451
0.298039 0.254902 0.231373
0.325490 0.258824 0.227451
0.360784 0.262745 0.235294
0.380392 0.270588 0.227451
0.407843 0.274510 0.235294
0.431373 0.274510 0.235294
0.466667 0.282353 0.243137
0.494118 0.290196 0.239216
0.521569 0.294118 0.247059
0.545098 0.298039 0.239216
0.576471 0.305882 0.243137
0.611765 0.313725 0.250980
0.650980 0.313725 0.247059
0.686275 0.329412 0.254902
0.737255 0.345098 0.254902
0.784314 0.360784 0.258824
0.156863 0.270588 0.250980
0.160784 0.278431 0.247059
0.176471 0.282353 0.247059
0.192157 0.274510 0.247059
0.200000 0.282353 0.247059
0.215686 0.282353 0.243137
0.231373 0.282353 0.243137
0.247059 0.286275 0.243137
0.278431 0.286275 0.243137
0.301961 0.286275 0.239216
0.333333 0.286275 0.239216
0.368627 0.290196 0.247059
0.396078 0.294118 0.235294
0.423529 0.298039 0.239216
0.447059 0.305882 0.243137
0.466667 0.317647 0.243137
0.501961 0.317647 0.247059
0.533333 0.325490 0.254902
0.560784 0.333333 0.254902
0.596078 0.333333 0.258824
0.631373 0.337255 0.254902
0.662745 0.349020 0.258824
0.698039 0.352941 0.258824
0.737255 0.368627 0.266667
0.776471 0.380392 0.270588
0.184314 0.317647 0.254902
0.188235 0.313725 0.254902
0.196078 0.317647 0.258824
0.211765 0.321569 0.262745
0.223529 0.329412 0.270588
0.239216 0.329412 0.266667
0.254902 0.325490 0.262745
0.274510 0.329412 0.262745
