assets/luts/cinematic-tones-luts-pack-for-video-and-photo-2023-11-27-05-35-37-utc/Cinematic Tones_LUTs/Cinematic Tones 03.cube
#Generated with IWLTBAP LUT Generator
#Website: http://luts.iwltbap.com
TITLE "Cinematic Tones 03"
#LUT size
LUT_3D_SIZE 9
#LUT data points
0.000000 0.003922 0.000000
0.031373 0.000000 0.000000
0.145098 0.007843 0.000000
0.278431 0.011765 0.000000
0.458824 0.062745 0.031373
0.639216 0.117647 0.058824
0.792157 0.176471 0.101961
0.913725 0.231373 0.188235
1.000000 0.317647 0.290196
0.019608 0.043137 0.003922
0.062745 0.035294 0.000000
0.168627 0.066667 0.007843
0.313725 0.098039 0.019608
0.470588 0.145098 0.027451
0.650980 0.184314 0.066667
0.796078 0.223529 0.125490
0.913725 0.266667 0.188235
1.000000 0.341176 0.298039
0.109804 0.172549 0.058824
0.164706 0.164706 0.054902
0.192157 0.152941 0.105882
0.337255 0.188235 0.105882
0.537255 0.266667 0.050980
0.686275 0.290196 0.086275
0.819608 0.325490 0.137255
0.925490 0.349020 0.219608
1.000000 0.407843 0.325490
0.235294 0.345098 0.152941
0.278431 0.349020 0.145098
0.360784 0.352941 0.164706
0.396078 0.329412 0.227451
0.525490 0.349020 0.235294
0.705882 0.407843 0.180392
0.827451 0.439216 0.172549
0.917647 0.447059 0.243137
0.992157 0.474510 0.325490
0.376471 0.549020 0.247059
0.411765 0.552941 0.262745
0.498039 0.560784 0.274510
0.564706 0.549020 0.301961
0.592157 0.513725 0.368627
0.678431 0.505882 0.400000
0.827451 0.545098 0.356863
0.921569 0.572549 0.345098
0.992157 0.600000 0.407843
0.498039 0.713725 0.388235
0.525490 0.709804 0.392157
0.592157 0.713725 0.407843
0.654902 0.701961 0.403922
0.717647 0.694118 0.450980
0.733333 0.666667 0.494118
0.792157 0.650980 0.549020
0.890196 0.678431 0.529412
0.964706 0.713725 0.541176
0.607843 0.807843 0.505882
0.631373 0.800000 0.517647
0.666667 0.796078 0.517647
0.733333 0.792157 0.521569
0.772549 0.792157 0.541176
0.807843 0.784314 0.580392
0.831373 0.760784 0.603922
0.843137 0.760784 0.654902
0.929412 0.792157 0.674510
0.721569 0.870588 0.631373
0.737255 0.874510 0.623529
0.764706 0.862745 0.635294
0.803922 0.874510 0.647059
0.831373 0.866667 0.650980
0.854902 0.870588 0.674510
0.890196 0.862745 0.698039
0.890196 0.847059 0.721569
0.917647 0.854902 0.764706
0.831373 0.933333 0.745098
0.843137 0.937255 0.749020
0.839216 0.929412 0.749020
0.870588 0.933333 0.756863
0.894118 0.929412 0.752941
0.913725 0.933333 0.772549
0.929412 0.929412 0.788235
0.952941 0.929412 0.803922
0.964706 0.937255 0.835294
0.000000 0.007843 0.035294
0.023529 0.000000 0.058824
0.129412 0.015686 0.086275
0.278431 0.003922 0.098039
0.466667 0.043137 0.137255
0.643137 0.105882 0.168627
0.784314 0.176471 0.207843
0.909804 0.239216 0.270588
0.992157 0.325490 0.337255
0.007843 0.050980 0.074510
0.054902 0.066667 0.094118
0.164706 0.074510 0.105882
0.313725 0.098039 0.121569
0.482353 0.125490 0.145098
0.650980 0.172549 0.168627
0.780392 0.211765 0.200000
0.886275 0.262745 0.239216
0.980392 0.337255 0.333333
0.031373 0.180392 0.137255
0.137255 0.184314 0.137255
0.207843 0.164706 0.180392
0.356863 0.211765 0.149020
0.533333 0.262745 0.149020
0.678431 0.290196 0.176471
0.811765 0.317647 0.227451
0.913725 0.356863 0.278431
0.988235 0.415686 0.356863
0.176471 0.352941 0.200000
0.250980 0.360784 0.203922
0.349020 0.352941 0.219608
0.400000 0.333333 0.270588
0.529412 0.352941 0.262745
0.694118 0.407843 0.207843
0.811765 0.431373 0.231373
0.898039 0.443137 0.282353
0.976471 0.470588 0.349020
0.333333 0.552941 0.298039
0.384314 0.560784 0.298039
0.478431 0.560784 0.305882
0.560784 0.556863 0.345098
0.596078 0.517647 0.380392
0.678431 0.513725 0.427451
0.819608 0.549020 0.384314
0.925490 0.576471 0.356863
0.984314 0.600000 0.423529
0.470588 0.709804 0.407843
0.501961 0.705882 0.411765
0.568627 0.709804 0.419608
0.650980 0.701961 0.427451
0.717647 0.698039 0.470588
0.737255 0.666667 0.509804
0.780392 0.658824 0.549020
0.886275 0.674510 0.533333
0.960784 0.709804 0.537255
0.603922 0.800000 0.521569
0.623529 0.803922 0.521569
0.658824 0.800000 0.517647
0.713725 0.788235 0.529412
0.768627 0.792157 0.549020
0.807843 0.784314 0.588235
0.815686 0.760784 0.607843
0.835294 0.749020 0.658824
0.925490 0.788235 0.662745
0.729412 0.866667 0.639216
0.733333 0.874510 0.631373
0.764706 0.874510 0.643137
0.788235 0.870588 0.647059
0.831373 0.866667 0.658824
0.854902 0.870588 0.674510
0.882353 0.862745 0.705882
0.890196 0.847059 0.721569
0.917647 0.862745 0.760784
0.839216 0.933333 0.745098
0.835294 0.929412 0.741176
0.854902 0.929412 0.752941
0.866667 0.933333 0.756863
0.898039 0.933333 0.756863
0.913725 0.933333 0.772549
0.933333 0.933333 0.784314
0.952941 0.929412 0.803922
0.964706 0.925490 0.819608
0.000000 0.007843 0.145098
0.000000 0.000000 0.168627
0.086275 0.000000 0.180392
0.258824 0.054902 0.235294
0.458824 0.054902 0.274510
0.647059 0.015686 0.290196
0.800000 0.196078 0.337255
0.905882 0.278431 0.372549
0.984314 0.372549 0.423529
0.000000 0.086275 0.180392
0.000000 0.078431 0.192157
0.113725 0.066667 0.207843
0.270588 0.125490 0.254902
0.490196 0.117647 0.282353
0.650980 0.156863 0.301961
0.788235 0.231373 0.333333
0.901961 0.294118 0.364706
0.992157 0.380392 0.431373
0.023529 0.176471 0.243137
0.101961 0.184314 0.266667
0.203922 0.215686 0.274510
0.364706 0.231373 0.286275
0.533333 0.254902 0.309804
0.690196 0.294118 0.325490
0.807843 0.333333 0.360784
0.913725 0.384314 0.400000
0.976471 0.443137 0.443137
0.007843 0.372549 0.329412
0.070588 0.388235 0.329412
0.317647 0.388235 0.325490
0.403922 0.372549 0.360784
0.556863 0.392157 0.337255
0.690196 0.427451 0.321569
0.807843 0.443137 0.372549
0.894118 0.458824 0.384314
0.968627 0.498039 0.435294
0.227451 0.572549 0.376471
0.301961 0.572549 0.388235
0.435294 0.576471 0.403922
0.549020 0.568627 0.407843
0.600000 0.541176 0.450980
0.690196 0.541176 0.466667
0.823529 0.572549 0.431373
0.909804 0.588235 0.431373
0.972549 0.619608 0.486275
0.447059 0.717647 0.470588
0.482353 0.717647 0.482353
0.552941 0.709804 0.474510
0.639216 0.709804 0.482353
0.709804 0.709804 0.513725
0.729412 0.678431 0.541176
0.780392 0.674510 0.568627
0.886275 0.694118 0.564706
0.964706 0.713725 0.564706
0.584314 0.800000 0.545098
0.603922 0.803922 0.545098
0.643137 0.800000 0.552941
0.705882 0.800000 0.564706
0.756863 0.792157 0.576471
0.803922 0.788235 0.603922
0.819608 0.768627 0.635294
0.835294 0.764706 0.670588
0.925490 0.796078 0.666667
0.717647 0.870588 0.654902
0.737255 0.866667 0.658824
0.752941 0.866667 0.654902
0.780392 0.870588 0.666667
0.823529 0.862745 0.666667
0.847059 0.870588 0.690196
0.874510 0.862745 0.701961
0.894118 0.850980 0.733333
0.909804 0.850980 0.776471
0.827451 0.929412 0.745098
0.827451 0.929412 0.745098
0.847059 0.933333 0.749020
0.858824 0.929412 0.764706
0.886275 0.929412 0.760784
0.909804 0.929412 0.772549
0.937255 0.929412 0.780392
0.949020 0.929412 0.803922
0.968627 0.925490 0.847059
0.003922 0.058824 0.298039
0.000000 0.047059 0.294118
0.000000 0.031373 0.325490
0.184314 0.003922 0.349020
0.439216 0.054902 0.396078
0.603922 0.196078 0.443137
0.772549 0.231373 0.466667
0.898039 0.305882 0.482353
0.972549 0.431373 0.529412
0.000000 0.141176 0.333333
0.000000 0.113725 0.333333
0.007843 0.082353 0.341176
0.215686 0.066667 0.368627
0.443137 0.149020 0.419608
0.619608 0.239216 0.450980
0.780392 0.258824 0.466667
0.890196 0.321569 0.482353
0.952941 0.462745 0.533333
0.035294 0.239216 0.384314
0.094118 0.250980 0.388235
0.145098 0.235294 0.407843
0.298039 0.207843 0.419608
0.494118 0.313725 0.454902
0.650980 0.329412 0.470588
0.796078 0.364706 0.470588
0.886275 0.450980 0.513725
0.960784 0.517647 0.533333
0.094118 0.360784 0.443137
0.164706 0.372549 0.443137
0.282353 0.396078 0.458824
0.415686 0.423529 0.474510
0.568627 0.439216 0.474510
0.686275 0.454902 0.478431
0.796078 0.474510 0.490196
0.874510 0.505882 0.505882
0.952941 0.545098 0.533333
0.105882 0.588235 0.517647
0.207843 0.588235 0.513725
0.341176 0.596078 0.501961
0.505882 0.592157 0.501961
0.596078 0.584314 0.525490
0.713725 0.588235 0.529412
0.811765 0.607843 0.521569
0.898039 0.619608 0.533333
0.960784 0.654902 0.576471
0.388235 0.725490 0.541176
0.423529 0.733333 0.549020
0.513725 0.721569 0.556863
0.611765 0.717647 0.556863
0.698039 0.721569 0.572549
0.729412 0.701961 0.600000
0.784314 0.698039 0.603922
0.878431 0.717647 0.600000
0.945098 0.733333 0.592157
0.580392 0.803922 0.603922
0.603922 0.807843 0.619608
0.631373 0.803922 0.611765
0.694118 0.803922 0.615686
0.764706 0.800000 0.623529
0.803922 0.796078 0.643137
0.815686 0.780392 0.666667
0.839216 0.784314 0.682353
0.925490 0.803922 0.690196
0.705882 0.870588 0.682353
0.721569 0.862745 0.682353
0.741176 0.874510 0.678431
0.768627 0.878431 0.690196
0.811765 0.874510 0.698039
0.854902 0.862745 0.705882
0.882353 0.866667 0.721569
0.898039 0.862745 0.749020
0.909804 0.858824 0.792157
0.811765 0.937255 0.745098
0.819608 0.929412 0.768627
0.835294 0.933333 0.768627
0.866667 0.929412 0.776471
0.882353 0.929412 0.780392
0.909804 0.933333 0.784314
0.933333 0.933333 0.800000
0.960784 0.933333 0.819608
0.956863 0.933333 0.847059
0.003922 0.129412 0.454902
0.000000 0.101961 0.450980
0.000000 0.070588 0.454902
0.035294 0.039216 0.454902
0.313725 0.000000 0.474510
0.588235 0.082353 0.545098
0.737255 0.329412 0.568627
0.858824 0.419608 0.600000
0.945098 0.494118 0.607843
0.003922 0.172549 0.478431
0.000000 0.176471 0.478431
0.000000 0.133333 0.474510
0.070588 0.090196 0.482353
0.329412 0.058824 0.486275
0.588235 0.172549 0.525490
0.729412 0.368627 0.568627
0.854902 0.431373 0.572549
0.941176 0.513725 0.603922
0.000000 0.309804 0.517647
0.011765 0.309804 0.513725
0.035294 0.270588 0.513725
0.172549 0.227451 0.513725
0.388235 0.203922 0.521569
0.635294 0.329412 0.564706
0.752941 0.462745 0.592157
0.858824 0.509804 0.596078
0.945098 0.568627 0.623529
0.215686 0.435294 0.533333
0.258824 0.435294 0.549020
0.349020 0.458824 0.552941
0.380392 0.439216 0.560784
0.482353 0.392157 0.556863
0.650980 0.505882 0.576471
0.772549 0.533333 0.592157
0.854902 0.549020 0.600000
0.917647 0.596078 0.611765
0.305882 0.560784 0.584314
0.349020 0.564706 0.592157
0.407843 0.576471 0.600000
0.509804 0.592157 0.596078
0.607843 0.623529 0.619608
0.694118 0.635294 0.615686
0.800000 0.639216 0.615686
0.870588 0.654902 0.627451
0.929412 0.694118 0.650980
0.400000 0.725490 0.647059
0.423529 0.725490 0.647059
0.486275 0.729412 0.639216
0.564706 0.737255 0.639216
0.674510 0.729412 0.627451
0.725490 0.721569 0.643137
0.800000 0.733333 0.654902
0.878431 0.745098 0.639216
0.945098 0.756863 0.666667
0.568627 0.811765 0.666667
0.572549 0.807843 0.666667
0.607843 0.811765 0.662745
0.666667 0.807843 0.666667
0.733333 0.811765 0.674510
0.792157 0.807843 0.678431
0.819608 0.788235 0.698039
0.858824 0.792157 0.713725
0.937255 0.819608 0.709804
0.694118 0.870588 0.717647
0.705882 0.870588 0.713725
0.725490 0.874510 0.713725
0.752941 0.878431 0.725490
0.796078 0.878431 0.725490
0.847059 0.878431 0.733333
0.874510 0.874510 0.741176
0.886275 0.862745 0.760784
0.913725 0.870588 0.792157
0.796078 0.933333 0.776471
0.811765 0.937255 0.792157
0.815686 0.937255 0.776471
0.831373 0.933333 0.780392
0.866667 0.933333 0.792157
0.894118 0.933333 0.796078
0.933333 0.937255 0.811765
0.949020 0.933333 0.819608
0.960784 0.937255 0.850980
0.000000 0.192157 0.556863
0.003922 0.176471 0.564706
0.003922 0.137255 0.568627
0.000000 0.105882 0.564706
0.184314 0.043137 0.560784
0.423529 0.000000 0.572549
0.698039 0.156863 0.635294
0.831373 0.415686 0.658824
0.890196 0.603922 0.678431
0.000000 0.235294 0.584314
0.000000 0.223529 0.576471
0.000000 0.192157 0.580392
0.000000 0.145098 0.572549
0.188235 0.086275 0.568627
0.431373 0.066667 0.588235
0.690196 0.207843 0.627451
0.819608 0.435294 0.658824
0.890196 0.596078 0.686275
0.000000 0.356863 0.619608
0.000000 0.337255 0.600000
0.007843 0.313725 0.607843
0.047059 0.258824 0.603922
0.258824 0.219608 0.600000
0.482353 0.203922 0.611765
0.729412 0.345098 0.647059
0.827451 0.537255 0.674510
0.890196 0.639216 0.694118
0.270588 0.482353 0.615686
0.305882 0.486275 0.627451
0.341176 0.482353 0.623529
0.337255 0.443137 0.627451
0.364706 0.380392 0.619608
0.533333 0.356863 0.611765
0.733333 0.486275 0.654902
0.815686 0.615686 0.682353
0.894118 0.647059 0.690196
0.407843 0.600000 0.666667
0.439216 0.603922 0.650980
0.494118 0.619608 0.662745
0.568627 0.635294 0.666667
0.564706 0.611765 0.674510
0.631373 0.576471 0.666667
0.764706 0.666667 0.690196
0.847059 0.694118 0.698039
0.913725 0.713725 0.709804
0.501961 0.698039 0.686275
0.517647 0.698039 0.686275
0.552941 0.705882 0.694118
0.611765 0.717647 0.698039
0.670588 0.729412 0.701961
0.725490 0.749020 0.709804
0.792157 0.752941 0.705882
0.862745 0.752941 0.709804
0.921569 0.772549 0.729412
0.545098 0.807843 0.737255
0.568627 0.807843 0.749020
0.603922 0.811765 0.733333
0.635294 0.811765 0.721569
0.690196 0.815686 0.733333
0.764706 0.815686 0.713725
0.807843 0.803922 0.733333
0.866667 0.803922 0.745098
0.929412 0.819608 0.733333
0.686275 0.878431 0.764706
0.694118 0.874510 0.764706
0.701961 0.878431 0.764706
0.725490 0.882353 0.745098
0.776471 0.878431 0.764706
0.819608 0.878431 0.756863
0.866667 0.878431 0.772549
0.894118 0.866667 0.792157
0.917647 0.886275 0.811765
0.764706 0.937255 0.800000
0.776471 0.941176 0.800000
0.780392 0.945098 0.796078
0.803922 0.945098 0.803922
0.839216 0.941176 0.803922
0.878431 0.937255 0.807843
0.921569 0.941176 0.823529
0.945098 0.937255 0.839216
0.960784 0.933333 0.858824
0.000000 0.270588 0.678431
0.000000 0.262745 0.674510
0.003922 0.227451 0.678431
0.000000 0.188235 0.662745
0.062745 0.149020 0.678431
0.290196 0.050980 0.650980
0.525490 0.011765 0.662745
0.768627 0.239216 0.709804
0.898039 0.525490 0.745098
0.003922 0.305882 0.666667
0.000000 0.301961 0.666667
0.000000 0.266667 0.686275
0.003922 0.219608 0.678431
0.070588 0.180392 0.674510
0.301961 0.090196 0.662745
0.521569 0.078431 0.666667
0.768627 0.266667 0.694118
0.901961 0.533333 0.737255
0.000000 0.403922 0.698039
0.000000 0.400000 0.694118
0.000000 0.376471 0.705882
0.000000 0.321569 0.682353
0.192157 0.274510 0.694118
0.321569 0.200000 0.670588
0.556863 0.211765 0.682353
0.792157 0.376471 0.721569
0.894118 0.611765 0.756863
0.325490 0.537255 0.686275
0.349020 0.533333 0.698039
0.352941 0.517647 0.705882
0.321569 0.474510 0.705882
0.313725 0.415686 0.709804
0.392157 0.341176 0.686275
0.580392 0.345098 0.690196
0.800000 0.494118 0.721569
0.878431 0.662745 0.737255
0.517647 0.658824 0.713725
0.545098 0.678431 0.725490
0.541176 0.662745 0.733333
0.560784 0.662745 0.721569
0.537255 0.611765 0.729412
0.525490 0.541176 0.717647
0.647059 0.521569 0.713725
0.827451 0.650980 0.741176
0.882353 0.760784 0.780392
0.596078 0.733333 0.741176
0.607843 0.741176 0.749020
0.627451 0.737255 0.749020
0.670588 0.749020 0.752941
0.701961 0.760784 0.749020
0.698039 0.733333 0.752941
0.737255 0.694118 0.749020
0.835294 0.772549 0.772549
0.898039 0.796078 0.792157
0.615686 0.784314 0.749020
0.639216 0.780392 0.772549
0.650980 0.788235 0.764706
0.686275 0.792157 0.764706
0.717647 0.800000 0.780392
0.760784 0.815686 0.764706
0.807843 0.819608 0.784314
0.866667 0.815686 0.780392
0.929412 0.839216 0.784314
0.678431 0.866667 0.811765
0.674510 0.870588 0.835294
0.686275 0.874510 0.819608
0.717647 0.878431 0.807843
0.749020 0.878431 0.803922
0.796078 0.886275 0.815686
0.847059 0.878431 0.796078
0.886275 0.874510 0.815686
0.933333 0.886275 0.823529
0.760784 0.937255 0.854902
0.764706 0.937255 0.839216
0.772549 0.941176 0.835294
0.788235 0.937255 0.839216
0.807843 0.941176 0.835294
0.843137 0.945098 0.839216
0.898039 0.949020 0.847059
0.941176 0.941176 0.847059
0.964706 0.941176 0.878431
0.000000 0.388235 0.772549
0.000000 0.376471 0.776471
0.000000 0.356863 0.776471
0.003922 0.313725 0.776471
0.015686 0.270588 0.772549
0.239216 0.211765 0.768627
0.396078 0.074510 0.749020
0.627451 0.129412 0.776471
0.847059 0.368627 0.796078
0.000000 0.403922 0.764706
0.000000 0.403922 0.776471
0.000000 0.380392 0.776471
0.003922 0.333333 0.772549
0.019608 0.294118 0.772549
0.258824 0.227451 0.764706
0.384314 0.105882 0.749020
0.627451 0.152941 0.752941
0.847059 0.380392 0.772549
0.196078 0.486275 0.764706
0.211765 0.494118 0.784314
0.192157 0.478431 0.788235
0.168627 0.423529 0.776471
0.203922 0.372549 0.784314
0.301961 0.313725 0.772549
0.411765 0.211765 0.764706
0.635294 0.254902 0.768627
0.843137 0.454902 0.776471
0.415686 0.600000 0.764706
0.415686 0.596078 0.788235
0.411765 0.580392 0.780392
0.376471 0.552941 0.784314
0.352941 0.486275 0.776471
0.368627 0.411765 0.764706
0.443137 0.313725 0.764706
0.643137 0.333333 0.752941
0.854902 0.521569 0.784314
0.580392 0.705882 0.788235
0.596078 0.717647 0.800000
0.596078 0.705882 0.792157
0.572549 0.690196 0.784314
0.552941 0.647059 0.796078
0.509804 0.576471 0.780392
0.521569 0.478431 0.776471
0.694118 0.490196 0.772549
0.870588 0.658824 0.792157
0.674510 0.784314 0.800000
0.678431 0.788235 0.803922
0.694118 0.792157 0.807843
0.705882 0.780392 0.803922
0.690196 0.780392 0.803922
0.678431 0.741176 0.800000
0.647059 0.666667 0.784314
0.749020 0.647059 0.792157
0.894118 0.760784 0.823529
0.694118 0.811765 0.811765
0.705882 0.823529 0.831373
0.721569 0.815686 0.815686
0.737255 0.823529 0.815686
0.749020 0.827451 0.819608
0.784314 0.831373 0.815686
0.776471 0.807843 0.815686
0.815686 0.776471 0.807843
0.901961 0.847059 0.843137
0.733333 0.850980 0.843137
0.737255 0.866667 0.831373
0.741176 0.862745 0.843137
0.764706 0.862745 0.839216
0.780392 0.870588 0.831373
0.800000 0.878431 0.835294
0.847059 0.886275 0.854902
0.882353 0.894118 0.850980
0.960784 0.894118 0.854902
0.760784 0.929412 0.890196
0.772549 0.937255 0.890196
0.776471 0.941176 0.901961
0.784314 0.941176 0.905882
0.811765 0.941176 0.898039
0.835294 0.945098 0.886275
0.866667 0.949020 0.882353
0.917647 0.945098 0.874510
0.960784 0.952941 0.901961
0.392157 0.588235 0.866667
0.388235 0.584314 0.862745
0.380392 0.572549 0.870588
0.360784 0.541176 0.874510
0.352941 0.505882 0.870588
0.368627 0.450980 0.870588
0.411765 0.364706 0.858824
0.494118 0.227451 0.866667
0.737255 0.356863 0.878431
0.384314 0.592157 0.850980
0.403922 0.588235 0.862745
0.388235 0.576471 0.858824
0.368627 0.545098 0.862745
0.349020 0.509804 0.862745
0.376471 0.450980 0.862745
0.411765 0.372549 0.854902
0.494118 0.235294 0.870588
0.725490 0.360784 0.870588
0.478431 0.647059 0.862745
0.490196 0.650980 0.862745
0.486275 0.639216 0.870588
0.458824 0.611765 0.866667
0.443137 0.572549 0.874510
0.443137 0.521569 0.870588
0.462745 0.439216 0.870588
0.517647 0.309804 0.858824
0.749020 0.423529 0.878431
0.564706 0.701961 0.850980
0.572549 0.709804 0.866667
0.556863 0.694118 0.858824
0.537255 0.670588 0.858824
0.513725 0.631373 0.866667
0.490196 0.576471 0.862745
0.498039 0.501961 0.866667
0.533333 0.380392 0.870588
0.756863 0.470588 0.882353
0.666667 0.776471 0.862745
0.674510 0.784314 0.878431
0.662745 0.772549 0.858824
0.654902 0.760784 0.866667
0.627451 0.729412 0.866667
0.603922 0.686275 0.870588
0.592157 0.623529 0.870588
0.603922 0.525490 0.874510
0.784314 0.584314 0.894118
0.745098 0.839216 0.878431
0.745098 0.839216 0.878431
0.749020 0.835294 0.878431
0.741176 0.827451 0.878431
0.729412 0.811765 0.878431
0.713725 0.784314 0.870588
0.690196 0.737255 0.894118
0.686275 0.662745 0.898039
0.831373 0.686275 0.890196
0.784314 0.862745 0.890196
0.784314 0.874510 0.898039
0.788235 0.870588 0.890196
0.792157 0.874510 0.894118
0.800000 0.874510 0.898039
0.792157 0.866667 0.894118
0.784314 0.835294 0.898039
0.768627 0.788235 0.901961
0.847059 0.772549 0.898039
0.807843 0.901961 0.909804
0.800000 0.898039 0.913725
0.803922 0.905882 0.901961
0.815686 0.898039 0.901961
0.835294 0.905882 0.905882
0.850980 0.905882 0.905882
0.866667 0.913725 0.905882
0.858824 0.894118 0.913725
0.901961 0.858824 0.913725
0.823529 0.937255 0.929412
0.831373 0.933333 0.921569
0.831373 0.933333 0.929412
0.835294 0.937255 0.925490
0.850980 0.937255 0.929412
0.866667 0.941176 0.933333
0.886275 0.945098 0.933333
0.913725 0.952941 0.921569
0.964706 0.960784 0.945098
