assets/luts/cinematic-tones-luts-pack-for-video-and-photo-2023-11-27-05-35-37-utc/Cinematic Tones_LUTs/Cinematic Tones 05.cube
#Generated with IWLTBAP LUT Generator
#Website: http://luts.iwltbap.com
TITLE "Cinematic Tones 05"
#LUT size
LUT_3D_SIZE 5
#LUT data points
0.058824 0.105882 0.160784
0.172549 0.117647 0.168627
0.317647 0.137255 0.180392
0.486275 0.176471 0.200000
0.725490 0.235294 0.211765
0.117647 0.192157 0.207843
0.192157 0.196078 0.203922
0.352941 0.219608 0.215686
0.533333 0.247059 0.223529
0.760784 0.309804 0.235294
0.219608 0.400000 0.286275
0.286275 0.403922 0.294118
0.435294 0.411765 0.278431
0.627451 0.439216 0.290196
0.850980 0.505882 0.317647
0.403922 0.686275 0.427451
0.458824 0.701961 0.454902
0.564706 0.698039 0.458824
0.713725 0.701961 0.431373
0.921569 0.749020 0.470588
0.717647 0.956863 0.725490
0.745098 0.956863 0.729412
0.792157 0.964706 0.756863
0.862745 0.968627 0.760784
0.984314 0.984314 0.772549
0.098039 0.113725 0.227451
0.200000 0.121569 0.231373
0.352941 0.121569 0.247059
0.486275 0.156863 0.247059
0.721569 0.203922 0.258824
0.129412 0.200000 0.254902
0.211765 0.203922 0.247059
0.349020 0.219608 0.262745
0.521569 0.235294 0.270588
0.752941 0.282353 0.278431
0.250980 0.384314 0.321569
0.294118 0.400000 0.333333
0.435294 0.411765 0.325490
0.619608 0.435294 0.333333
0.835294 0.486275 0.352941
0.411765 0.674510 0.462745
0.470588 0.686275 0.470588
0.580392 0.698039 0.494118
0.713725 0.694118 0.466667
0.913725 0.741176 0.486275
0.709804 0.949020 0.717647
0.741176 0.956863 0.741176
0.784314 0.968627 0.764706
0.858824 0.968627 0.768627
0.972549 0.984314 0.776471
0.207843 0.121569 0.364706
0.286275 0.121569 0.368627
0.431373 0.105882 0.380392
0.615686 0.074510 0.411765
0.803922 0.000000 0.372549
0.196078 0.211765 0.396078
0.290196 0.203922 0.384314
0.443137 0.200000 0.392157
0.623529 0.184314 0.411765
0.800000 0.117647 0.356863
0.243137 0.388235 0.419608
0.301961 0.392157 0.415686
0.443137 0.400000 0.423529
0.603922 0.400000 0.415686
0.831373 0.419608 0.403922
0.435294 0.658824 0.533333
0.482353 0.666667 0.533333
0.580392 0.698039 0.564706
0.717647 0.698039 0.541176
0.929412 0.745098 0.564706
0.705882 0.949020 0.756863
0.725490 0.960784 0.760784
0.800000 0.964706 0.784314
0.874510 0.972549 0.815686
0.976471 0.980392 0.815686
0.384314 0.133333 0.580392
0.439216 0.129412 0.580392
0.576471 0.078431 0.584314
0.721569 0.000000 0.572549
0.905882 0.000000 0.619608
0.360784 0.231373 0.588235
0.431373 0.231373 0.603922
0.580392 0.196078 0.584314
0.737255 0.164706 0.592157
0.921569 0.172549 0.627451
0.317647 0.450980 0.631373
0.376471 0.447059 0.635294
0.552941 0.427451 0.623529
0.733333 0.384314 0.603922
0.937255 0.403922 0.654902
0.388235 0.639216 0.639216
0.435294 0.650980 0.639216
0.545098 0.662745 0.662745
0.701961 0.662745 0.654902
0.921569 0.662745 0.615686
0.647059 0.949020 0.815686
0.670588 0.952941 0.807843
0.768627 0.960784 0.847059
0.882353 0.976471 0.882353
0.988235 0.988235 0.886275
0.592157 0.243137 0.894118
0.643137 0.239216 0.901961
0.756863 0.215686 0.898039
0.929412 0.149020 0.898039
1.000000 0.094118 0.878431
0.576471 0.333333 0.909804
0.623529 0.333333 0.909804
0.745098 0.321569 0.901961
0.921569 0.270588 0.898039
1.000000 0.235294 0.901961
0.513725 0.537255 0.921569
0.564706 0.525490 0.913725
0.698039 0.505882 0.917647
0.890196 0.474510 0.909804
0.992157 0.443137 0.933333
0.552941 0.784314 0.956863
0.576471 0.776471 0.952941
0.650980 0.772549 0.945098
0.831373 0.733333 0.949020
0.996078 0.705882 0.945098
0.662745 0.976471 0.980392
0.682353 0.972549 0.976471
0.745098 0.980392 0.980392
0.843137 0.984314 0.984314
0.996078 1.000000 1.000000
