assets/luts/cinematic-tones-luts-pack-for-video-and-photo-2023-11-27-05-35-37-utc/Cinematic Tones_LUTs/Cinematic Tones 03.cube
#Generated with IWLTBAP LUT Generator
#Website: http://luts.iwltbap.com
TITLE "Cinematic Tones 03"
#LUT size
LUT_3D_SIZE 25
#LUT data points
0.000000 0.003922 0.000000
0.000000 0.000000 0.000000
0.003922 0.000000 0.000000
0.031373 0.000000 0.000000
0.074510 0.003922 0.003922
0.105882 0.007843 0.000000
0.145098 0.007843 0.000000
0.180392 0.000000 0.007843
0.231373 0.003922 0.000000
0.278431 0.011765 0.000000
0.341176 0.039216 0.015686
0.396078 0.047059 0.015686
0.458824 0.062745 0.031373
0.517647 0.082353 0.039216
0.580392 0.101961 0.043137
0.639216 0.117647 0.058824
0.698039 0.133333 0.090196
0.741176 0.152941 0.086275
0.792157 0.176471 0.101961
0.835294 0.196078 0.137255
0.870588 0.211765 0.168627
0.913725 0.231373 0.188235
0.949020 0.254902 0.215686
0.980392 0.278431 0.258824
1.000000 0.317647 0.290196
0.003922 0.000000 0.000000
0.000000 0.000000 0.007843
0.000000 0.000000 0.007843
0.043137 0.011765 0.000000
0.082353 0.003922 0.000000
0.105882 0.011765 0.003922
0.152941 0.015686 0.000000
0.176471 0.015686 0.000000
0.227451 0.031373 0.003922
0.290196 0.047059 0.003922
0.341176 0.058824 0.003922
0.396078 0.070588 0.015686
0.447059 0.082353 0.015686
0.517647 0.098039 0.027451
0.584314 0.113725 0.047059
0.647059 0.133333 0.054902
0.694118 0.149020 0.074510
0.752941 0.168627 0.090196
0.796078 0.188235 0.117647
0.835294 0.200000 0.141176
0.878431 0.223529 0.160784
0.917647 0.243137 0.196078
0.941176 0.258824 0.223529
0.968627 0.290196 0.262745
0.996078 0.317647 0.294118
0.011765 0.007843 0.000000
0.007843 0.011765 0.000000
0.015686 0.007843 0.011765
0.047059 0.007843 0.000000
0.082353 0.023529 0.000000
0.125490 0.031373 0.000000
0.160784 0.031373 0.003922
0.200000 0.043137 0.003922
0.239216 0.054902 0.000000
0.294118 0.066667 0.011765
0.349020 0.078431 0.019608
0.407843 0.090196 0.015686
0.470588 0.109804 0.019608
0.525490 0.125490 0.035294
0.580392 0.145098 0.039216
0.643137 0.152941 0.066667
0.701961 0.168627 0.082353
0.749020 0.180392 0.098039
0.796078 0.203922 0.121569
0.835294 0.223529 0.137255
0.874510 0.235294 0.168627
0.909804 0.254902 0.192157
0.945098 0.278431 0.227451
0.972549 0.305882 0.247059
1.000000 0.325490 0.298039
0.019608 0.043137 0.003922
0.031373 0.047059 0.000000
0.050980 0.035294 0.000000
0.062745 0.035294 0.000000
0.074510 0.031373 0.023529
0.121569 0.050980 0.011765
0.168627 0.066667 0.007843
0.215686 0.078431 0.000000
0.254902 0.090196 0.003922
0.313725 0.098039 0.019608
0.364706 0.113725 0.015686
0.415686 0.125490 0.011765
0.470588 0.145098 0.027451
0.537255 0.149020 0.035294
0.596078 0.168627 0.054902
0.650980 0.184314 0.066667
0.694118 0.192157 0.078431
0.752941 0.203922 0.098039
0.796078 0.223529 0.125490
0.835294 0.239216 0.145098
0.878431 0.250980 0.164706
0.913725 0.266667 0.188235
0.952941 0.286275 0.219608
0.968627 0.309804 0.258824
1.000000 0.341176 0.298039
0.043137 0.078431 0.003922
0.062745 0.078431 0.011765
0.074510 0.078431 0.023529
0.101961 0.074510 0.035294
0.090196 0.070588 0.054902
0.113725 0.070588 0.054902
0.156863 0.086275 0.047059
0.215686 0.105882 0.023529
0.270588 0.125490 0.019608
0.329412 0.137255 0.019608
0.380392 0.141176 0.019608
0.427451 0.160784 0.023529
0.494118 0.168627 0.035294
0.549020 0.184314 0.050980
0.603922 0.196078 0.050980
0.654902 0.215686 0.066667
0.705882 0.227451 0.082353
0.745098 0.235294 0.109804
0.792157 0.247059 0.125490
0.839216 0.258824 0.149020
0.874510 0.270588 0.168627
0.905882 0.286275 0.188235
0.933333 0.305882 0.219608
0.956863 0.317647 0.243137
0.992157 0.341176 0.278431
0.082353 0.117647 0.043137
0.090196 0.121569 0.031373
0.113725 0.125490 0.058824
0.121569 0.125490 0.062745
0.133333 0.121569 0.054902
0.141176 0.105882 0.078431
0.164706 0.105882 0.094118
0.219608 0.125490 0.078431
0.270588 0.152941 0.058824
0.341176 0.172549 0.039216
0.407843 0.192157 0.031373
0.466667 0.203922 0.027451
0.521569 0.215686 0.035294
0.572549 0.235294 0.043137
0.627451 0.243137 0.050980
0.678431 0.254902 0.074510
0.729412 0.262745 0.094118
0.768627 0.274510 0.117647
0.819608 0.282353 0.141176
0.854902 0.298039 0.156863
0.894118 0.309804 0.180392
0.917647 0.325490 0.211765
0.949020 0.337255 0.247059
0.972549 0.360784 0.274510
0.996078 0.380392 0.321569
0.109804 0.172549 0.058824
0.117647 0.168627 0.066667
0.149020 0.168627 0.078431
0.164706 0.164706 0.054902
0.188235 0.168627 0.090196
0.196078 0.168627 0.098039
0.192157 0.152941 0.105882
0.215686 0.145098 0.137255
0.278431 0.168627 0.121569
0.337255 0.188235 0.105882
0.407843 0.219608 0.078431
0.474510 0.247059 0.050980
0.537255 0.266667 0.050980
0.584314 0.274510 0.050980
0.639216 0.290196 0.070588
0.686275 0.290196 0.086275
0.729412 0.305882 0.113725
0.776471 0.313725 0.125490
0.819608 0.325490 0.137255
0.854902 0.333333 0.164706
0.890196 0.345098 0.192157
0.925490 0.349020 0.219608
0.952941 0.368627 0.243137
0.976471 0.384314 0.278431
1.000000 0.407843 0.325490
0.141176 0.219608 0.082353
0.160784 0.227451 0.086275
0.176471 0.219608 0.086275
0.203922 0.235294 0.090196
0.227451 0.223529 0.105882
0.239216 0.223529 0.125490
0.258824 0.219608 0.121569
0.266667 0.203922 0.152941
0.278431 0.200000 0.164706
0.333333 0.219608 0.164706
0.403922 0.239216 0.145098
0.478431 0.266667 0.125490
0.537255 0.298039 0.086275
0.600000 0.325490 0.054902
0.650980 0.333333 0.078431
0.701961 0.341176 0.094118
0.749020 0.345098 0.113725
0.780392 0.352941 0.129412
0.819608 0.360784 0.149020
0.866667 0.372549 0.176471
0.898039 0.376471 0.207843
0.925490 0.380392 0.227451
0.960784 0.392157 0.270588
0.976471 0.415686 0.282353
0.996078 0.431373 0.329412
0.192157 0.282353 0.109804
0.203922 0.274510 0.109804
0.215686 0.286275 0.121569
0.243137 0.286275 0.121569
0.266667 0.294118 0.121569
0.290196 0.282353 0.129412
0.309804 0.290196 0.141176
0.325490 0.282353 0.156863
0.325490 0.266667 0.176471
0.341176 0.254902 0.203922
0.388235 0.262745 0.211765
0.462745 0.290196 0.192157
0.533333 0.313725 0.168627
0.603922 0.345098 0.149020
0.658824 0.368627 0.121569
0.709804 0.388235 0.098039
0.756863 0.392157 0.117647
0.800000 0.392157 0.145098
0.823529 0.396078 0.164706
0.854902 0.403922 0.188235
0.886275 0.407843 0.207843
0.925490 0.423529 0.247059
0.945098 0.431373 0.266667
0.976471 0.443137 0.294118
0.992157 0.454902 0.321569
0.235294 0.345098 0.152941
0.231373 0.349020 0.145098
0.262745 0.352941 0.141176
0.278431 0.349020 0.145098
0.317647 0.352941 0.145098
0.341176 0.356863 0.156863
0.360784 0.352941 0.164706
0.384314 0.349020 0.180392
0.396078 0.345098 0.207843
0.396078 0.329412 0.227451
0.415686 0.309804 0.243137
0.450980 0.317647 0.270588
0.525490 0.349020 0.235294
0.584314 0.368627 0.215686
0.650980 0.392157 0.196078
0.705882 0.407843 0.180392
0.756863 0.427451 0.152941
0.796078 0.435294 0.149020
0.827451 0.439216 0.172549
0.862745 0.439216 0.188235
0.890196 0.439216 0.215686
0.917647 0.447059 0.243137
0.945098 0.454902 0.274510
0.968627 0.462745 0.305882
0.992157 0.474510 0.325490
0.290196 0.431373 0.180392
0.298039 0.435294 0.176471
0.313725 0.439216 0.184314
0.337255 0.439216 0.184314
0.364706 0.439216 0.188235
0.392157 0.439216 0.196078
0.407843 0.439216 0.207843
0.439216 0.443137 0.215686
0.466667 0.427451 0.235294
0.474510 0.415686 0.254902
0.482353 0.400000 0.286275
0.482353 0.384314 0.298039
0.525490 0.388235 0.313725
0.580392 0.403922 0.313725
0.654902 0.427451 0.282353
0.713725 0.447059 0.262745
0.760784 0.458824 0.239216
0.796078 0.478431 0.219608
0.843137 0.486275 0.207843
0.874510 0.494118 0.227451
0.905882 0.490196 0.254902
0.929412 0.494118 0.278431
0.956863 0.501961 0.301961
0.980392 0.513725 0.345098
1.000000 0.525490 0.364706
0.325490 0.486275 0.211765
0.333333 0.490196 0.215686
0.345098 0.494118 0.207843
0.372549 0.505882 0.215686
0.407843 0.494118 0.211765
0.435294 0.498039 0.219608
0.454902 0.498039 0.239216
0.474510 0.494118 0.235294
0.505882 0.498039 0.258824
0.521569 0.494118 0.278431
0.529412 0.478431 0.301961
0.549020 0.458824 0.325490
0.556863 0.435294 0.352941
0.584314 0.439216 0.376471
0.635294 0.462745 0.356863
0.701961 0.474510 0.325490
0.745098 0.494118 0.313725
0.792157 0.505882 0.298039
0.831373 0.517647 0.286275
0.874510 0.529412 0.282353
0.909804 0.537255 0.278431
0.929412 0.537255 0.294118
0.952941 0.541176 0.317647
0.968627 0.545098 0.352941
0.992157 0.564706 0.396078
0.376471 0.549020 0.247059
0.368627 0.552941 0.239216
0.388235 0.552941 0.262745
0.411765 0.552941 0.262745
0.431373 0.560784 0.250980
0.466667 0.560784 0.262745
0.498039 0.560784 0.274510
0.517647 0.556863 0.286275
0.541176 0.549020 0.294118
0.564706 0.549020 0.301961
0.580392 0.545098 0.321569
0.584314 0.537255 0.341176
0.592157 0.513725 0.368627
0.607843 0.490196 0.380392
0.627451 0.490196 0.411765
0.678431 0.505882 0.400000
0.733333 0.521569 0.380392
0.780392 0.541176 0.364706
0.827451 0.545098 0.356863
0.862745 0.549020 0.349020
0.886275 0.564706 0.345098
0.921569 0.572549 0.345098
0.952941 0.576471 0.337255
0.968627 0.580392 0.364706
0.992157 0.600000 0.407843
0.400000 0.600000 0.290196
0.427451 0.603922 0.286275
0.427451 0.611765 0.294118
0.443137 0.607843 0.286275
0.462745 0.607843 0.301961
0.498039 0.607843 0.305882
0.521569 0.603922 0.301961
0.552941 0.607843 0.313725
0.568627 0.607843 0.329412
0.592157 0.603922 0.333333
0.607843 0.603922 0.341176
0.619608 0.596078 0.360784
0.643137 0.580392 0.388235
0.643137 0.568627 0.403922
0.654902 0.552941 0.423529
0.678431 0.545098 0.439216
0.709804 0.556863 0.443137
0.760784 0.568627 0.439216
0.803922 0.576471 0.427451
0.850980 0.588235 0.419608
0.878431 0.588235 0.411765
0.901961 0.603922 0.400000
0.941176 0.607843 0.396078
0.968627 0.611765 0.403922
1.000000 0.623529 0.423529
0.439216 0.650980 0.321569
0.450980 0.654902 0.333333
0.462745 0.654902 0.333333
0.486275 0.647059 0.337255
0.494118 0.654902 0.345098
0.517647 0.654902 0.341176
0.549020 0.654902 0.345098
0.576471 0.658824 0.356863
0.592157 0.647059 0.352941
0.611765 0.650980 0.364706
0.647059 0.650980 0.384314
0.670588 0.650980 0.400000
0.678431 0.639216 0.400000
0.690196 0.627451 0.427451
0.686275 0.611765 0.447059
0.694118 0.600000 0.458824
0.713725 0.588235 0.490196
0.745098 0.600000 0.494118
0.788235 0.615686 0.478431
0.819608 0.615686 0.458824
0.866667 0.623529 0.462745
0.882353 0.631373 0.458824
0.921569 0.635294 0.458824
0.952941 0.639216 0.447059
0.968627 0.647059 0.450980
0.498039 0.713725 0.388235
0.505882 0.713725 0.392157
0.509804 0.713725 0.392157
0.525490 0.709804 0.392157
0.545098 0.709804 0.388235
0.560784 0.705882 0.392157
0.592157 0.713725 0.407843
0.619608 0.705882 0.411765
0.639216 0.701961 0.407843
0.654902 0.701961 0.403922
0.674510 0.705882 0.419608
0.694118 0.701961 0.443137
0.717647 0.694118 0.450980
0.733333 0.690196 0.470588
0.729412 0.678431 0.474510
0.733333 0.666667 0.494118
0.745098 0.658824 0.513725
0.764706 0.647059 0.537255
0.792157 0.650980 0.549020
0.823529 0.662745 0.545098
0.847059 0.666667 0.525490
0.890196 0.678431 0.529412
0.917647 0.686275 0.529412
0.937255 0.698039 0.525490
0.964706 0.713725 0.541176
0.529412 0.737255 0.415686
0.541176 0.745098 0.423529
0.537255 0.745098 0.423529
0.564706 0.737255 0.443137
0.568627 0.741176 0.431373
0.592157 0.737255 0.431373
0.611765 0.741176 0.431373
0.639216 0.745098 0.435294
0.654902 0.745098 0.439216
0.674510 0.737255 0.458824
0.694118 0.737255 0.466667
0.717647 0.741176 0.458824
0.733333 0.733333 0.482353
0.749020 0.729412 0.501961
0.764706 0.725490 0.494118
0.772549 0.701961 0.513725
0.780392 0.698039 0.529412
0.780392 0.690196 0.556863
0.784314 0.694118 0.572549
0.800000 0.694118 0.580392
0.843137 0.705882 0.588235
0.878431 0.709804 0.576471
0.905882 0.717647 0.576471
0.933333 0.729412 0.584314
0.945098 0.725490 0.580392
0.572549 0.772549 0.470588
0.572549 0.772549 0.462745
0.588235 0.772549 0.466667
0.588235 0.768627 0.474510
0.607843 0.780392 0.478431
0.615686 0.776471 0.466667
0.643137 0.768627 0.470588
0.662745 0.772549 0.478431
0.678431 0.772549 0.482353
0.701961 0.772549 0.482353
0.721569 0.764706 0.494118
0.741176 0.768627 0.501961
0.745098 0.764706 0.505882
0.768627 0.764706 0.513725
0.780392 0.760784 0.533333
0.792157 0.752941 0.545098
0.792157 0.745098 0.556863
0.792157 0.733333 0.580392
0.803922 0.725490 0.596078
0.815686 0.721569 0.611765
0.831373 0.733333 0.615686
0.843137 0.737255 0.623529
0.882353 0.745098 0.619608
0.913725 0.760784 0.631373
0.933333 0.764706 0.631373
0.607843 0.807843 0.505882
0.611765 0.800000 0.509804
0.615686 0.796078 0.501961
0.631373 0.800000 0.517647
0.635294 0.792157 0.513725
0.650980 0.800000 0.513725
0.666667 0.796078 0.517647
0.682353 0.800000 0.517647
0.705882 0.796078 0.521569
0.733333 0.792157 0.521569
0.749020 0.792157 0.525490
0.756863 0.792157 0.529412
0.772549 0.792157 0.541176
0.776471 0.796078 0.537255
0.796078 0.796078 0.560784
0.807843 0.784314 0.580392
0.811765 0.780392 0.588235
0.823529 0.768627 0.592157
0.831373 0.760784 0.603922
0.831373 0.760784 0.619608
0.827451 0.752941 0.627451
0.843137 0.760784 0.654902
0.866667 0.764706 0.658824
0.894118 0.776471 0.666667
0.929412 0.792157 0.674510
0.650980 0.819608 0.549020
0.658824 0.823529 0.541176
0.654902 0.823529 0.541176
0.658824 0.827451 0.549020
0.678431 0.819608 0.545098
0.686275 0.827451 0.552941
0.701961 0.823529 0.556863
0.717647 0.823529 0.560784
0.737255 0.819608 0.564706
0.756863 0.819608 0.564706
0.760784 0.819608 0.564706
0.772549 0.819608 0.568627
0.796078 0.815686 0.588235
0.807843 0.811765 0.584314
0.815686 0.811765 0.588235
0.827451 0.815686 0.600000
0.835294 0.811765 0.607843
0.839216 0.807843 0.623529
0.843137 0.796078 0.631373
0.847059 0.788235 0.635294
0.843137 0.784314 0.654902
0.850980 0.784314 0.666667
0.870588 0.796078 0.678431
0.882353 0.800000 0.686275
0.898039 0.815686 0.701961
0.701961 0.854902 0.607843
0.709804 0.850980 0.600000
0.709804 0.850980 0.607843
0.717647 0.850980 0.611765
0.725490 0.850980 0.603922
0.725490 0.850980 0.603922
0.737255 0.854902 0.603922
0.752941 0.850980 0.596078
0.764706 0.850980 0.607843
0.772549 0.843137 0.600000
0.788235 0.850980 0.607843
0.803922 0.847059 0.619608
0.819608 0.839216 0.619608
0.831373 0.843137 0.619608
0.831373 0.843137 0.627451
0.847059 0.847059 0.650980
0.854902 0.847059 0.658824
0.866667 0.839216 0.666667
0.866667 0.831373 0.670588
0.866667 0.831373 0.678431
0.866667 0.827451 0.686275
0.874510 0.823529 0.698039
0.878431 0.819608 0.705882
0.890196 0.827451 0.729412
0.905882 0.835294 0.741176
0.721569 0.870588 0.631373
0.733333 0.862745 0.639216
0.737255 0.866667 0.643137
0.737255 0.874510 0.623529
0.749020 0.870588 0.647059
0.752941 0.870588 0.635294
0.764706 0.862745 0.635294
0.776471 0.866667 0.647059
0.792157 0.870588 0.639216
0.803922 0.874510 0.647059
0.811765 0.870588 0.647059
0.819608 0.862745 0.643137
0.831373 0.866667 0.650980
0.843137 0.870588 0.666667
0.854902 0.862745 0.670588
0.854902 0.870588 0.674510
0.874510 0.866667 0.678431
0.890196 0.862745 0.690196
0.890196 0.862745 0.698039
0.890196 0.858824 0.705882
0.890196 0.858824 0.717647
0.890196 0.847059 0.721569
0.894118 0.850980 0.741176
0.901961 0.847059 0.741176
0.917647 0.854902 0.764706
0.768627 0.890196 0.658824
0.760784 0.894118 0.658824
0.776471 0.890196 0.670588
0.776471 0.890196 0.670588
0.780392 0.890196 0.662745
0.796078 0.886275 0.682353
0.792157 0.886275 0.682353
0.800000 0.890196 0.678431
0.807843 0.890196 0.670588
0.815686 0.890196 0.674510
0.835294 0.890196 0.682353
0.839216 0.894118 0.686275
0.850980 0.890196 0.686275
0.874510 0.890196 0.694118
0.858824 0.890196 0.690196
0.882353 0.890196 0.705882
0.894118 0.890196 0.709804
0.894118 0.890196 0.717647
0.901961 0.882353 0.717647
0.913725 0.882353 0.737255
0.913725 0.882353 0.741176
0.917647 0.874510 0.749020
0.925490 0.874510 0.749020
0.905882 0.878431 0.764706
0.937255 0.874510 0.776471
0.796078 0.898039 0.709804
0.803922 0.917647 0.705882
0.807843 0.909804 0.721569
0.803922 0.905882 0.717647
0.807843 0.913725 0.705882
0.815686 0.909804 0.713725
0.831373 0.909804 0.709804
0.831373 0.909804 0.709804
0.835294 0.913725 0.713725
0.847059 0.909804 0.725490
0.858824 0.909804 0.729412
0.862745 0.909804 0.721569
0.874510 0.913725 0.717647
0.882353 0.905882 0.733333
0.898039 0.909804 0.733333
0.901961 0.905882 0.733333
0.905882 0.909804 0.745098
0.917647 0.909804 0.749020
0.917647 0.909804 0.749020
0.921569 0.913725 0.760784
0.929412 0.905882 0.764706
0.937255 0.901961 0.780392
0.945098 0.901961 0.784314
0.937255 0.901961 0.780392
0.949020 0.894118 0.788235
0.831373 0.933333 0.745098
0.839216 0.933333 0.745098
0.831373 0.937255 0.737255
0.843137 0.937255 0.749020
0.843137 0.929412 0.745098
0.843137 0.933333 0.752941
0.839216 0.929412 0.749020
0.854902 0.933333 0.741176
0.862745 0.933333 0.745098
0.870588 0.933333 0.756863
0.878431 0.929412 0.756863
0.894118 0.941176 0.752941
0.894118 0.929412 0.752941
0.901961 0.929412 0.756863
0.909804 0.933333 0.760784
0.913725 0.933333 0.772549
0.925490 0.933333 0.780392
0.929412 0.929412 0.780392
0.929412 0.929412 0.788235
0.945098 0.933333 0.796078
0.952941 0.929412 0.796078
0.952941 0.929412 0.803922
0.964706 0.925490 0.819608
0.956863 0.929412 0.827451
0.964706 0.937255 0.835294
0.000000 0.000000 0.000000
0.000000 0.000000 0.000000
0.000000 0.000000 0.000000
0.019608 0.000000 0.000000
0.062745 0.000000 0.000000
0.113725 0.000000 0.007843
0.141176 0.000000 0.007843
0.188235 0.007843 0.019608
0.227451 0.011765 0.031373
0.282353 0.019608 0.047059
0.345098 0.035294 0.047059
0.400000 0.047059 0.047059
0.462745 0.058824 0.062745
0.517647 0.078431 0.074510
0.580392 0.098039 0.078431
0.639216 0.117647 0.090196
0.701961 0.137255 0.105882
0.741176 0.149020 0.121569
0.792157 0.168627 0.145098
0.839216 0.196078 0.160784
0.874510 0.215686 0.172549
0.913725 0.239216 0.200000
0.945098 0.258824 0.239216
0.980392 0.282353 0.274510
0.996078 0.317647 0.290196
0.003922 0.000000 0.000000
0.000000 0.003922 0.000000
0.003922 0.000000 0.000000
0.054902 0.000000 0.000000
0.082353 0.000000 0.003922
0.109804 0.007843 0.003922
0.149020 0.015686 0.019608
0.196078 0.023529 0.019608
0.231373 0.027451 0.043137
0.282353 0.039216 0.043137
0.337255 0.058824 0.050980
0.400000 0.066667 0.054902
0.462745 0.082353 0.054902
0.521569 0.094118 0.074510
0.580392 0.113725 0.090196
0.647059 0.133333 0.094118
0.694118 0.152941 0.109804
0.745098 0.164706 0.117647
0.796078 0.180392 0.145098
0.839216 0.200000 0.164706
0.878431 0.227451 0.180392
0.913725 0.243137 0.203922
0.945098 0.266667 0.239216
0.972549 0.294118 0.270588
1.000000 0.325490 0.309804
0.007843 0.003922 0.023529
0.011765 0.015686 0.000000
0.031373 0.015686 0.011765
0.054902 0.015686 0.007843
0.090196 0.023529 0.000000
0.117647 0.035294 0.023529
0.168627 0.039216 0.011765
0.203922 0.047059 0.039216
0.247059 0.050980 0.047059
0.298039 0.066667 0.050980
0.352941 0.074510 0.050980
0.407843 0.094118 0.050980
0.470588 0.109804 0.058824
0.529412 0.121569 0.070588
0.592157 0.137255 0.086275
0.643137 0.149020 0.094118
0.701961 0.168627 0.113725
0.745098 0.184314 0.121569
0.796078 0.196078 0.141176
0.843137 0.215686 0.160784
0.878431 0.235294 0.188235
0.913725 0.254902 0.203922
0.956863 0.274510 0.247059
0.972549 0.286275 0.266667
0.996078 0.325490 0.298039
0.003922 0.050980 0.011765
0.019608 0.047059 0.015686
0.050980 0.050980 0.019608
0.054902 0.039216 0.027451
0.090196 0.047059 0.031373
0.133333 0.058824 0.031373
0.172549 0.066667 0.023529
0.211765 0.078431 0.031373
0.250980 0.086275 0.031373
0.305882 0.098039 0.043137
0.356863 0.109804 0.039216
0.419608 0.125490 0.050980
0.474510 0.137255 0.078431
0.533333 0.152941 0.078431
0.592157 0.164706 0.082353
0.650980 0.176471 0.101961
0.701961 0.196078 0.121569
0.741176 0.207843 0.121569
0.788235 0.223529 0.129412
0.835294 0.239216 0.156863
0.882353 0.239216 0.192157
0.909804 0.270588 0.211765
0.937255 0.286275 0.239216
0.956863 0.317647 0.258824
1.000000 0.345098 0.301961
0.015686 0.078431 0.039216
0.054902 0.082353 0.054902
0.074510 0.082353 0.039216
0.090196 0.078431 0.050980
0.094118 0.074510 0.062745
0.117647 0.074510 0.066667
0.164706 0.090196 0.062745
0.223529 0.109804 0.047059
0.274510 0.125490 0.043137
0.325490 0.137255 0.050980
0.384314 0.145098 0.062745
0.423529 0.160784 0.058824
0.490196 0.180392 0.062745
0.541176 0.180392 0.082353
0.603922 0.196078 0.082353
0.654902 0.211765 0.078431
0.709804 0.219608 0.109804
0.756863 0.231373 0.133333
0.788235 0.247059 0.137255
0.823529 0.258824 0.156863
0.862745 0.274510 0.180392
0.898039 0.290196 0.203922
0.929412 0.305882 0.223529
0.956863 0.317647 0.250980
0.988235 0.337255 0.282353
0.062745 0.125490 0.074510
0.082353 0.125490 0.062745
0.105882 0.129412 0.082353
0.125490 0.125490 0.078431
0.149020 0.125490 0.078431
0.149020 0.109804 0.101961
0.168627 0.105882 0.105882
0.223529 0.137255 0.094118
0.282353 0.152941 0.078431
0.345098 0.172549 0.066667
0.407843 0.196078 0.062745
0.458824 0.200000 0.062745
0.513725 0.215686 0.074510
0.568627 0.235294 0.082353
0.627451 0.243137 0.090196
0.682353 0.250980 0.113725
0.725490 0.262745 0.121569
0.756863 0.270588 0.129412
0.811765 0.282353 0.156863
0.850980 0.298039 0.180392
0.886275 0.305882 0.203922
0.917647 0.321569 0.227451
0.949020 0.341176 0.254902
0.968627 0.360784 0.290196
1.000000 0.392157 0.333333
0.082353 0.168627 0.078431
0.121569 0.176471 0.086275
0.137255 0.172549 0.098039
0.164706 0.172549 0.090196
0.172549 0.176471 0.105882
0.188235 0.176471 0.109804
0.200000 0.160784 0.121569
0.223529 0.152941 0.152941
0.278431 0.168627 0.125490
0.345098 0.196078 0.121569
0.411765 0.219608 0.094118
0.478431 0.247059 0.082353
0.533333 0.266667 0.082353
0.588235 0.274510 0.074510
0.643137 0.290196 0.094118
0.686275 0.294118 0.101961
0.733333 0.309804 0.129412
0.776471 0.317647 0.149020
0.815686 0.321569 0.160784
0.847059 0.329412 0.180392
0.882353 0.337255 0.207843
0.917647 0.349020 0.235294
0.952941 0.364706 0.258824
0.972549 0.384314 0.290196
1.000000 0.407843 0.325490
0.129412 0.219608 0.105882
0.152941 0.227451 0.109804
0.168627 0.227451 0.098039
0.203922 0.227451 0.117647
0.215686 0.227451 0.113725
0.235294 0.227451 0.129412
0.254902 0.227451 0.125490
0.262745 0.207843 0.156863
0.278431 0.203922 0.176471
0.333333 0.223529 0.176471
0.407843 0.243137 0.156863
0.478431 0.270588 0.137255
0.545098 0.301961 0.117647
0.600000 0.325490 0.090196
0.647059 0.333333 0.101961
0.694118 0.337255 0.121569
0.741176 0.345098 0.141176
0.772549 0.349020 0.156863
0.815686 0.360784 0.168627
0.854902 0.364706 0.192157
0.886275 0.368627 0.215686
0.925490 0.384314 0.243137
0.949020 0.396078 0.278431
0.972549 0.411765 0.286275
1.000000 0.423529 0.356863
0.164706 0.282353 0.133333
0.196078 0.282353 0.129412
0.215686 0.286275 0.137255
0.243137 0.290196 0.133333
0.266667 0.294118 0.133333
0.286275 0.286275 0.145098
0.309804 0.286275 0.160784
0.325490 0.286275 0.180392
0.329412 0.266667 0.203922
0.345098 0.258824 0.215686
0.396078 0.270588 0.219608
0.470588 0.298039 0.200000
0.537255 0.317647 0.180392
0.600000 0.349020 0.160784
0.650980 0.368627 0.137255
0.705882 0.392157 0.121569
0.745098 0.396078 0.137255
0.784314 0.392157 0.160784
0.815686 0.400000 0.172549
0.858824 0.407843 0.196078
0.890196 0.400000 0.219608
0.909804 0.411765 0.250980
0.945098 0.419608 0.274510
0.976471 0.439216 0.305882
0.992157 0.450980 0.341176
0.219608 0.352941 0.156863
0.231373 0.349020 0.152941
0.247059 0.352941 0.145098
0.282353 0.352941 0.156863
0.309804 0.356863 0.160784
0.329412 0.360784 0.176471
0.356863 0.352941 0.180392
0.376471 0.345098 0.192157
0.396078 0.345098 0.211765
0.396078 0.325490 0.231373
0.419608 0.309804 0.254902
0.454902 0.321569 0.282353
0.529412 0.349020 0.254902
0.584314 0.364706 0.227451
0.643137 0.392157 0.219608
0.705882 0.411765 0.196078
0.752941 0.427451 0.168627
0.792157 0.435294 0.160784
0.823529 0.431373 0.188235
0.862745 0.435294 0.203922
0.882353 0.435294 0.223529
0.909804 0.447059 0.250980
0.937255 0.454902 0.282353
0.964706 0.462745 0.309804
0.984314 0.474510 0.333333
0.278431 0.435294 0.192157
0.282353 0.431373 0.192157
0.301961 0.435294 0.196078
0.329412 0.439216 0.200000
0.364706 0.435294 0.207843
0.384314 0.439216 0.207843
0.407843 0.439216 0.215686
0.431373 0.431373 0.235294
