assets/luts/cinematic-tones-luts-pack-for-video-and-photo-2023-11-27-05-35-37-utc/Cinematic Tones_LUTs/Cinematic Tones 04.cube
#Generated with IWLTBAP LUT Generator
#Website: http://luts.iwltbap.com
TITLE "Cinematic Tones 04"
#LUT size
LUT_3D_SIZE 9
#LUT data points
0.011765 0.050980 0.019608
0.050980 0.054902 0.031373
0.109804 0.074510 0.039216
0.203922 0.094118 0.047059
0.349020 0.133333 0.050980
0.545098 0.176471 0.078431
0.741176 0.227451 0.117647
0.909804 0.298039 0.207843
0.996078 0.411765 0.333333
0.015686 0.105882 0.035294
0.062745 0.105882 0.039216
0.133333 0.121569 0.047059
0.247059 0.145098 0.047059
0.392157 0.176471 0.058824
0.572549 0.227451 0.086275
0.772549 0.266667 0.141176
0.917647 0.329412 0.223529
0.992157 0.443137 0.352941
0.000000 0.203922 0.050980
0.000000 0.219608 0.050980
0.172549 0.211765 0.066667
0.290196 0.235294 0.098039
0.505882 0.305882 0.082353
0.678431 0.341176 0.117647
0.831373 0.376471 0.184314
0.952941 0.435294 0.286275
1.000000 0.521569 0.427451
0.000000 0.380392 0.054902
0.000000 0.396078 0.058824
0.137255 0.407843 0.094118
0.376471 0.400000 0.164706
0.501961 0.392157 0.235294
0.745098 0.474510 0.243137
0.886275 0.513725 0.286275
0.964706 0.549020 0.384314
1.000000 0.607843 0.505882
0.007843 0.592157 0.137255
0.003922 0.596078 0.145098
0.003922 0.607843 0.160784
0.419608 0.607843 0.219608
0.619608 0.592157 0.317647
0.701961 0.560784 0.419608
0.874510 0.631373 0.470588
0.952941 0.682353 0.552941
0.964706 0.741176 0.674510
0.000000 0.752941 0.317647
0.000000 0.752941 0.333333
0.180392 0.760784 0.329412
0.415686 0.752941 0.372549
0.647059 0.741176 0.443137
0.792157 0.725490 0.521569
0.827451 0.701961 0.611765
0.905882 0.756863 0.674510
0.941176 0.796078 0.760784
0.427451 0.823529 0.509804
0.447059 0.835294 0.521569
0.486275 0.823529 0.537255
0.537255 0.835294 0.545098
0.682353 0.823529 0.580392
0.788235 0.811765 0.639216
0.862745 0.803922 0.682353
0.878431 0.792157 0.749020
0.905882 0.827451 0.792157
0.713725 0.858824 0.698039
0.717647 0.862745 0.701961
0.733333 0.858824 0.713725
0.741176 0.866667 0.713725
0.784314 0.858824 0.733333
0.835294 0.858824 0.756863
0.878431 0.858824 0.784314
0.901961 0.847059 0.796078
0.921569 0.850980 0.835294
0.839216 0.882353 0.815686
0.839216 0.890196 0.823529
0.839216 0.882353 0.815686
0.862745 0.878431 0.823529
0.858824 0.886275 0.815686
0.874510 0.882353 0.831373
0.898039 0.882353 0.839216
0.921569 0.878431 0.854902
0.929412 0.886275 0.870588
0.023529 0.058824 0.047059
0.054902 0.054902 0.054902
0.113725 0.078431 0.050980
0.203922 0.105882 0.078431
0.349020 0.145098 0.101961
0.529412 0.176471 0.133333
0.729412 0.235294 0.176471
0.898039 0.305882 0.231373
1.000000 0.411765 0.368627
0.047059 0.098039 0.058824
0.070588 0.109804 0.066667
0.121569 0.125490 0.070588
0.231373 0.145098 0.090196
0.388235 0.184314 0.101961
0.564706 0.219608 0.133333
0.737255 0.274510 0.172549
0.894118 0.325490 0.243137
1.000000 0.431373 0.364706
0.000000 0.207843 0.086275
0.019608 0.215686 0.078431
0.168627 0.219608 0.117647
0.298039 0.258824 0.121569
0.505882 0.305882 0.137255
0.662745 0.337255 0.172549
0.819608 0.372549 0.227451
0.937255 0.431373 0.309804
1.000000 0.521569 0.431373
0.000000 0.380392 0.109804
0.000000 0.388235 0.113725
0.113725 0.400000 0.121569
0.360784 0.392157 0.200000
0.501961 0.403922 0.243137
0.729412 0.474510 0.262745
0.866667 0.505882 0.305882
0.952941 0.537255 0.384314
0.992157 0.600000 0.505882
0.000000 0.580392 0.188235
0.000000 0.592157 0.188235
0.003922 0.600000 0.203922
0.407843 0.600000 0.250980
0.619608 0.584314 0.352941
0.705882 0.564706 0.423529
0.866667 0.635294 0.478431
0.949020 0.686275 0.572549
0.960784 0.737255 0.662745
0.011765 0.741176 0.352941
0.000000 0.745098 0.341176
0.219608 0.752941 0.368627
0.411765 0.745098 0.388235
0.639216 0.741176 0.454902
0.780392 0.729412 0.525490
0.823529 0.701961 0.623529
0.909804 0.756863 0.690196
0.945098 0.796078 0.752941
0.439216 0.823529 0.529412
0.462745 0.823529 0.521569
0.501961 0.823529 0.533333
0.545098 0.831373 0.560784
0.674510 0.823529 0.592157
0.788235 0.811765 0.639216
0.862745 0.803922 0.682353
0.874510 0.788235 0.745098
0.909804 0.831373 0.803922
0.698039 0.866667 0.690196
0.725490 0.858824 0.713725
0.737255 0.862745 0.717647
0.749020 0.854902 0.717647
0.776471 0.858824 0.737255
0.823529 0.854902 0.760784
0.878431 0.850980 0.780392
0.901961 0.847059 0.803922
0.913725 0.847059 0.819608
0.847059 0.882353 0.800000
0.847059 0.882353 0.807843
0.847059 0.878431 0.819608
0.858824 0.886275 0.823529
0.854902 0.882353 0.819608
0.874510 0.882353 0.827451
0.909804 0.882353 0.850980
0.921569 0.878431 0.854902
0.941176 0.882353 0.862745
0.031373 0.058824 0.082353
0.058824 0.074510 0.086275
0.113725 0.090196 0.105882
0.223529 0.105882 0.145098
0.364706 0.129412 0.168627
0.537255 0.164706 0.188235
0.698039 0.243137 0.243137
0.878431 0.321569 0.313725
0.992157 0.435294 0.419608
0.066667 0.113725 0.113725
0.074510 0.125490 0.098039
0.133333 0.125490 0.129412
0.239216 0.141176 0.152941
0.388235 0.176471 0.176471
0.533333 0.231373 0.200000
0.713725 0.278431 0.250980
0.878431 0.341176 0.301961
0.984314 0.447059 0.423529
0.054902 0.203922 0.145098
0.094118 0.215686 0.156863
0.164706 0.231373 0.160784
0.309804 0.258824 0.192157
0.462745 0.294118 0.219608
0.635294 0.333333 0.254902
0.788235 0.376471 0.294118
0.917647 0.447059 0.380392
0.988235 0.533333 0.482353
0.003922 0.384314 0.215686
0.035294 0.392157 0.231373
0.133333 0.407843 0.211765
0.364706 0.403922 0.258824
0.537255 0.435294 0.298039
0.729412 0.482353 0.321569
0.847059 0.509804 0.372549
0.937255 0.545098 0.443137
0.984314 0.611765 0.541176
0.000000 0.584314 0.305882
0.000000 0.584314 0.301961
0.121569 0.600000 0.298039
0.384314 0.603922 0.317647
0.611765 0.588235 0.400000
0.717647 0.584314 0.474510
0.866667 0.654902 0.521569
0.941176 0.698039 0.600000
0.956863 0.737255 0.678431
0.231373 0.745098 0.431373
0.247059 0.741176 0.423529
0.317647 0.745098 0.427451
0.423529 0.749020 0.443137
0.643137 0.737255 0.494118
0.784314 0.725490 0.556863
0.831373 0.709804 0.639216
0.905882 0.764706 0.701961
0.925490 0.807843 0.764706
0.498039 0.819608 0.568627
0.513725 0.819608 0.576471
0.541176 0.823529 0.576471
0.592157 0.819608 0.592157
0.686275 0.811765 0.615686
0.792157 0.811765 0.654902
0.858824 0.803922 0.701961
0.882353 0.796078 0.752941
0.917647 0.819608 0.800000
0.721569 0.858824 0.701961
0.729412 0.862745 0.733333
0.745098 0.858824 0.737255
0.760784 0.858824 0.733333
0.776471 0.858824 0.737255
0.823529 0.854902 0.764706
0.874510 0.854902 0.780392
0.898039 0.850980 0.803922
0.909804 0.850980 0.839216
0.835294 0.878431 0.815686
0.839216 0.886275 0.807843
0.847059 0.882353 0.815686
0.850980 0.874510 0.819608
0.862745 0.878431 0.823529
0.878431 0.878431 0.831373
0.894118 0.878431 0.831373
0.917647 0.882353 0.854902
0.929412 0.878431 0.854902
0.050980 0.086275 0.152941
0.082353 0.086275 0.164706
0.149020 0.101961 0.180392
0.247059 0.113725 0.211765
0.388235 0.137255 0.270588
0.572549 0.172549 0.325490
0.729412 0.215686 0.337255
0.878431 0.305882 0.388235
0.964706 0.427451 0.454902
0.058824 0.129412 0.184314
0.101961 0.141176 0.188235
0.156863 0.149020 0.203922
0.258824 0.160784 0.243137
0.400000 0.184314 0.274510
0.576471 0.215686 0.305882
0.733333 0.266667 0.341176
0.866667 0.333333 0.372549
0.952941 0.466667 0.474510
0.090196 0.243137 0.231373
0.133333 0.250980 0.243137
0.203922 0.258824 0.270588
0.305882 0.270588 0.282353
0.462745 0.298039 0.313725
0.619608 0.325490 0.341176
0.752941 0.376471 0.380392
0.882353 0.454902 0.443137
0.964706 0.537255 0.525490
0.086275 0.388235 0.317647
0.152941 0.396078 0.313725
0.258824 0.403922 0.337255
0.376471 0.419608 0.352941
0.552941 0.454902 0.376471
0.678431 0.474510 0.419608
0.803922 0.505882 0.443137
0.898039 0.552941 0.498039
0.960784 0.619608 0.580392
0.184314 0.584314 0.427451
0.235294 0.592157 0.419608
0.341176 0.596078 0.431373
0.411765 0.603922 0.427451
0.619608 0.600000 0.482353
0.745098 0.623529 0.541176
0.874510 0.678431 0.588235
0.925490 0.698039 0.643137
0.956863 0.733333 0.690196
0.435294 0.733333 0.549020
0.466667 0.733333 0.549020
0.478431 0.741176 0.541176
0.513725 0.745098 0.525490
0.643137 0.745098 0.560784
0.784314 0.733333 0.607843
0.839216 0.729412 0.682353
0.905882 0.772549 0.733333
0.929412 0.811765 0.772549
0.592157 0.815686 0.639216
0.611765 0.819608 0.654902
0.611765 0.815686 0.635294
0.639216 0.819608 0.639216
0.690196 0.819608 0.650980
0.792157 0.811765 0.686275
0.862745 0.803922 0.721569
0.882353 0.803922 0.768627
0.913725 0.831373 0.811765
0.752941 0.854902 0.741176
0.749020 0.850980 0.745098
0.756863 0.858824 0.745098
0.772549 0.862745 0.749020
0.792157 0.850980 0.760784
0.839216 0.850980 0.776471
0.874510 0.850980 0.788235
0.901961 0.850980 0.815686
0.901961 0.858824 0.843137
0.847059 0.878431 0.819608
0.850980 0.878431 0.815686
0.850980 0.886275 0.819608
0.850980 0.882353 0.823529
0.866667 0.878431 0.835294
0.874510 0.882353 0.831373
0.898039 0.882353 0.839216
0.917647 0.882353 0.854902
0.929412 0.886275 0.862745
0.074510 0.105882 0.286275
0.113725 0.105882 0.290196
0.176471 0.125490 0.305882
0.270588 0.137255 0.333333
0.400000 0.164706 0.376471
0.576471 0.192157 0.431373
0.772549 0.247059 0.486275
0.890196 0.329412 0.501961
0.976471 0.450980 0.556863
0.078431 0.156863 0.301961
0.117647 0.172549 0.317647
0.200000 0.172549 0.337255
0.298039 0.192157 0.352941
0.427451 0.207843 0.384314
0.592157 0.239216 0.439216
0.764706 0.286275 0.478431
0.882353 0.356863 0.486275
0.968627 0.458824 0.552941
0.121569 0.282353 0.360784
0.164706 0.282353 0.384314
0.239216 0.294118 0.396078
0.345098 0.309804 0.415686
0.470588 0.317647 0.431373
0.643137 0.345098 0.486275
0.788235 0.392157 0.509804
0.898039 0.454902 0.533333
0.960784 0.545098 0.592157
0.227451 0.419608 0.447059
0.258824 0.431373 0.443137
0.341176 0.439216 0.458824
0.431373 0.450980 0.466667
0.537255 0.454902 0.482353
0.678431 0.478431 0.513725
0.784314 0.498039 0.525490
0.874510 0.533333 0.556863
0.929412 0.592157 0.596078
0.294118 0.584314 0.517647
0.345098 0.580392 0.541176
0.419608 0.592157 0.541176
0.509804 0.603922 0.552941
0.627451 0.611765 0.568627
0.752941 0.635294 0.596078
0.831373 0.658824 0.623529
0.901961 0.686275 0.666667
0.937255 0.729412 0.705882
0.478431 0.733333 0.615686
0.501961 0.733333 0.615686
0.556863 0.729412 0.623529
0.623529 0.733333 0.643137
0.674510 0.737255 0.635294
0.780392 0.737255 0.666667
0.854902 0.749020 0.713725
0.905882 0.788235 0.749020
0.937255 0.807843 0.788235
0.650980 0.807843 0.701961
0.666667 0.807843 0.705882
0.694118 0.803922 0.705882
0.717647 0.811765 0.709804
0.733333 0.811765 0.701961
0.792157 0.811765 0.721569
0.854902 0.807843 0.745098
0.886275 0.803922 0.784314
0.909804 0.843137 0.815686
0.780392 0.847059 0.772549
0.780392 0.847059 0.772549
0.796078 0.854902 0.772549
0.796078 0.854902 0.772549
0.803922 0.854902 0.776471
0.831373 0.862745 0.780392
0.870588 0.858824 0.800000
0.901961 0.850980 0.815686
0.901961 0.858824 0.843137
0.850980 0.874510 0.827451
0.854902 0.878431 0.831373
0.854902 0.878431 0.831373
0.858824 0.882353 0.835294
0.866667 0.882353 0.827451
0.874510 0.882353 0.839216
0.894118 0.886275 0.839216
0.917647 0.882353 0.862745
0.925490 0.882353 0.866667
0.086275 0.149020 0.450980
0.141176 0.152941 0.462745
0.227451 0.156863 0.478431
0.325490 0.172549 0.490196
0.447059 0.200000 0.517647
0.592157 0.223529 0.552941
0.760784 0.278431 0.596078
0.898039 0.364706 0.623529
0.976471 0.498039 0.658824
0.113725 0.203922 0.466667
0.156863 0.207843 0.482353
0.227451 0.215686 0.486275
0.329412 0.223529 0.494118
0.447059 0.247059 0.517647
0.592157 0.270588 0.560784
0.752941 0.305882 0.588235
0.898039 0.376471 0.623529
0.968627 0.490196 0.650980
0.176471 0.321569 0.529412
0.207843 0.333333 0.525490
0.294118 0.333333 0.541176
0.392157 0.341176 0.549020
0.505882 0.360784 0.564706
0.643137 0.380392 0.592157
0.796078 0.407843 0.623529
0.905882 0.486275 0.650980
0.956863 0.572549 0.670588
0.294118 0.458824 0.556863
0.337255 0.466667 0.588235
0.392157 0.474510 0.580392
0.466667 0.482353 0.596078
0.552941 0.490196 0.596078
0.662745 0.486275 0.600000
0.792157 0.513725 0.639216
0.890196 0.560784 0.662745
0.937255 0.611765 0.674510
0.443137 0.600000 0.647059
0.454902 0.603922 0.654902
0.529412 0.607843 0.650980
0.600000 0.635294 0.670588
0.666667 0.631373 0.650980
0.725490 0.635294 0.666667
0.823529 0.654902 0.690196
0.890196 0.674510 0.698039
0.917647 0.701961 0.713725
0.556863 0.733333 0.705882
0.568627 0.725490 0.694118
0.611765 0.725490 0.705882
0.654902 0.729412 0.705882
0.713725 0.733333 0.709804
0.776471 0.741176 0.713725
0.850980 0.756863 0.741176
0.890196 0.768627 0.760784
0.929412 0.788235 0.788235
0.670588 0.800000 0.733333
0.678431 0.807843 0.725490
0.709804 0.803922 0.749020
0.733333 0.803922 0.749020
0.768627 0.811765 0.749020
0.796078 0.811765 0.756863
0.858824 0.800000 0.772549
0.894118 0.819608 0.796078
0.917647 0.843137 0.827451
0.788235 0.850980 0.807843
0.807843 0.847059 0.803922
0.803922 0.854902 0.788235
0.807843 0.850980 0.796078
0.827451 0.850980 0.803922
0.839216 0.850980 0.807843
0.862745 0.854902 0.803922
0.905882 0.854902 0.831373
0.913725 0.854902 0.843137
0.858824 0.882353 0.843137
0.866667 0.878431 0.835294
0.866667 0.878431 0.835294
0.862745 0.886275 0.847059
0.866667 0.878431 0.843137
0.878431 0.886275 0.843137
0.894118 0.882353 0.847059
0.917647 0.882353 0.862745
0.925490 0.882353 0.866667
0.152941 0.215686 0.658824
0.192157 0.223529 0.658824
0.286275 0.231373 0.666667
0.396078 0.247059 0.674510
0.513725 0.274510 0.682353
0.631373 0.298039 0.701961
0.768627 0.341176 0.705882
0.886275 0.403922 0.721569
0.968627 0.533333 0.741176
0.164706 0.262745 0.658824
0.219608 0.266667 0.666667
0.290196 0.282353 0.670588
0.400000 0.298039 0.678431
0.517647 0.305882 0.682353
0.631373 0.333333 0.686275
0.760784 0.368627 0.713725
0.878431 0.419608 0.725490
0.956863 0.537255 0.741176
0.274510 0.388235 0.701961
0.294118 0.396078 0.698039
0.372549 0.396078 0.701961
0.454902 0.407843 0.705882
0.564706 0.415686 0.709804
0.666667 0.431373 0.721569
0.780392 0.454902 0.721569
0.886275 0.513725 0.741176
0.949020 0.603922 0.760784
0.403922 0.513725 0.701961
0.435294 0.521569 0.713725
0.478431 0.525490 0.713725
0.537255 0.529412 0.721569
0.611765 0.533333 0.725490
0.694118 0.541176 0.725490
0.792157 0.549020 0.733333
0.878431 0.584314 0.745098
0.937255 0.650980 0.756863
0.572549 0.654902 0.737255
0.611765 0.650980 0.749020
0.635294 0.666667 0.749020
0.662745 0.666667 0.745098
0.709804 0.662745 0.749020
0.745098 0.670588 0.749020
0.815686 0.666667 0.756863
0.886275 0.694118 0.776471
0.933333 0.733333 0.792157
0.670588 0.745098 0.768627
0.686275 0.745098 0.772549
0.705882 0.749020 0.772549
0.737255 0.749020 0.776471
0.772549 0.752941 0.780392
0.807843 0.756863 0.784314
0.839216 0.756863 0.784314
0.886275 0.764706 0.788235
0.921569 0.776471 0.803922
0.725490 0.800000 0.784314
0.725490 0.800000 0.792157
0.741176 0.803922 0.792157
0.760784 0.803922 0.788235
0.788235 0.815686 0.788235
0.827451 0.803922 0.803922
0.850980 0.807843 0.800000
0.894118 0.815686 0.811765
0.909804 0.835294 0.819608
0.803922 0.850980 0.811765
0.803922 0.847059 0.815686
0.815686 0.843137 0.811765
0.819608 0.847059 0.815686
0.843137 0.850980 0.831373
0.854902 0.854902 0.815686
0.866667 0.854902 0.819608
0.905882 0.850980 0.839216
0.909804 0.862745 0.862745
0.854902 0.882353 0.854902
0.858824 0.878431 0.850980
0.858824 0.878431 0.850980
0.870588 0.882353 0.854902
0.882353 0.882353 0.850980
0.890196 0.878431 0.850980
0.886275 0.886275 0.854902
0.913725 0.886275 0.862745
0.929412 0.886275 0.878431
0.298039 0.341176 0.803922
0.337255 0.349020 0.807843
0.400000 0.360784 0.811765
0.478431 0.376471 0.807843
0.576471 0.400000 0.811765
0.670588 0.427451 0.815686
0.772549 0.454902 0.815686
0.870588 0.505882 0.819608
0.945098 0.572549 0.823529
0.325490 0.372549 0.796078
0.352941 0.380392 0.796078
0.407843 0.396078 0.807843
0.490196 0.407843 0.803922
0.576471 0.431373 0.807843
0.674510 0.454902 0.811765
0.768627 0.474510 0.807843
0.862745 0.517647 0.815686
0.941176 0.584314 0.823529
0.427451 0.474510 0.803922
0.458824 0.490196 0.815686
0.509804 0.498039 0.815686
0.560784 0.505882 0.815686
0.627451 0.517647 0.807843
0.709804 0.529412 0.811765
0.792157 0.549020 0.811765
0.878431 0.588235 0.819608
0.933333 0.635294 0.827451
0.545098 0.588235 0.800000
0.564706 0.603922 0.811765
0.596078 0.603922 0.803922
0.635294 0.607843 0.811765
0.686275 0.615686 0.811765
0.741176 0.615686 0.807843
0.803922 0.623529 0.807843
0.866667 0.635294 0.815686
0.925490 0.674510 0.819608
0.682353 0.709804 0.819608
0.705882 0.709804 0.831373
0.709804 0.709804 0.819608
0.729412 0.713725 0.819608
0.760784 0.709804 0.811765
0.788235 0.713725 0.823529
0.827451 0.709804 0.819608
0.874510 0.717647 0.819608
0.917647 0.749020 0.827451
0.768627 0.776471 0.827451
0.772549 0.780392 0.831373
0.784314 0.780392 0.835294
0.803922 0.780392 0.827451
0.811765 0.780392 0.831373
0.827451 0.780392 0.819608
0.850980 0.780392 0.827451
0.874510 0.780392 0.835294
0.913725 0.796078 0.835294
0.796078 0.815686 0.827451
0.811765 0.815686 0.823529
0.803922 0.819608 0.831373
0.823529 0.819608 0.839216
0.847059 0.819608 0.847059
0.862745 0.827451 0.839216
0.866667 0.823529 0.839216
0.890196 0.823529 0.847059
0.909804 0.827451 0.854902
0.831373 0.854902 0.854902
0.831373 0.850980 0.862745
0.843137 0.850980 0.831373
0.847059 0.847059 0.847059
0.850980 0.850980 0.858824
0.858824 0.850980 0.854902
0.886275 0.847059 0.850980
0.898039 0.850980 0.850980
0.917647 0.862745 0.850980
0.854902 0.882353 0.854902
0.862745 0.882353 0.858824
0.874510 0.882353 0.862745
0.866667 0.874510 0.854902
0.882353 0.878431 0.870588
0.894118 0.878431 0.866667
0.894118 0.878431 0.866667
0.905882 0.886275 0.870588
0.925490 0.886275 0.878431
0.552941 0.537255 0.870588
0.560784 0.537255 0.874510
0.600000 0.552941 0.874510
0.639216 0.564706 0.874510
0.694118 0.588235 0.866667
0.752941 0.607843 0.870588
0.807843 0.631373 0.862745
0.862745 0.647059 0.862745
0.917647 0.694118 0.862745
0.568627 0.552941 0.882353
0.584314 0.556863 0.858824
0.611765 0.568627 0.866667
0.647059 0.584314 0.862745
0.698039 0.596078 0.874510
0.752941 0.619608 0.858824
0.807843 0.635294 0.866667
0.858824 0.662745 0.862745
0.909804 0.694118 0.858824
0.639216 0.619608 0.870588
0.650980 0.627451 0.862745
0.674510 0.639216 0.862745
0.701961 0.643137 0.866667
0.737255 0.658824 0.866667
0.784314 0.666667 0.862745
0.827451 0.678431 0.870588
0.870588 0.694118 0.862745
0.913725 0.729412 0.854902
0.698039 0.686275 0.862745
0.713725 0.690196 0.862745
0.721569 0.694118 0.858824
0.745098 0.694118 0.862745
0.772549 0.705882 0.870588
0.796078 0.709804 0.858824
0.835294 0.717647 0.858824
0.874510 0.729412 0.862745
0.917647 0.749020 0.858824
0.768627 0.756863 0.870588
0.776471 0.760784 0.858824
0.784314 0.764706 0.854902
0.800000 0.760784 0.858824
0.811765 0.764706 0.858824
0.827451 0.768627 0.858824
0.854902 0.768627 0.858824
0.882353 0.772549 0.862745
0.913725 0.784314 0.858824
0.831373 0.815686 0.870588
0.827451 0.815686 0.858824
0.831373 0.815686 0.870588
0.835294 0.811765 0.866667
0.839216 0.807843 0.866667
0.858824 0.811765 0.866667
0.874510 0.807843 0.870588
0.894118 0.811765 0.870588
0.921569 0.815686 0.874510
0.854902 0.847059 0.866667
0.862745 0.843137 0.870588
0.862745 0.843137 0.870588
0.866667 0.847059 0.874510
0.870588 0.843137 0.874510
0.878431 0.843137 0.862745
0.882353 0.839216 0.870588
0.901961 0.843137 0.870588
0.909804 0.843137 0.874510
0.874510 0.866667 0.878431
0.878431 0.858824 0.874510
0.874510 0.866667 0.878431
0.882353 0.862745 0.878431
0.886275 0.866667 0.882353
0.890196 0.866667 0.874510
0.901961 0.866667 0.878431
0.905882 0.862745 0.878431
0.913725 0.866667 0.874510
0.886275 0.878431 0.882353
0.886275 0.882353 0.874510
0.886275 0.878431 0.882353
0.886275 0.886275 0.886275
0.890196 0.886275 0.878431
0.898039 0.882353 0.878431
0.905882 0.882353 0.882353
0.909804 0.886275 0.886275
0.925490 0.886275 0.882353
