assets/luts/cinematic-tones-luts-pack-for-video-and-photo-2023-11-27-05-35-37-utc/Cinematic Tones_LUTs/Cinematic Tones 02.cube
#Generated with IWLTBAP LUT Generator
#Website: http://luts.iwltbap.com
TITLE "Cinematic Tones 02"
#LUT size
LUT_3D_SIZE 5
#LUT data points
0.094118 0.090196 0.082353
0.188235 0.109804 0.105882
0.396078 0.164706 0.109804
0.709804 0.266667 0.109804
1.000000 0.380392 0.160784
0.149020 0.156863 0.152941
0.196078 0.160784 0.133333
0.498039 0.250980 0.129412
0.784314 0.337255 0.141176
1.000000 0.439216 0.211765
0.313725 0.325490 0.282353
0.345098 0.329412 0.286275
0.458824 0.337255 0.258824
0.925490 0.552941 0.301961
0.996078 0.607843 0.392157
0.627451 0.643137 0.588235
0.670588 0.654902 0.611765
0.654902 0.607843 0.552941
0.780392 0.596078 0.478431
1.000000 0.788235 0.670588
0.894118 0.894118 0.862745
0.894118 0.890196 0.874510
0.894118 0.890196 0.870588
0.901961 0.866667 0.839216
0.960784 0.890196 0.850980
0.101961 0.176471 0.192157
0.176471 0.160784 0.227451
0.400000 0.176471 0.211765
0.658824 0.274510 0.239216
0.976471 0.396078 0.294118
0.164706 0.219608 0.219608
0.223529 0.239216 0.250980
0.431373 0.278431 0.258824
0.721569 0.349020 0.278431
1.000000 0.450980 0.333333
0.301961 0.368627 0.329412
0.368627 0.396078 0.368627
0.466667 0.388235 0.345098
0.870588 0.572549 0.431373
0.996078 0.623529 0.498039
0.600000 0.647059 0.592157
0.647059 0.670588 0.623529
0.686275 0.658824 0.619608
0.772549 0.623529 0.533333
0.996078 0.807843 0.721569
0.878431 0.890196 0.854902
0.890196 0.894118 0.874510
0.909804 0.894118 0.882353
0.894118 0.874510 0.850980
0.956863 0.890196 0.850980
0.000000 0.462745 0.525490
0.184314 0.470588 0.537255
0.380392 0.325490 0.564706
0.768627 0.337255 0.529412
0.901961 0.388235 0.443137
0.196078 0.482353 0.541176
0.278431 0.505882 0.549020
0.400000 0.411765 0.572549
0.760784 0.411765 0.529412
0.905882 0.454902 0.474510
0.356863 0.545098 0.560784
0.415686 0.560784 0.584314
0.537255 0.592157 0.603922
0.729412 0.576471 0.580392
0.968627 0.662745 0.623529
0.533333 0.666667 0.662745
0.588235 0.694118 0.674510
0.721569 0.741176 0.725490
0.772549 0.705882 0.674510
0.972549 0.866667 0.831373
0.850980 0.894118 0.862745
0.874510 0.894118 0.878431
0.905882 0.913725 0.894118
0.905882 0.901961 0.882353
0.956863 0.905882 0.874510
0.533333 0.764706 0.827451
0.568627 0.772549 0.823529
0.635294 0.764706 0.839216
0.658824 0.619608 0.823529
0.945098 0.658824 0.835294
0.556863 0.764706 0.819608
0.607843 0.780392 0.831373
0.674510 0.784314 0.839216
0.682353 0.662745 0.823529
0.952941 0.698039 0.831373
0.635294 0.792157 0.823529
0.658824 0.803922 0.827451
0.725490 0.815686 0.839216
0.745098 0.752941 0.835294
0.937255 0.768627 0.835294
0.709804 0.819608 0.831373
0.733333 0.827451 0.835294
0.776471 0.835294 0.847059
0.823529 0.839216 0.850980
0.929412 0.835294 0.827451
0.827451 0.882353 0.894118
0.827451 0.890196 0.890196
0.862745 0.901961 0.905882
0.929412 0.937255 0.925490
0.956863 0.925490 0.917647
0.854902 0.913725 0.933333
0.866667 0.921569 0.933333
0.882353 0.917647 0.937255
0.898039 0.917647 0.941176
0.905882 0.890196 0.945098
0.854902 0.913725 0.933333
0.866667 0.921569 0.933333
0.890196 0.929412 0.937255
0.901961 0.921569 0.937255
0.898039 0.898039 0.937255
0.862745 0.913725 0.937255
0.866667 0.921569 0.933333
0.886275 0.925490 0.933333
0.909804 0.929412 0.941176
0.913725 0.909804 0.941176
0.886275 0.929412 0.937255
0.886275 0.929412 0.937255
0.894118 0.933333 0.937255
0.921569 0.937255 0.941176
0.937255 0.929412 0.949020
0.898039 0.937255 0.933333
0.901961 0.933333 0.941176
0.913725 0.933333 0.945098
0.929412 0.945098 0.949020
0.949020 0.949020 0.949020
